;Titan-7 Block Dovetailing
;Machine
;vendor: Snapmaker
;model: Desktop CNC
;description: Generic Snapmaker Marlin v20180725
M3 S10000
G4 P2
G21
G90
;When using Fusion for Personal Use, the feedrate of rapid
;moves is reduced to match the feedrate of cutting moves,
;which can increase machining time. Unrestricted rapid moves
;are available with a Fusion Subscription.

;Titan-7 Block Dovetailing
G0 X42.060 Y-0.048 Z5.000
G1 X42.060 Y-0.048 Z5.000 F200
G1 X42.060 Y-0.048 Z0.218 F200
G1 X42.052 Y-0.048 Z0.147 F200
G1 X42.029 Y-0.048 Z0.080 F200
G1 X41.991 Y-0.048 Z0.020 F200
G1 X41.941 Y-0.048 Z-0.031 F200
G1 X41.881 Y-0.048 Z-0.069 F200
G1 X41.813 Y-0.048 Z-0.092 F200
G1 X41.743 Y-0.048 Z-0.100 F200
G1 X41.597 Y-0.048 Z-0.100 F200
G1 X-1.597 Y-0.048 Z-0.100 F200
G1 X-1.705 Y-0.040 Z-0.100 F200
G1 X-1.811 Y-0.017 Z-0.100 F200
G1 X-1.913 Y0.021 Z-0.100 F200
G1 X-2.008 Y0.073 Z-0.100 F200
G1 X-2.094 Y0.138 Z-0.100 F200
G1 X-2.171 Y0.214 Z-0.100 F200
G1 X-2.236 Y0.301 Z-0.100 F200
G1 X-2.288 Y0.396 Z-0.100 F200
G1 X-2.325 Y0.497 Z-0.100 F200
G1 X-2.349 Y0.603 Z-0.100 F200
G1 X-2.356 Y0.711 Z-0.100 F200
G1 X-2.349 Y0.819 Z-0.100 F200
G1 X-2.325 Y0.925 Z-0.100 F200
G1 X-2.288 Y1.026 Z-0.100 F200
G1 X-2.236 Y1.121 Z-0.100 F200
G1 X-2.171 Y1.208 Z-0.100 F200
G1 X-2.094 Y1.284 Z-0.100 F200
G1 X-2.008 Y1.349 Z-0.100 F200
G1 X-1.913 Y1.401 Z-0.100 F200
G1 X-1.811 Y1.439 Z-0.100 F200
G1 X-1.705 Y1.462 Z-0.100 F200
G1 X-1.597 Y1.470 Z-0.100 F200
G1 X41.597 Y1.470 Z-0.100 F200
G1 X41.668 Y1.470 Z-0.092 F1500
G1 X41.735 Y1.470 Z-0.069 F1500
G1 X41.795 Y1.470 Z-0.031 F1500
G1 X41.846 Y1.470 Z0.020 F1500
G1 X41.884 Y1.470 Z0.080 F1500
G1 X41.907 Y1.470 Z0.147 F1500
G1 X41.915 Y1.470 Z0.218 F1500
G1 X41.915 Y1.470 Z1.000 F200
G1 X42.060 Y-0.048 Z1.000 F200
G1 X42.060 Y-0.048 Z0.117 F200
G1 X42.052 Y-0.048 Z0.047 F200
G1 X42.029 Y-0.048 Z-0.020 F200
G1 X41.991 Y-0.048 Z-0.080 F200
G1 X41.941 Y-0.048 Z-0.131 F200
G1 X41.881 Y-0.048 Z-0.169 F200
G1 X41.813 Y-0.048 Z-0.192 F200
G1 X41.743 Y-0.048 Z-0.200 F200
G1 X41.597 Y-0.048 Z-0.200 F200
G1 X-1.597 Y-0.048 Z-0.200 F200
G1 X-1.705 Y-0.040 Z-0.200 F200
G1 X-1.811 Y-0.017 Z-0.200 F200
G1 X-1.913 Y0.021 Z-0.200 F200
G1 X-2.008 Y0.073 Z-0.200 F200
G1 X-2.094 Y0.138 Z-0.200 F200
G1 X-2.171 Y0.214 Z-0.200 F200
G1 X-2.236 Y0.301 Z-0.200 F200
G1 X-2.288 Y0.396 Z-0.200 F200
G1 X-2.325 Y0.497 Z-0.200 F200
G1 X-2.349 Y0.603 Z-0.200 F200
G1 X-2.356 Y0.711 Z-0.200 F200
G1 X-2.349 Y0.819 Z-0.200 F200
G1 X-2.325 Y0.925 Z-0.200 F200
G1 X-2.288 Y1.026 Z-0.200 F200
G1 X-2.236 Y1.121 Z-0.200 F200
G1 X-2.171 Y1.208 Z-0.200 F200
G1 X-2.094 Y1.284 Z-0.200 F200
G1 X-2.008 Y1.349 Z-0.200 F200
G1 X-1.913 Y1.401 Z-0.200 F200
G1 X-1.811 Y1.439 Z-0.200 F200
G1 X-1.705 Y1.462 Z-0.200 F200
G1 X-1.597 Y1.470 Z-0.200 F200
G1 X41.597 Y1.470 Z-0.200 F200
G1 X41.668 Y1.470 Z-0.192 F1500
G1 X41.735 Y1.470 Z-0.169 F1500
G1 X41.795 Y1.470 Z-0.131 F1500
G1 X41.846 Y1.470 Z-0.080 F1500
G1 X41.884 Y1.470 Z-0.020 F1500
G1 X41.907 Y1.470 Z0.047 F1500
G1 X41.915 Y1.470 Z0.117 F1500
G1 X41.915 Y1.470 Z1.000 F200
G1 X42.060 Y-0.048 Z1.000 F200
G1 X42.060 Y-0.048 Z0.018 F200
G1 X42.052 Y-0.048 Z-0.053 F200
G1 X42.029 Y-0.048 Z-0.120 F200
G1 X41.991 Y-0.048 Z-0.180 F200
G1 X41.941 Y-0.048 Z-0.231 F200
G1 X41.881 Y-0.048 Z-0.269 F200
G1 X41.813 Y-0.048 Z-0.292 F200
G1 X41.743 Y-0.048 Z-0.300 F200
G1 X41.597 Y-0.048 Z-0.300 F200
G1 X-1.597 Y-0.048 Z-0.300 F200
G1 X-1.705 Y-0.040 Z-0.300 F200
G1 X-1.811 Y-0.017 Z-0.300 F200
G1 X-1.913 Y0.021 Z-0.300 F200
G1 X-2.008 Y0.073 Z-0.300 F200
G1 X-2.094 Y0.138 Z-0.300 F200
G1 X-2.171 Y0.214 Z-0.300 F200
G1 X-2.236 Y0.301 Z-0.300 F200
G1 X-2.288 Y0.396 Z-0.300 F200
G1 X-2.325 Y0.497 Z-0.300 F200
G1 X-2.349 Y0.603 Z-0.300 F200
G1 X-2.356 Y0.711 Z-0.300 F200
G1 X-2.349 Y0.819 Z-0.300 F200
G1 X-2.325 Y0.925 Z-0.300 F200
G1 X-2.288 Y1.026 Z-0.300 F200
G1 X-2.236 Y1.121 Z-0.300 F200
G1 X-2.171 Y1.208 Z-0.300 F200
G1 X-2.094 Y1.284 Z-0.300 F200
G1 X-2.008 Y1.349 Z-0.300 F200
G1 X-1.913 Y1.401 Z-0.300 F200
G1 X-1.811 Y1.439 Z-0.300 F200
G1 X-1.705 Y1.462 Z-0.300 F200
G1 X-1.597 Y1.470 Z-0.300 F200
G1 X41.597 Y1.470 Z-0.300 F200
G1 X41.668 Y1.470 Z-0.292 F1500
G1 X41.735 Y1.470 Z-0.269 F1500
G1 X41.795 Y1.470 Z-0.231 F1500
G1 X41.846 Y1.470 Z-0.180 F1500
G1 X41.884 Y1.470 Z-0.120 F1500
G1 X41.907 Y1.470 Z-0.053 F1500
G1 X41.915 Y1.470 Z0.018 F1500
G1 X41.915 Y1.470 Z1.000 F200
G1 X42.060 Y-0.048 Z1.000 F200
G1 X42.060 Y-0.048 Z0.000 F200
G1 X42.060 Y-0.048 Z-0.083 F200
G1 X42.052 Y-0.048 Z-0.153 F200
G1 X42.029 Y-0.048 Z-0.220 F200
G1 X41.991 Y-0.048 Z-0.280 F200
G1 X41.941 Y-0.048 Z-0.331 F200
G1 X41.881 Y-0.048 Z-0.369 F200
G1 X41.813 Y-0.048 Z-0.392 F200
G1 X41.743 Y-0.048 Z-0.400 F200
G1 X41.597 Y-0.048 Z-0.400 F200
G1 X-1.597 Y-0.048 Z-0.400 F200
G1 X-1.705 Y-0.040 Z-0.400 F200
G1 X-1.811 Y-0.017 Z-0.400 F200
G1 X-1.913 Y0.021 Z-0.400 F200
G1 X-2.008 Y0.073 Z-0.400 F200
G1 X-2.094 Y0.138 Z-0.400 F200
G1 X-2.171 Y0.214 Z-0.400 F200
G1 X-2.236 Y0.301 Z-0.400 F200
G1 X-2.288 Y0.396 Z-0.400 F200
G1 X-2.325 Y0.497 Z-0.400 F200
G1 X-2.349 Y0.603 Z-0.400 F200
G1 X-2.356 Y0.711 Z-0.400 F200
G1 X-2.349 Y0.819 Z-0.400 F200
G1 X-2.325 Y0.925 Z-0.400 F200
G1 X-2.288 Y1.026 Z-0.400 F200
G1 X-2.236 Y1.121 Z-0.400 F200
G1 X-2.171 Y1.208 Z-0.400 F200
G1 X-2.094 Y1.284 Z-0.400 F200
G1 X-2.008 Y1.349 Z-0.400 F200
G1 X-1.913 Y1.401 Z-0.400 F200
G1 X-1.811 Y1.439 Z-0.400 F200
G1 X-1.705 Y1.462 Z-0.400 F200
G1 X-1.597 Y1.470 Z-0.400 F200
G1 X41.597 Y1.470 Z-0.400 F200
G1 X41.668 Y1.470 Z-0.392 F1500
G1 X41.735 Y1.470 Z-0.369 F1500
G1 X41.795 Y1.470 Z-0.331 F1500
G1 X41.846 Y1.470 Z-0.280 F1500
G1 X41.884 Y1.470 Z-0.220 F1500
G1 X41.907 Y1.470 Z-0.153 F1500
G1 X41.915 Y1.470 Z-0.083 F1500
G1 X41.915 Y1.470 Z1.000 F200
G1 X42.060 Y-0.048 Z1.000 F200
G1 X42.060 Y-0.048 Z0.000 F200
G1 X42.060 Y-0.048 Z-0.183 F200
G1 X42.052 Y-0.048 Z-0.253 F200
G1 X42.029 Y-0.048 Z-0.320 F200
G1 X41.991 Y-0.048 Z-0.380 F200
G1 X41.941 Y-0.048 Z-0.431 F200
G1 X41.881 Y-0.048 Z-0.469 F200
G1 X41.813 Y-0.048 Z-0.492 F200
G1 X41.743 Y-0.048 Z-0.500 F200
G1 X41.597 Y-0.048 Z-0.500 F200
G1 X-1.597 Y-0.048 Z-0.500 F200
G1 X-1.705 Y-0.040 Z-0.500 F200
G1 X-1.811 Y-0.017 Z-0.500 F200
G1 X-1.913 Y0.021 Z-0.500 F200
G1 X-2.008 Y0.073 Z-0.500 F200
G1 X-2.094 Y0.138 Z-0.500 F200
G1 X-2.171 Y0.214 Z-0.500 F200
G1 X-2.236 Y0.301 Z-0.500 F200
G1 X-2.288 Y0.396 Z-0.500 F200
G1 X-2.325 Y0.497 Z-0.500 F200
G1 X-2.349 Y0.603 Z-0.500 F200
G1 X-2.356 Y0.711 Z-0.500 F200
G1 X-2.349 Y0.819 Z-0.500 F200
G1 X-2.325 Y0.925 Z-0.500 F200
G1 X-2.288 Y1.026 Z-0.500 F200
G1 X-2.236 Y1.121 Z-0.500 F200
G1 X-2.171 Y1.208 Z-0.500 F200
G1 X-2.094 Y1.284 Z-0.500 F200
G1 X-2.008 Y1.349 Z-0.500 F200
G1 X-1.913 Y1.401 Z-0.500 F200
G1 X-1.811 Y1.439 Z-0.500 F200
G1 X-1.705 Y1.462 Z-0.500 F200
G1 X-1.597 Y1.470 Z-0.500 F200
G1 X41.597 Y1.470 Z-0.500 F200
G1 X41.668 Y1.470 Z-0.492 F1500
G1 X41.735 Y1.470 Z-0.469 F1500
G1 X41.795 Y1.470 Z-0.431 F1500
G1 X41.846 Y1.470 Z-0.380 F1500
G1 X41.884 Y1.470 Z-0.320 F1500
G1 X41.907 Y1.470 Z-0.253 F1500
G1 X41.915 Y1.470 Z-0.183 F1500
G1 X41.915 Y1.470 Z1.000 F200
G1 X42.060 Y-0.048 Z1.000 F200
G1 X42.060 Y-0.048 Z0.000 F200
G1 X42.060 Y-0.048 Z-0.282 F200
G1 X42.052 Y-0.048 Z-0.353 F200
G1 X42.029 Y-0.048 Z-0.420 F200
G1 X41.991 Y-0.048 Z-0.480 F200
G1 X41.941 Y-0.048 Z-0.531 F200
G1 X41.881 Y-0.048 Z-0.569 F200
G1 X41.813 Y-0.048 Z-0.592 F200
G1 X41.743 Y-0.048 Z-0.600 F200
G1 X41.597 Y-0.048 Z-0.600 F200
G1 X-1.597 Y-0.048 Z-0.600 F200
G1 X-1.705 Y-0.040 Z-0.600 F200
G1 X-1.811 Y-0.017 Z-0.600 F200
G1 X-1.913 Y0.021 Z-0.600 F200
G1 X-2.008 Y0.073 Z-0.600 F200
G1 X-2.094 Y0.138 Z-0.600 F200
G1 X-2.171 Y0.214 Z-0.600 F200
G1 X-2.236 Y0.301 Z-0.600 F200
G1 X-2.288 Y0.396 Z-0.600 F200
G1 X-2.325 Y0.497 Z-0.600 F200
G1 X-2.349 Y0.603 Z-0.600 F200
G1 X-2.356 Y0.711 Z-0.600 F200
G1 X-2.349 Y0.819 Z-0.600 F200
G1 X-2.325 Y0.925 Z-0.600 F200
G1 X-2.288 Y1.026 Z-0.600 F200
G1 X-2.236 Y1.121 Z-0.600 F200
G1 X-2.171 Y1.208 Z-0.600 F200
G1 X-2.094 Y1.284 Z-0.600 F200
G1 X-2.008 Y1.349 Z-0.600 F200
G1 X-1.913 Y1.401 Z-0.600 F200
G1 X-1.811 Y1.439 Z-0.600 F200
G1 X-1.705 Y1.462 Z-0.600 F200
G1 X-1.597 Y1.470 Z-0.600 F200
G1 X41.597 Y1.470 Z-0.600 F200
G1 X41.668 Y1.470 Z-0.592 F1500
G1 X41.735 Y1.470 Z-0.569 F1500
G1 X41.795 Y1.470 Z-0.531 F1500
G1 X41.846 Y1.470 Z-0.480 F1500
G1 X41.884 Y1.470 Z-0.420 F1500
G1 X41.907 Y1.470 Z-0.353 F1500
G1 X41.915 Y1.470 Z-0.282 F1500
G1 X41.915 Y1.470 Z1.000 F200
G1 X42.060 Y-0.048 Z1.000 F200
G1 X42.060 Y-0.048 Z0.000 F200
G1 X42.060 Y-0.048 Z-0.382 F200
G1 X42.052 Y-0.048 Z-0.453 F200
G1 X42.029 Y-0.048 Z-0.520 F200
G1 X41.991 Y-0.048 Z-0.580 F200
G1 X41.941 Y-0.048 Z-0.631 F200
G1 X41.881 Y-0.048 Z-0.669 F200
G1 X41.813 Y-0.048 Z-0.692 F200
G1 X41.743 Y-0.048 Z-0.700 F200
G1 X41.597 Y-0.048 Z-0.700 F200
G1 X-1.597 Y-0.048 Z-0.700 F200
G1 X-1.705 Y-0.040 Z-0.700 F200
G1 X-1.811 Y-0.017 Z-0.700 F200
G1 X-1.913 Y0.021 Z-0.700 F200
G1 X-2.008 Y0.073 Z-0.700 F200
G1 X-2.094 Y0.138 Z-0.700 F200
G1 X-2.171 Y0.214 Z-0.700 F200
G1 X-2.236 Y0.301 Z-0.700 F200
G1 X-2.288 Y0.396 Z-0.700 F200
G1 X-2.325 Y0.497 Z-0.700 F200
G1 X-2.349 Y0.603 Z-0.700 F200
G1 X-2.356 Y0.711 Z-0.700 F200
G1 X-2.349 Y0.819 Z-0.700 F200
G1 X-2.325 Y0.925 Z-0.700 F200
G1 X-2.288 Y1.026 Z-0.700 F200
G1 X-2.236 Y1.121 Z-0.700 F200
G1 X-2.171 Y1.208 Z-0.700 F200
G1 X-2.094 Y1.284 Z-0.700 F200
G1 X-2.008 Y1.349 Z-0.700 F200
G1 X-1.913 Y1.401 Z-0.700 F200
G1 X-1.811 Y1.439 Z-0.700 F200
G1 X-1.705 Y1.462 Z-0.700 F200
G1 X-1.597 Y1.470 Z-0.700 F200
G1 X41.597 Y1.470 Z-0.700 F200
G1 X41.668 Y1.470 Z-0.692 F1500
G1 X41.735 Y1.470 Z-0.669 F1500
G1 X41.795 Y1.470 Z-0.631 F1500
G1 X41.846 Y1.470 Z-0.580 F1500
G1 X41.884 Y1.470 Z-0.520 F1500
G1 X41.907 Y1.470 Z-0.453 F1500
G1 X41.915 Y1.470 Z-0.382 F1500
G1 X41.915 Y1.470 Z1.000 F200
G1 X42.060 Y-0.048 Z1.000 F200
G1 X42.060 Y-0.048 Z0.000 F200
G1 X42.060 Y-0.048 Z-0.482 F200
G1 X42.052 Y-0.048 Z-0.553 F200
G1 X42.029 Y-0.048 Z-0.620 F200
G1 X41.991 Y-0.048 Z-0.680 F200
G1 X41.941 Y-0.048 Z-0.731 F200
G1 X41.881 Y-0.048 Z-0.769 F200
G1 X41.813 Y-0.048 Z-0.792 F200
G1 X41.743 Y-0.048 Z-0.800 F200
G1 X41.597 Y-0.048 Z-0.800 F200
G1 X-1.597 Y-0.048 Z-0.800 F200
G1 X-1.705 Y-0.040 Z-0.800 F200
G1 X-1.811 Y-0.017 Z-0.800 F200
G1 X-1.913 Y0.021 Z-0.800 F200
G1 X-2.008 Y0.073 Z-0.800 F200
G1 X-2.094 Y0.138 Z-0.800 F200
G1 X-2.171 Y0.214 Z-0.800 F200
G1 X-2.236 Y0.301 Z-0.800 F200
G1 X-2.288 Y0.396 Z-0.800 F200
G1 X-2.325 Y0.497 Z-0.800 F200
G1 X-2.349 Y0.603 Z-0.800 F200
G1 X-2.356 Y0.711 Z-0.800 F200
G1 X-2.349 Y0.819 Z-0.800 F200
G1 X-2.325 Y0.925 Z-0.800 F200
G1 X-2.288 Y1.026 Z-0.800 F200
G1 X-2.236 Y1.121 Z-0.800 F200
G1 X-2.171 Y1.208 Z-0.800 F200
G1 X-2.094 Y1.284 Z-0.800 F200
G1 X-2.008 Y1.349 Z-0.800 F200
G1 X-1.913 Y1.401 Z-0.800 F200
G1 X-1.811 Y1.439 Z-0.800 F200
G1 X-1.705 Y1.462 Z-0.800 F200
G1 X-1.597 Y1.470 Z-0.800 F200
G1 X41.597 Y1.470 Z-0.800 F200
G1 X41.668 Y1.470 Z-0.792 F1500
G1 X41.735 Y1.470 Z-0.769 F1500
G1 X41.795 Y1.470 Z-0.731 F1500
G1 X41.846 Y1.470 Z-0.680 F1500
G1 X41.884 Y1.470 Z-0.620 F1500
G1 X41.907 Y1.470 Z-0.553 F1500
G1 X41.915 Y1.470 Z-0.482 F1500
G1 X41.915 Y1.470 Z1.000 F200
G1 X42.060 Y-0.048 Z1.000 F200
G1 X42.060 Y-0.048 Z0.000 F200
G1 X42.060 Y-0.048 Z-0.582 F200
G1 X42.052 Y-0.048 Z-0.653 F200
G1 X42.029 Y-0.048 Z-0.720 F200
G1 X41.991 Y-0.048 Z-0.780 F200
G1 X41.941 Y-0.048 Z-0.831 F200
G1 X41.881 Y-0.048 Z-0.869 F200
G1 X41.813 Y-0.048 Z-0.892 F200
G1 X41.743 Y-0.048 Z-0.900 F200
G1 X41.597 Y-0.048 Z-0.900 F200
G1 X-1.597 Y-0.048 Z-0.900 F200
G1 X-1.705 Y-0.040 Z-0.900 F200
G1 X-1.811 Y-0.017 Z-0.900 F200
G1 X-1.913 Y0.021 Z-0.900 F200
G1 X-2.008 Y0.073 Z-0.900 F200
G1 X-2.094 Y0.138 Z-0.900 F200
G1 X-2.171 Y0.214 Z-0.900 F200
G1 X-2.236 Y0.301 Z-0.900 F200
G1 X-2.288 Y0.396 Z-0.900 F200
G1 X-2.325 Y0.497 Z-0.900 F200
G1 X-2.349 Y0.603 Z-0.900 F200
G1 X-2.356 Y0.711 Z-0.900 F200
G1 X-2.349 Y0.819 Z-0.900 F200
G1 X-2.325 Y0.925 Z-0.900 F200
G1 X-2.288 Y1.026 Z-0.900 F200
G1 X-2.236 Y1.121 Z-0.900 F200
G1 X-2.171 Y1.208 Z-0.900 F200
G1 X-2.094 Y1.284 Z-0.900 F200
G1 X-2.008 Y1.349 Z-0.900 F200
G1 X-1.913 Y1.401 Z-0.900 F200
G1 X-1.811 Y1.439 Z-0.900 F200
G1 X-1.705 Y1.462 Z-0.900 F200
G1 X-1.597 Y1.470 Z-0.900 F200
G1 X41.597 Y1.470 Z-0.900 F200
G1 X41.668 Y1.470 Z-0.892 F1500
G1 X41.735 Y1.470 Z-0.869 F1500
G1 X41.795 Y1.470 Z-0.831 F1500
G1 X41.846 Y1.470 Z-0.780 F1500
G1 X41.884 Y1.470 Z-0.720 F1500
G1 X41.907 Y1.470 Z-0.653 F1500
G1 X41.915 Y1.470 Z-0.582 F1500
G1 X41.915 Y1.470 Z1.000 F200
G1 X42.060 Y-0.048 Z1.000 F200
G1 X42.060 Y-0.048 Z0.000 F200
G1 X42.060 Y-0.048 Z-0.683 F200
G1 X42.052 Y-0.048 Z-0.753 F200
G1 X42.029 Y-0.048 Z-0.820 F200
G1 X41.991 Y-0.048 Z-0.880 F200
G1 X41.941 Y-0.048 Z-0.931 F200
G1 X41.881 Y-0.048 Z-0.969 F200
G1 X41.813 Y-0.048 Z-0.992 F200
G1 X41.743 Y-0.048 Z-1.000 F200
G1 X41.597 Y-0.048 Z-1.000 F200
G1 X-1.597 Y-0.048 Z-1.000 F200
G1 X-1.705 Y-0.040 Z-1.000 F200
G1 X-1.811 Y-0.017 Z-1.000 F200
G1 X-1.913 Y0.021 Z-1.000 F200
G1 X-2.008 Y0.073 Z-1.000 F200
G1 X-2.094 Y0.138 Z-1.000 F200
G1 X-2.171 Y0.214 Z-1.000 F200
G1 X-2.236 Y0.301 Z-1.000 F200
G1 X-2.288 Y0.396 Z-1.000 F200
G1 X-2.325 Y0.497 Z-1.000 F200
G1 X-2.349 Y0.603 Z-1.000 F200
G1 X-2.356 Y0.711 Z-1.000 F200
G1 X-2.349 Y0.819 Z-1.000 F200
G1 X-2.325 Y0.925 Z-1.000 F200
G1 X-2.288 Y1.026 Z-1.000 F200
G1 X-2.236 Y1.121 Z-1.000 F200
G1 X-2.171 Y1.208 Z-1.000 F200
G1 X-2.094 Y1.284 Z-1.000 F200
G1 X-2.008 Y1.349 Z-1.000 F200
G1 X-1.913 Y1.401 Z-1.000 F200
G1 X-1.811 Y1.439 Z-1.000 F200
G1 X-1.705 Y1.462 Z-1.000 F200
G1 X-1.597 Y1.470 Z-1.000 F200
G1 X41.597 Y1.470 Z-1.000 F200
G1 X41.668 Y1.470 Z-0.992 F1500
G1 X41.735 Y1.470 Z-0.969 F1500
G1 X41.795 Y1.470 Z-0.931 F1500
G1 X41.846 Y1.470 Z-0.880 F1500
G1 X41.884 Y1.470 Z-0.820 F1500
G1 X41.907 Y1.470 Z-0.753 F1500
G1 X41.915 Y1.470 Z-0.683 F1500
G1 X41.915 Y1.470 Z1.000 F200
G1 X42.060 Y-0.048 Z1.000 F200
G1 X42.060 Y-0.048 Z0.000 F200
G1 X42.060 Y-0.048 Z-0.783 F200
G1 X42.052 Y-0.048 Z-0.853 F200
G1 X42.029 Y-0.048 Z-0.920 F200
G1 X41.991 Y-0.048 Z-0.980 F200
G1 X41.941 Y-0.048 Z-1.031 F200
G1 X41.881 Y-0.048 Z-1.069 F200
G1 X41.813 Y-0.048 Z-1.092 F200
G1 X41.743 Y-0.048 Z-1.100 F200
G1 X41.597 Y-0.048 Z-1.100 F200
G1 X-1.597 Y-0.048 Z-1.100 F200
G1 X-1.705 Y-0.040 Z-1.100 F200
G1 X-1.811 Y-0.017 Z-1.100 F200
G1 X-1.913 Y0.021 Z-1.100 F200
G1 X-2.008 Y0.073 Z-1.100 F200
G1 X-2.094 Y0.138 Z-1.100 F200
G1 X-2.171 Y0.214 Z-1.100 F200
G1 X-2.236 Y0.301 Z-1.100 F200
G1 X-2.288 Y0.396 Z-1.100 F200
G1 X-2.325 Y0.497 Z-1.100 F200
G1 X-2.349 Y0.603 Z-1.100 F200
G1 X-2.356 Y0.711 Z-1.100 F200
G1 X-2.349 Y0.819 Z-1.100 F200
G1 X-2.325 Y0.925 Z-1.100 F200
G1 X-2.288 Y1.026 Z-1.100 F200
G1 X-2.236 Y1.121 Z-1.100 F200
G1 X-2.171 Y1.208 Z-1.100 F200
G1 X-2.094 Y1.284 Z-1.100 F200
G1 X-2.008 Y1.349 Z-1.100 F200
G1 X-1.913 Y1.401 Z-1.100 F200
G1 X-1.811 Y1.439 Z-1.100 F200
G1 X-1.705 Y1.462 Z-1.100 F200
G1 X-1.597 Y1.470 Z-1.100 F200
G1 X41.597 Y1.470 Z-1.100 F200
G1 X41.668 Y1.470 Z-1.092 F1500
G1 X41.735 Y1.470 Z-1.069 F1500
G1 X41.795 Y1.470 Z-1.031 F1500
G1 X41.846 Y1.470 Z-0.980 F1500
G1 X41.884 Y1.470 Z-0.920 F1500
G1 X41.907 Y1.470 Z-0.853 F1500
G1 X41.915 Y1.470 Z-0.783 F1500
G1 X41.915 Y1.470 Z1.000 F200
G1 X42.060 Y-0.048 Z1.000 F200
G1 X42.060 Y-0.048 Z0.000 F200
G1 X42.060 Y-0.048 Z-0.882 F200
G1 X42.052 Y-0.048 Z-0.953 F200
G1 X42.029 Y-0.048 Z-1.020 F200
G1 X41.991 Y-0.048 Z-1.080 F200
G1 X41.941 Y-0.048 Z-1.131 F200
G1 X41.881 Y-0.048 Z-1.169 F200
G1 X41.813 Y-0.048 Z-1.192 F200
G1 X41.743 Y-0.048 Z-1.200 F200
G1 X41.597 Y-0.048 Z-1.200 F200
G1 X-1.597 Y-0.048 Z-1.200 F200
G1 X-1.705 Y-0.040 Z-1.200 F200
G1 X-1.811 Y-0.017 Z-1.200 F200
G1 X-1.913 Y0.021 Z-1.200 F200
G1 X-2.008 Y0.073 Z-1.200 F200
G1 X-2.094 Y0.138 Z-1.200 F200
G1 X-2.171 Y0.214 Z-1.200 F200
G1 X-2.236 Y0.301 Z-1.200 F200
G1 X-2.288 Y0.396 Z-1.200 F200
G1 X-2.325 Y0.497 Z-1.200 F200
G1 X-2.349 Y0.603 Z-1.200 F200
G1 X-2.356 Y0.711 Z-1.200 F200
G1 X-2.349 Y0.819 Z-1.200 F200
G1 X-2.325 Y0.925 Z-1.200 F200
G1 X-2.288 Y1.026 Z-1.200 F200
G1 X-2.236 Y1.121 Z-1.200 F200
G1 X-2.171 Y1.208 Z-1.200 F200
G1 X-2.094 Y1.284 Z-1.200 F200
G1 X-2.008 Y1.349 Z-1.200 F200
G1 X-1.913 Y1.401 Z-1.200 F200
G1 X-1.811 Y1.439 Z-1.200 F200
G1 X-1.705 Y1.462 Z-1.200 F200
G1 X-1.597 Y1.470 Z-1.200 F200
G1 X41.597 Y1.470 Z-1.200 F200
G1 X41.668 Y1.470 Z-1.192 F1500
G1 X41.735 Y1.470 Z-1.169 F1500
G1 X41.795 Y1.470 Z-1.131 F1500
G1 X41.846 Y1.470 Z-1.080 F1500
G1 X41.884 Y1.470 Z-1.020 F1500
G1 X41.907 Y1.470 Z-0.953 F1500
G1 X41.915 Y1.470 Z-0.882 F1500
G1 X41.915 Y1.470 Z1.000 F200
G1 X42.060 Y-0.048 Z1.000 F200
G1 X42.060 Y-0.048 Z0.000 F200
G1 X42.060 Y-0.048 Z-0.983 F200
G1 X42.052 Y-0.048 Z-1.053 F200
G1 X42.029 Y-0.048 Z-1.120 F200
G1 X41.991 Y-0.048 Z-1.180 F200
G1 X41.941 Y-0.048 Z-1.231 F200
G1 X41.881 Y-0.048 Z-1.269 F200
G1 X41.813 Y-0.048 Z-1.292 F200
G1 X41.743 Y-0.048 Z-1.300 F200
G1 X41.597 Y-0.048 Z-1.300 F200
G1 X-1.597 Y-0.048 Z-1.300 F200
G1 X-1.705 Y-0.040 Z-1.300 F200
G1 X-1.811 Y-0.017 Z-1.300 F200
G1 X-1.913 Y0.021 Z-1.300 F200
G1 X-2.008 Y0.073 Z-1.300 F200
G1 X-2.094 Y0.138 Z-1.300 F200
G1 X-2.171 Y0.214 Z-1.300 F200
G1 X-2.236 Y0.301 Z-1.300 F200
G1 X-2.288 Y0.396 Z-1.300 F200
G1 X-2.325 Y0.497 Z-1.300 F200
G1 X-2.349 Y0.603 Z-1.300 F200
G1 X-2.356 Y0.711 Z-1.300 F200
G1 X-2.349 Y0.819 Z-1.300 F200
G1 X-2.325 Y0.925 Z-1.300 F200
G1 X-2.288 Y1.026 Z-1.300 F200
G1 X-2.236 Y1.121 Z-1.300 F200
G1 X-2.171 Y1.208 Z-1.300 F200
G1 X-2.094 Y1.284 Z-1.300 F200
G1 X-2.008 Y1.349 Z-1.300 F200
G1 X-1.913 Y1.401 Z-1.300 F200
G1 X-1.811 Y1.439 Z-1.300 F200
G1 X-1.705 Y1.462 Z-1.300 F200
G1 X-1.597 Y1.470 Z-1.300 F200
G1 X41.597 Y1.470 Z-1.300 F200
G1 X41.668 Y1.470 Z-1.292 F1500
G1 X41.735 Y1.470 Z-1.269 F1500
G1 X41.795 Y1.470 Z-1.231 F1500
G1 X41.846 Y1.470 Z-1.180 F1500
G1 X41.884 Y1.470 Z-1.120 F1500
G1 X41.907 Y1.470 Z-1.053 F1500
G1 X41.915 Y1.470 Z-0.983 F1500
G1 X41.915 Y1.470 Z1.000 F200
G1 X42.060 Y-0.048 Z1.000 F200
G1 X42.060 Y-0.048 Z0.000 F200
G1 X42.060 Y-0.048 Z-1.082 F200
G1 X42.052 Y-0.048 Z-1.153 F200
G1 X42.029 Y-0.048 Z-1.220 F200
G1 X41.991 Y-0.048 Z-1.280 F200
G1 X41.941 Y-0.048 Z-1.331 F200
G1 X41.881 Y-0.048 Z-1.369 F200
G1 X41.813 Y-0.048 Z-1.392 F200
G1 X41.743 Y-0.048 Z-1.400 F200
G1 X41.597 Y-0.048 Z-1.400 F200
G1 X-1.597 Y-0.048 Z-1.400 F200
G1 X-1.705 Y-0.040 Z-1.400 F200
G1 X-1.811 Y-0.017 Z-1.400 F200
G1 X-1.913 Y0.021 Z-1.400 F200
G1 X-2.008 Y0.073 Z-1.400 F200
G1 X-2.094 Y0.138 Z-1.400 F200
G1 X-2.171 Y0.214 Z-1.400 F200
G1 X-2.236 Y0.301 Z-1.400 F200
G1 X-2.288 Y0.396 Z-1.400 F200
G1 X-2.325 Y0.497 Z-1.400 F200
G1 X-2.349 Y0.603 Z-1.400 F200
G1 X-2.356 Y0.711 Z-1.400 F200
G1 X-2.349 Y0.819 Z-1.400 F200
G1 X-2.325 Y0.925 Z-1.400 F200
G1 X-2.288 Y1.026 Z-1.400 F200
G1 X-2.236 Y1.121 Z-1.400 F200
G1 X-2.171 Y1.208 Z-1.400 F200
G1 X-2.094 Y1.284 Z-1.400 F200
G1 X-2.008 Y1.349 Z-1.400 F200
G1 X-1.913 Y1.401 Z-1.400 F200
G1 X-1.811 Y1.439 Z-1.400 F200
G1 X-1.705 Y1.462 Z-1.400 F200
G1 X-1.597 Y1.470 Z-1.400 F200
G1 X41.597 Y1.470 Z-1.400 F200
G1 X41.668 Y1.470 Z-1.392 F1500
G1 X41.735 Y1.470 Z-1.369 F1500
G1 X41.795 Y1.470 Z-1.331 F1500
G1 X41.846 Y1.470 Z-1.280 F1500
G1 X41.884 Y1.470 Z-1.220 F1500
G1 X41.907 Y1.470 Z-1.153 F1500
G1 X41.915 Y1.470 Z-1.082 F1500
G1 X41.915 Y1.470 Z1.000 F200
G1 X42.060 Y-0.048 Z1.000 F200
G1 X42.060 Y-0.048 Z0.000 F200
G1 X42.060 Y-0.048 Z-1.183 F200
G1 X42.052 Y-0.048 Z-1.253 F200
G1 X42.029 Y-0.048 Z-1.320 F200
G1 X41.991 Y-0.048 Z-1.380 F200
G1 X41.941 Y-0.048 Z-1.431 F200
G1 X41.881 Y-0.048 Z-1.469 F200
G1 X41.813 Y-0.048 Z-1.492 F200
G1 X41.743 Y-0.048 Z-1.500 F200
G1 X41.597 Y-0.048 Z-1.500 F200
G1 X-1.597 Y-0.048 Z-1.500 F200
G1 X-1.705 Y-0.040 Z-1.500 F200
G1 X-1.811 Y-0.017 Z-1.500 F200
G1 X-1.913 Y0.021 Z-1.500 F200
G1 X-2.008 Y0.073 Z-1.500 F200
G1 X-2.094 Y0.138 Z-1.500 F200
G1 X-2.171 Y0.214 Z-1.500 F200
G1 X-2.236 Y0.301 Z-1.500 F200
G1 X-2.288 Y0.396 Z-1.500 F200
G1 X-2.325 Y0.497 Z-1.500 F200
G1 X-2.349 Y0.603 Z-1.500 F200
G1 X-2.356 Y0.711 Z-1.500 F200
G1 X-2.349 Y0.819 Z-1.500 F200
G1 X-2.325 Y0.925 Z-1.500 F200
G1 X-2.288 Y1.026 Z-1.500 F200
G1 X-2.236 Y1.121 Z-1.500 F200
G1 X-2.171 Y1.208 Z-1.500 F200
G1 X-2.094 Y1.284 Z-1.500 F200
G1 X-2.008 Y1.349 Z-1.500 F200
G1 X-1.913 Y1.401 Z-1.500 F200
G1 X-1.811 Y1.439 Z-1.500 F200
G1 X-1.705 Y1.462 Z-1.500 F200
G1 X-1.597 Y1.470 Z-1.500 F200
G1 X41.597 Y1.470 Z-1.500 F200
G1 X41.668 Y1.470 Z-1.492 F1500
G1 X41.735 Y1.470 Z-1.469 F1500
G1 X41.795 Y1.470 Z-1.431 F1500
G1 X41.846 Y1.470 Z-1.380 F1500
G1 X41.884 Y1.470 Z-1.320 F1500
G1 X41.907 Y1.470 Z-1.253 F1500
G1 X41.915 Y1.470 Z-1.183 F1500
G1 X41.915 Y1.470 Z1.000 F200
G1 X42.060 Y-0.048 Z1.000 F200
G1 X42.060 Y-0.048 Z0.000 F200
G1 X42.060 Y-0.048 Z-1.283 F200
G1 X42.052 Y-0.048 Z-1.353 F200
G1 X42.029 Y-0.048 Z-1.420 F200
G1 X41.991 Y-0.048 Z-1.480 F200
G1 X41.941 Y-0.048 Z-1.531 F200
G1 X41.881 Y-0.048 Z-1.569 F200
G1 X41.813 Y-0.048 Z-1.592 F200
G1 X41.743 Y-0.048 Z-1.600 F200
G1 X41.597 Y-0.048 Z-1.600 F200
G1 X-1.597 Y-0.048 Z-1.600 F200
G1 X-1.705 Y-0.040 Z-1.600 F200
G1 X-1.811 Y-0.017 Z-1.600 F200
G1 X-1.913 Y0.021 Z-1.600 F200
G1 X-2.008 Y0.073 Z-1.600 F200
G1 X-2.094 Y0.138 Z-1.600 F200
G1 X-2.171 Y0.214 Z-1.600 F200
G1 X-2.236 Y0.301 Z-1.600 F200
G1 X-2.288 Y0.396 Z-1.600 F200
G1 X-2.325 Y0.497 Z-1.600 F200
G1 X-2.349 Y0.603 Z-1.600 F200
G1 X-2.356 Y0.711 Z-1.600 F200
G1 X-2.349 Y0.819 Z-1.600 F200
G1 X-2.325 Y0.925 Z-1.600 F200
G1 X-2.288 Y1.026 Z-1.600 F200
G1 X-2.236 Y1.121 Z-1.600 F200
G1 X-2.171 Y1.208 Z-1.600 F200
G1 X-2.094 Y1.284 Z-1.600 F200
G1 X-2.008 Y1.349 Z-1.600 F200
G1 X-1.913 Y1.401 Z-1.600 F200
G1 X-1.811 Y1.439 Z-1.600 F200
G1 X-1.705 Y1.462 Z-1.600 F200
G1 X-1.597 Y1.470 Z-1.600 F200
G1 X41.597 Y1.470 Z-1.600 F200
G1 X41.668 Y1.470 Z-1.592 F1500
G1 X41.735 Y1.470 Z-1.569 F1500
G1 X41.795 Y1.470 Z-1.531 F1500
G1 X41.846 Y1.470 Z-1.480 F1500
G1 X41.884 Y1.470 Z-1.420 F1500
G1 X41.907 Y1.470 Z-1.353 F1500
G1 X41.915 Y1.470 Z-1.283 F1500
G1 X41.915 Y1.470 Z1.000 F200
G1 X42.060 Y-0.048 Z1.000 F200
G1 X42.060 Y-0.048 Z0.000 F200
G1 X42.060 Y-0.048 Z-1.383 F200
G1 X42.052 Y-0.048 Z-1.453 F200
G1 X42.029 Y-0.048 Z-1.520 F200
G1 X41.991 Y-0.048 Z-1.580 F200
G1 X41.941 Y-0.048 Z-1.631 F200
G1 X41.881 Y-0.048 Z-1.669 F200
G1 X41.813 Y-0.048 Z-1.692 F200
G1 X41.743 Y-0.048 Z-1.700 F200
G1 X41.597 Y-0.048 Z-1.700 F200
G1 X-1.597 Y-0.048 Z-1.700 F200
G1 X-1.705 Y-0.040 Z-1.700 F200
G1 X-1.811 Y-0.017 Z-1.700 F200
G1 X-1.913 Y0.021 Z-1.700 F200
G1 X-2.008 Y0.073 Z-1.700 F200
G1 X-2.094 Y0.138 Z-1.700 F200
G1 X-2.171 Y0.214 Z-1.700 F200
G1 X-2.236 Y0.301 Z-1.700 F200
G1 X-2.288 Y0.396 Z-1.700 F200
G1 X-2.325 Y0.497 Z-1.700 F200
G1 X-2.349 Y0.603 Z-1.700 F200
G1 X-2.356 Y0.711 Z-1.700 F200
G1 X-2.349 Y0.819 Z-1.700 F200
G1 X-2.325 Y0.925 Z-1.700 F200
G1 X-2.288 Y1.026 Z-1.700 F200
G1 X-2.236 Y1.121 Z-1.700 F200
G1 X-2.171 Y1.208 Z-1.700 F200
G1 X-2.094 Y1.284 Z-1.700 F200
G1 X-2.008 Y1.349 Z-1.700 F200
G1 X-1.913 Y1.401 Z-1.700 F200
G1 X-1.811 Y1.439 Z-1.700 F200
G1 X-1.705 Y1.462 Z-1.700 F200
G1 X-1.597 Y1.470 Z-1.700 F200
G1 X41.597 Y1.470 Z-1.700 F200
G1 X41.668 Y1.470 Z-1.692 F1500
G1 X41.735 Y1.470 Z-1.669 F1500
G1 X41.795 Y1.470 Z-1.631 F1500
G1 X41.846 Y1.470 Z-1.580 F1500
G1 X41.884 Y1.470 Z-1.520 F1500
G1 X41.907 Y1.470 Z-1.453 F1500
G1 X41.915 Y1.470 Z-1.383 F1500
G1 X41.915 Y1.470 Z1.000 F200
G1 X42.060 Y-0.048 Z1.000 F200
G1 X42.060 Y-0.048 Z0.000 F200
G1 X42.060 Y-0.048 Z-1.482 F200
G1 X42.052 Y-0.048 Z-1.553 F200
G1 X42.029 Y-0.048 Z-1.620 F200
G1 X41.991 Y-0.048 Z-1.680 F200
G1 X41.941 Y-0.048 Z-1.731 F200
G1 X41.881 Y-0.048 Z-1.769 F200
G1 X41.813 Y-0.048 Z-1.792 F200
G1 X41.743 Y-0.048 Z-1.800 F200
G1 X41.597 Y-0.048 Z-1.800 F200
G1 X-1.597 Y-0.048 Z-1.800 F200
G1 X-1.705 Y-0.040 Z-1.800 F200
G1 X-1.811 Y-0.017 Z-1.800 F200
G1 X-1.913 Y0.021 Z-1.800 F200
G1 X-2.008 Y0.073 Z-1.800 F200
G1 X-2.094 Y0.138 Z-1.800 F200
G1 X-2.171 Y0.214 Z-1.800 F200
G1 X-2.236 Y0.301 Z-1.800 F200
G1 X-2.288 Y0.396 Z-1.800 F200
G1 X-2.325 Y0.497 Z-1.800 F200
G1 X-2.349 Y0.603 Z-1.800 F200
G1 X-2.356 Y0.711 Z-1.800 F200
G1 X-2.349 Y0.819 Z-1.800 F200
G1 X-2.325 Y0.925 Z-1.800 F200
G1 X-2.288 Y1.026 Z-1.800 F200
G1 X-2.236 Y1.121 Z-1.800 F200
G1 X-2.171 Y1.208 Z-1.800 F200
G1 X-2.094 Y1.284 Z-1.800 F200
G1 X-2.008 Y1.349 Z-1.800 F200
G1 X-1.913 Y1.401 Z-1.800 F200
G1 X-1.811 Y1.439 Z-1.800 F200
G1 X-1.705 Y1.462 Z-1.800 F200
G1 X-1.597 Y1.470 Z-1.800 F200
G1 X41.597 Y1.470 Z-1.800 F200
G1 X41.668 Y1.470 Z-1.792 F1500
G1 X41.735 Y1.470 Z-1.769 F1500
G1 X41.795 Y1.470 Z-1.731 F1500
G1 X41.846 Y1.470 Z-1.680 F1500
G1 X41.884 Y1.470 Z-1.620 F1500
G1 X41.907 Y1.470 Z-1.553 F1500
G1 X41.915 Y1.470 Z-1.482 F1500
G1 X41.915 Y1.470 Z1.000 F200
G1 X42.060 Y-0.048 Z1.000 F200
G1 X42.060 Y-0.048 Z0.000 F200
G1 X42.060 Y-0.048 Z-1.582 F200
G1 X42.052 Y-0.048 Z-1.653 F200
G1 X42.029 Y-0.048 Z-1.720 F200
G1 X41.991 Y-0.048 Z-1.780 F200
G1 X41.941 Y-0.048 Z-1.831 F200
G1 X41.881 Y-0.048 Z-1.869 F200
G1 X41.813 Y-0.048 Z-1.892 F200
G1 X41.743 Y-0.048 Z-1.900 F200
G1 X41.597 Y-0.048 Z-1.900 F200
G1 X-1.597 Y-0.048 Z-1.900 F200
G1 X-1.705 Y-0.040 Z-1.900 F200
G1 X-1.811 Y-0.017 Z-1.900 F200
G1 X-1.913 Y0.021 Z-1.900 F200
G1 X-2.008 Y0.073 Z-1.900 F200
G1 X-2.094 Y0.138 Z-1.900 F200
G1 X-2.171 Y0.214 Z-1.900 F200
G1 X-2.236 Y0.301 Z-1.900 F200
G1 X-2.288 Y0.396 Z-1.900 F200
G1 X-2.325 Y0.497 Z-1.900 F200
G1 X-2.349 Y0.603 Z-1.900 F200
G1 X-2.356 Y0.711 Z-1.900 F200
G1 X-2.349 Y0.819 Z-1.900 F200
G1 X-2.325 Y0.925 Z-1.900 F200
G1 X-2.288 Y1.026 Z-1.900 F200
G1 X-2.236 Y1.121 Z-1.900 F200
G1 X-2.171 Y1.208 Z-1.900 F200
G1 X-2.094 Y1.284 Z-1.900 F200
G1 X-2.008 Y1.349 Z-1.900 F200
G1 X-1.913 Y1.401 Z-1.900 F200
G1 X-1.811 Y1.439 Z-1.900 F200
G1 X-1.705 Y1.462 Z-1.900 F200
G1 X-1.597 Y1.470 Z-1.900 F200
G1 X41.597 Y1.470 Z-1.900 F200
G1 X41.668 Y1.470 Z-1.892 F1500
G1 X41.735 Y1.470 Z-1.869 F1500
G1 X41.795 Y1.470 Z-1.831 F1500
G1 X41.846 Y1.470 Z-1.780 F1500
G1 X41.884 Y1.470 Z-1.720 F1500
G1 X41.907 Y1.470 Z-1.653 F1500
G1 X41.915 Y1.470 Z-1.582 F1500
G1 X41.915 Y1.470 Z1.000 F200
G1 X42.060 Y-0.048 Z1.000 F200
G1 X42.060 Y-0.048 Z0.000 F200
G1 X42.060 Y-0.048 Z-1.683 F200
G1 X42.052 Y-0.048 Z-1.753 F200
G1 X42.029 Y-0.048 Z-1.820 F200
G1 X41.991 Y-0.048 Z-1.880 F200
G1 X41.941 Y-0.048 Z-1.931 F200
G1 X41.881 Y-0.048 Z-1.969 F200
G1 X41.813 Y-0.048 Z-1.992 F200
G1 X41.743 Y-0.048 Z-2.000 F200
G1 X41.597 Y-0.048 Z-2.000 F200
G1 X-1.597 Y-0.048 Z-2.000 F200
G1 X-1.705 Y-0.040 Z-2.000 F200
G1 X-1.811 Y-0.017 Z-2.000 F200
G1 X-1.913 Y0.021 Z-2.000 F200
G1 X-2.008 Y0.073 Z-2.000 F200
G1 X-2.094 Y0.138 Z-2.000 F200
G1 X-2.171 Y0.214 Z-2.000 F200
G1 X-2.236 Y0.301 Z-2.000 F200
G1 X-2.288 Y0.396 Z-2.000 F200
G1 X-2.325 Y0.497 Z-2.000 F200
G1 X-2.349 Y0.603 Z-2.000 F200
G1 X-2.356 Y0.711 Z-2.000 F200
G1 X-2.349 Y0.819 Z-2.000 F200
G1 X-2.325 Y0.925 Z-2.000 F200
G1 X-2.288 Y1.026 Z-2.000 F200
G1 X-2.236 Y1.121 Z-2.000 F200
G1 X-2.171 Y1.208 Z-2.000 F200
G1 X-2.094 Y1.284 Z-2.000 F200
G1 X-2.008 Y1.349 Z-2.000 F200
G1 X-1.913 Y1.401 Z-2.000 F200
G1 X-1.811 Y1.439 Z-2.000 F200
G1 X-1.705 Y1.462 Z-2.000 F200
G1 X-1.597 Y1.470 Z-2.000 F200
G1 X41.597 Y1.470 Z-2.000 F200
G1 X41.668 Y1.470 Z-1.992 F1500
G1 X41.735 Y1.470 Z-1.969 F1500
G1 X41.795 Y1.470 Z-1.931 F1500
G1 X41.846 Y1.470 Z-1.880 F1500
G1 X41.884 Y1.470 Z-1.820 F1500
G1 X41.907 Y1.470 Z-1.753 F1500
G1 X41.915 Y1.470 Z-1.683 F1500
G1 X41.915 Y1.470 Z1.000 F200
G1 X42.060 Y-0.048 Z1.000 F200
G1 X42.060 Y-0.048 Z0.000 F200
G1 X42.060 Y-0.048 Z-1.783 F200
G1 X42.052 Y-0.048 Z-1.853 F200
G1 X42.029 Y-0.048 Z-1.920 F200
G1 X41.991 Y-0.048 Z-1.980 F200
G1 X41.941 Y-0.048 Z-2.031 F200
G1 X41.881 Y-0.048 Z-2.069 F200
G1 X41.813 Y-0.048 Z-2.092 F200
G1 X41.743 Y-0.048 Z-2.100 F200
G1 X41.597 Y-0.048 Z-2.100 F200
G1 X-1.597 Y-0.048 Z-2.100 F200
G1 X-1.705 Y-0.040 Z-2.100 F200
G1 X-1.811 Y-0.017 Z-2.100 F200
G1 X-1.913 Y0.021 Z-2.100 F200
G1 X-2.008 Y0.073 Z-2.100 F200
G1 X-2.094 Y0.138 Z-2.100 F200
G1 X-2.171 Y0.214 Z-2.100 F200
G1 X-2.236 Y0.301 Z-2.100 F200
G1 X-2.288 Y0.396 Z-2.100 F200
G1 X-2.325 Y0.497 Z-2.100 F200
G1 X-2.349 Y0.603 Z-2.100 F200
G1 X-2.356 Y0.711 Z-2.100 F200
G1 X-2.349 Y0.819 Z-2.100 F200
G1 X-2.325 Y0.925 Z-2.100 F200
G1 X-2.288 Y1.026 Z-2.100 F200
G1 X-2.236 Y1.121 Z-2.100 F200
G1 X-2.171 Y1.208 Z-2.100 F200
G1 X-2.094 Y1.284 Z-2.100 F200
G1 X-2.008 Y1.349 Z-2.100 F200
G1 X-1.913 Y1.401 Z-2.100 F200
G1 X-1.811 Y1.439 Z-2.100 F200
G1 X-1.705 Y1.462 Z-2.100 F200
G1 X-1.597 Y1.470 Z-2.100 F200
G1 X41.597 Y1.470 Z-2.100 F200
G1 X41.668 Y1.470 Z-2.092 F1500
G1 X41.735 Y1.470 Z-2.069 F1500
G1 X41.795 Y1.470 Z-2.031 F1500
G1 X41.846 Y1.470 Z-1.980 F1500
G1 X41.884 Y1.470 Z-1.920 F1500
G1 X41.907 Y1.470 Z-1.853 F1500
G1 X41.915 Y1.470 Z-1.783 F1500
G1 X41.915 Y1.470 Z1.000 F200
G1 X42.060 Y-0.048 Z1.000 F200
G1 X42.060 Y-0.048 Z0.000 F200
G1 X42.060 Y-0.048 Z-1.883 F200
G1 X42.052 Y-0.048 Z-1.953 F200
G1 X42.029 Y-0.048 Z-2.020 F200
G1 X41.991 Y-0.048 Z-2.080 F200
G1 X41.941 Y-0.048 Z-2.131 F200
G1 X41.881 Y-0.048 Z-2.169 F200
G1 X41.813 Y-0.048 Z-2.192 F200
G1 X41.743 Y-0.048 Z-2.200 F200
G1 X41.597 Y-0.048 Z-2.200 F200
G1 X-1.597 Y-0.048 Z-2.200 F200
G1 X-1.705 Y-0.040 Z-2.200 F200
G1 X-1.811 Y-0.017 Z-2.200 F200
G1 X-1.913 Y0.021 Z-2.200 F200
G1 X-2.008 Y0.073 Z-2.200 F200
G1 X-2.094 Y0.138 Z-2.200 F200
G1 X-2.171 Y0.214 Z-2.200 F200
G1 X-2.236 Y0.301 Z-2.200 F200
G1 X-2.288 Y0.396 Z-2.200 F200
G1 X-2.325 Y0.497 Z-2.200 F200
G1 X-2.349 Y0.603 Z-2.200 F200
G1 X-2.356 Y0.711 Z-2.200 F200
G1 X-2.349 Y0.819 Z-2.200 F200
G1 X-2.325 Y0.925 Z-2.200 F200
G1 X-2.288 Y1.026 Z-2.200 F200
G1 X-2.236 Y1.121 Z-2.200 F200
G1 X-2.171 Y1.208 Z-2.200 F200
G1 X-2.094 Y1.284 Z-2.200 F200
G1 X-2.008 Y1.349 Z-2.200 F200
G1 X-1.913 Y1.401 Z-2.200 F200
G1 X-1.811 Y1.439 Z-2.200 F200
G1 X-1.705 Y1.462 Z-2.200 F200
G1 X-1.597 Y1.470 Z-2.200 F200
G1 X41.597 Y1.470 Z-2.200 F200
G1 X41.668 Y1.470 Z-2.192 F1500
G1 X41.735 Y1.470 Z-2.169 F1500
G1 X41.795 Y1.470 Z-2.131 F1500
G1 X41.846 Y1.470 Z-2.080 F1500
G1 X41.884 Y1.470 Z-2.020 F1500
G1 X41.907 Y1.470 Z-1.953 F1500
G1 X41.915 Y1.470 Z-1.883 F1500
G1 X41.915 Y1.470 Z1.000 F200
G1 X42.060 Y-0.048 Z1.000 F200
G1 X42.060 Y-0.048 Z0.000 F200
G1 X42.060 Y-0.048 Z-1.982 F200
G1 X42.052 Y-0.048 Z-2.053 F200
G1 X42.029 Y-0.048 Z-2.120 F200
G1 X41.991 Y-0.048 Z-2.180 F200
G1 X41.941 Y-0.048 Z-2.231 F200
G1 X41.881 Y-0.048 Z-2.269 F200
G1 X41.813 Y-0.048 Z-2.292 F200
G1 X41.743 Y-0.048 Z-2.300 F200
G1 X41.597 Y-0.048 Z-2.300 F200
G1 X-1.597 Y-0.048 Z-2.300 F200
G1 X-1.705 Y-0.040 Z-2.300 F200
G1 X-1.811 Y-0.017 Z-2.300 F200
G1 X-1.913 Y0.021 Z-2.300 F200
G1 X-2.008 Y0.073 Z-2.300 F200
G1 X-2.094 Y0.138 Z-2.300 F200
G1 X-2.171 Y0.214 Z-2.300 F200
G1 X-2.236 Y0.301 Z-2.300 F200
G1 X-2.288 Y0.396 Z-2.300 F200
G1 X-2.325 Y0.497 Z-2.300 F200
G1 X-2.349 Y0.603 Z-2.300 F200
G1 X-2.356 Y0.711 Z-2.300 F200
G1 X-2.349 Y0.819 Z-2.300 F200
G1 X-2.325 Y0.925 Z-2.300 F200
G1 X-2.288 Y1.026 Z-2.300 F200
G1 X-2.236 Y1.121 Z-2.300 F200
G1 X-2.171 Y1.208 Z-2.300 F200
G1 X-2.094 Y1.284 Z-2.300 F200
G1 X-2.008 Y1.349 Z-2.300 F200
G1 X-1.913 Y1.401 Z-2.300 F200
G1 X-1.811 Y1.439 Z-2.300 F200
G1 X-1.705 Y1.462 Z-2.300 F200
G1 X-1.597 Y1.470 Z-2.300 F200
G1 X41.597 Y1.470 Z-2.300 F200
G1 X41.668 Y1.470 Z-2.292 F1500
G1 X41.735 Y1.470 Z-2.269 F1500
G1 X41.795 Y1.470 Z-2.231 F1500
G1 X41.846 Y1.470 Z-2.180 F1500
G1 X41.884 Y1.470 Z-2.120 F1500
G1 X41.907 Y1.470 Z-2.053 F1500
G1 X41.915 Y1.470 Z-1.982 F1500
G1 X41.915 Y1.470 Z1.000 F200
G1 X42.060 Y-0.048 Z1.000 F200
G1 X42.060 Y-0.048 Z0.000 F200
G1 X42.060 Y-0.048 Z-2.082 F200
G1 X42.052 Y-0.048 Z-2.153 F200
G1 X42.029 Y-0.048 Z-2.220 F200
G1 X41.991 Y-0.048 Z-2.280 F200
G1 X41.941 Y-0.048 Z-2.331 F200
G1 X41.881 Y-0.048 Z-2.369 F200
G1 X41.813 Y-0.048 Z-2.392 F200
G1 X41.743 Y-0.048 Z-2.400 F200
G1 X41.597 Y-0.048 Z-2.400 F200
G1 X-1.597 Y-0.048 Z-2.400 F200
G1 X-1.705 Y-0.040 Z-2.400 F200
G1 X-1.811 Y-0.017 Z-2.400 F200
G1 X-1.913 Y0.021 Z-2.400 F200
G1 X-2.008 Y0.073 Z-2.400 F200
G1 X-2.094 Y0.138 Z-2.400 F200
G1 X-2.171 Y0.214 Z-2.400 F200
G1 X-2.236 Y0.301 Z-2.400 F200
G1 X-2.288 Y0.396 Z-2.400 F200
G1 X-2.325 Y0.497 Z-2.400 F200
G1 X-2.349 Y0.603 Z-2.400 F200
G1 X-2.356 Y0.711 Z-2.400 F200
G1 X-2.349 Y0.819 Z-2.400 F200
G1 X-2.325 Y0.925 Z-2.400 F200
G1 X-2.288 Y1.026 Z-2.400 F200
G1 X-2.236 Y1.121 Z-2.400 F200
G1 X-2.171 Y1.208 Z-2.400 F200
G1 X-2.094 Y1.284 Z-2.400 F200
G1 X-2.008 Y1.349 Z-2.400 F200
G1 X-1.913 Y1.401 Z-2.400 F200
G1 X-1.811 Y1.439 Z-2.400 F200
G1 X-1.705 Y1.462 Z-2.400 F200
G1 X-1.597 Y1.470 Z-2.400 F200
G1 X41.597 Y1.470 Z-2.400 F200
G1 X41.668 Y1.470 Z-2.392 F1500
G1 X41.735 Y1.470 Z-2.369 F1500
G1 X41.795 Y1.470 Z-2.331 F1500
G1 X41.846 Y1.470 Z-2.280 F1500
G1 X41.884 Y1.470 Z-2.220 F1500
G1 X41.907 Y1.470 Z-2.153 F1500
G1 X41.915 Y1.470 Z-2.082 F1500
G1 X41.915 Y1.470 Z1.000 F200
G1 X42.060 Y-0.048 Z1.000 F200
G1 X42.060 Y-0.048 Z0.000 F200
G1 X42.060 Y-0.048 Z-2.182 F200
G1 X42.052 Y-0.048 Z-2.253 F200
G1 X42.029 Y-0.048 Z-2.320 F200
G1 X41.991 Y-0.048 Z-2.380 F200
G1 X41.941 Y-0.048 Z-2.431 F200
G1 X41.881 Y-0.048 Z-2.469 F200
G1 X41.813 Y-0.048 Z-2.492 F200
G1 X41.743 Y-0.048 Z-2.500 F200
G1 X41.597 Y-0.048 Z-2.500 F200
G1 X-1.597 Y-0.048 Z-2.500 F200
G1 X-1.705 Y-0.040 Z-2.500 F200
G1 X-1.811 Y-0.017 Z-2.500 F200
G1 X-1.913 Y0.021 Z-2.500 F200
G1 X-2.008 Y0.073 Z-2.500 F200
G1 X-2.094 Y0.138 Z-2.500 F200
G1 X-2.171 Y0.214 Z-2.500 F200
G1 X-2.236 Y0.301 Z-2.500 F200
G1 X-2.288 Y0.396 Z-2.500 F200
G1 X-2.325 Y0.497 Z-2.500 F200
G1 X-2.349 Y0.603 Z-2.500 F200
G1 X-2.356 Y0.711 Z-2.500 F200
G1 X-2.349 Y0.819 Z-2.500 F200
G1 X-2.325 Y0.925 Z-2.500 F200
G1 X-2.288 Y1.026 Z-2.500 F200
G1 X-2.236 Y1.121 Z-2.500 F200
G1 X-2.171 Y1.208 Z-2.500 F200
G1 X-2.094 Y1.284 Z-2.500 F200
G1 X-2.008 Y1.349 Z-2.500 F200
G1 X-1.913 Y1.401 Z-2.500 F200
G1 X-1.811 Y1.439 Z-2.500 F200
G1 X-1.705 Y1.462 Z-2.500 F200
G1 X-1.597 Y1.470 Z-2.500 F200
G1 X41.597 Y1.470 Z-2.500 F200
G1 X41.668 Y1.470 Z-2.492 F1500
G1 X41.735 Y1.470 Z-2.469 F1500
G1 X41.795 Y1.470 Z-2.431 F1500
G1 X41.846 Y1.470 Z-2.380 F1500
G1 X41.884 Y1.470 Z-2.320 F1500
G1 X41.907 Y1.470 Z-2.253 F1500
G1 X41.915 Y1.470 Z-2.182 F1500
G1 X41.915 Y1.470 Z1.000 F200
G1 X42.060 Y-0.048 Z1.000 F200
G1 X42.060 Y-0.048 Z0.000 F200
G1 X42.060 Y-0.048 Z-2.283 F200
G1 X42.052 Y-0.048 Z-2.353 F200
G1 X42.029 Y-0.048 Z-2.420 F200
G1 X41.991 Y-0.048 Z-2.480 F200
G1 X41.941 Y-0.048 Z-2.531 F200
G1 X41.881 Y-0.048 Z-2.569 F200
G1 X41.813 Y-0.048 Z-2.592 F200
G1 X41.743 Y-0.048 Z-2.600 F200
G1 X41.597 Y-0.048 Z-2.600 F200
G1 X-1.597 Y-0.048 Z-2.600 F200
G1 X-1.705 Y-0.040 Z-2.600 F200
G1 X-1.811 Y-0.017 Z-2.600 F200
G1 X-1.913 Y0.021 Z-2.600 F200
G1 X-2.008 Y0.073 Z-2.600 F200
G1 X-2.094 Y0.138 Z-2.600 F200
G1 X-2.171 Y0.214 Z-2.600 F200
G1 X-2.236 Y0.301 Z-2.600 F200
G1 X-2.288 Y0.396 Z-2.600 F200
G1 X-2.325 Y0.497 Z-2.600 F200
G1 X-2.349 Y0.603 Z-2.600 F200
G1 X-2.356 Y0.711 Z-2.600 F200
G1 X-2.349 Y0.819 Z-2.600 F200
G1 X-2.325 Y0.925 Z-2.600 F200
G1 X-2.288 Y1.026 Z-2.600 F200
G1 X-2.236 Y1.121 Z-2.600 F200
G1 X-2.171 Y1.208 Z-2.600 F200
G1 X-2.094 Y1.284 Z-2.600 F200
G1 X-2.008 Y1.349 Z-2.600 F200
G1 X-1.913 Y1.401 Z-2.600 F200
G1 X-1.811 Y1.439 Z-2.600 F200
G1 X-1.705 Y1.462 Z-2.600 F200
G1 X-1.597 Y1.470 Z-2.600 F200
G1 X41.597 Y1.470 Z-2.600 F200
G1 X41.668 Y1.470 Z-2.592 F1500
G1 X41.735 Y1.470 Z-2.569 F1500
G1 X41.795 Y1.470 Z-2.531 F1500
G1 X41.846 Y1.470 Z-2.480 F1500
G1 X41.884 Y1.470 Z-2.420 F1500
G1 X41.907 Y1.470 Z-2.353 F1500
G1 X41.915 Y1.470 Z-2.283 F1500
G1 X41.915 Y1.470 Z1.000 F200
G1 X42.060 Y-0.048 Z1.000 F200
G1 X42.060 Y-0.048 Z0.000 F200
G1 X42.060 Y-0.048 Z-2.382 F200
G1 X42.052 Y-0.048 Z-2.453 F200
G1 X42.029 Y-0.048 Z-2.520 F200
G1 X41.991 Y-0.048 Z-2.580 F200
G1 X41.941 Y-0.048 Z-2.631 F200
G1 X41.881 Y-0.048 Z-2.669 F200
G1 X41.813 Y-0.048 Z-2.692 F200
G1 X41.743 Y-0.048 Z-2.700 F200
G1 X41.597 Y-0.048 Z-2.700 F200
G1 X-1.597 Y-0.048 Z-2.700 F200
G1 X-1.705 Y-0.040 Z-2.700 F200
G1 X-1.811 Y-0.017 Z-2.700 F200
G1 X-1.913 Y0.021 Z-2.700 F200
G1 X-2.008 Y0.073 Z-2.700 F200
G1 X-2.094 Y0.138 Z-2.700 F200
G1 X-2.171 Y0.214 Z-2.700 F200
G1 X-2.236 Y0.301 Z-2.700 F200
G1 X-2.288 Y0.396 Z-2.700 F200
G1 X-2.325 Y0.497 Z-2.700 F200
G1 X-2.349 Y0.603 Z-2.700 F200
G1 X-2.356 Y0.711 Z-2.700 F200
G1 X-2.349 Y0.819 Z-2.700 F200
G1 X-2.325 Y0.925 Z-2.700 F200
G1 X-2.288 Y1.026 Z-2.700 F200
G1 X-2.236 Y1.121 Z-2.700 F200
G1 X-2.171 Y1.208 Z-2.700 F200
G1 X-2.094 Y1.284 Z-2.700 F200
G1 X-2.008 Y1.349 Z-2.700 F200
G1 X-1.913 Y1.401 Z-2.700 F200
G1 X-1.811 Y1.439 Z-2.700 F200
G1 X-1.705 Y1.462 Z-2.700 F200
G1 X-1.597 Y1.470 Z-2.700 F200
G1 X41.597 Y1.470 Z-2.700 F200
G1 X41.668 Y1.470 Z-2.692 F1500
G1 X41.735 Y1.470 Z-2.669 F1500
G1 X41.795 Y1.470 Z-2.631 F1500
G1 X41.846 Y1.470 Z-2.580 F1500
G1 X41.884 Y1.470 Z-2.520 F1500
G1 X41.907 Y1.470 Z-2.453 F1500
G1 X41.915 Y1.470 Z-2.382 F1500
G1 X41.915 Y1.470 Z1.000 F200
G1 X42.060 Y-0.048 Z1.000 F200
G1 X42.060 Y-0.048 Z0.000 F200
G1 X42.060 Y-0.048 Z-2.483 F200
G1 X42.052 Y-0.048 Z-2.553 F200
G1 X42.029 Y-0.048 Z-2.620 F200
G1 X41.991 Y-0.048 Z-2.680 F200
G1 X41.941 Y-0.048 Z-2.731 F200
G1 X41.881 Y-0.048 Z-2.769 F200
G1 X41.813 Y-0.048 Z-2.792 F200
G1 X41.743 Y-0.048 Z-2.800 F200
G1 X41.597 Y-0.048 Z-2.800 F200
G1 X-1.597 Y-0.048 Z-2.800 F200
G1 X-1.705 Y-0.040 Z-2.800 F200
G1 X-1.811 Y-0.017 Z-2.800 F200
G1 X-1.913 Y0.021 Z-2.800 F200
G1 X-2.008 Y0.073 Z-2.800 F200
G1 X-2.094 Y0.138 Z-2.800 F200
G1 X-2.171 Y0.214 Z-2.800 F200
G1 X-2.236 Y0.301 Z-2.800 F200
G1 X-2.288 Y0.396 Z-2.800 F200
G1 X-2.325 Y0.497 Z-2.800 F200
G1 X-2.349 Y0.603 Z-2.800 F200
G1 X-2.356 Y0.711 Z-2.800 F200
G1 X-2.349 Y0.819 Z-2.800 F200
G1 X-2.325 Y0.925 Z-2.800 F200
G1 X-2.288 Y1.026 Z-2.800 F200
G1 X-2.236 Y1.121 Z-2.800 F200
G1 X-2.171 Y1.208 Z-2.800 F200
G1 X-2.094 Y1.284 Z-2.800 F200
G1 X-2.008 Y1.349 Z-2.800 F200
G1 X-1.913 Y1.401 Z-2.800 F200
G1 X-1.811 Y1.439 Z-2.800 F200
G1 X-1.705 Y1.462 Z-2.800 F200
G1 X-1.597 Y1.470 Z-2.800 F200
G1 X41.597 Y1.470 Z-2.800 F200
G1 X41.668 Y1.470 Z-2.792 F1500
G1 X41.735 Y1.470 Z-2.769 F1500
G1 X41.795 Y1.470 Z-2.731 F1500
G1 X41.846 Y1.470 Z-2.680 F1500
G1 X41.884 Y1.470 Z-2.620 F1500
G1 X41.907 Y1.470 Z-2.553 F1500
G1 X41.915 Y1.470 Z-2.483 F1500
G1 X41.915 Y1.470 Z1.000 F200
G1 X42.060 Y-0.048 Z1.000 F200
G1 X42.060 Y-0.048 Z0.000 F200
G1 X42.060 Y-0.048 Z-2.582 F200
G1 X42.052 Y-0.048 Z-2.653 F200
G1 X42.029 Y-0.048 Z-2.720 F200
G1 X41.991 Y-0.048 Z-2.780 F200
G1 X41.941 Y-0.048 Z-2.831 F200
G1 X41.881 Y-0.048 Z-2.869 F200
G1 X41.813 Y-0.048 Z-2.892 F200
G1 X41.743 Y-0.048 Z-2.900 F200
G1 X41.597 Y-0.048 Z-2.900 F200
G1 X-1.597 Y-0.048 Z-2.900 F200
G1 X-1.705 Y-0.040 Z-2.900 F200
G1 X-1.811 Y-0.017 Z-2.900 F200
G1 X-1.913 Y0.021 Z-2.900 F200
G1 X-2.008 Y0.073 Z-2.900 F200
G1 X-2.094 Y0.138 Z-2.900 F200
G1 X-2.171 Y0.214 Z-2.900 F200
G1 X-2.236 Y0.301 Z-2.900 F200
G1 X-2.288 Y0.396 Z-2.900 F200
G1 X-2.325 Y0.497 Z-2.900 F200
G1 X-2.349 Y0.603 Z-2.900 F200
G1 X-2.356 Y0.711 Z-2.900 F200
G1 X-2.349 Y0.819 Z-2.900 F200
G1 X-2.325 Y0.925 Z-2.900 F200
G1 X-2.288 Y1.026 Z-2.900 F200
G1 X-2.236 Y1.121 Z-2.900 F200
G1 X-2.171 Y1.208 Z-2.900 F200
G1 X-2.094 Y1.284 Z-2.900 F200
G1 X-2.008 Y1.349 Z-2.900 F200
G1 X-1.913 Y1.401 Z-2.900 F200
G1 X-1.811 Y1.439 Z-2.900 F200
G1 X-1.705 Y1.462 Z-2.900 F200
G1 X-1.597 Y1.470 Z-2.900 F200
G1 X41.597 Y1.470 Z-2.900 F200
G1 X41.668 Y1.470 Z-2.892 F1500
G1 X41.735 Y1.470 Z-2.869 F1500
G1 X41.795 Y1.470 Z-2.831 F1500
G1 X41.846 Y1.470 Z-2.780 F1500
G1 X41.884 Y1.470 Z-2.720 F1500
G1 X41.907 Y1.470 Z-2.653 F1500
G1 X41.915 Y1.470 Z-2.582 F1500
G1 X41.915 Y1.470 Z1.000 F200
G1 X42.060 Y-0.048 Z1.000 F200
G1 X42.060 Y-0.048 Z0.000 F200
G1 X42.060 Y-0.048 Z-2.682 F200
G1 X42.052 Y-0.048 Z-2.753 F200
G1 X42.029 Y-0.048 Z-2.820 F200
G1 X41.991 Y-0.048 Z-2.880 F200
G1 X41.941 Y-0.048 Z-2.931 F200
G1 X41.881 Y-0.048 Z-2.969 F200
G1 X41.813 Y-0.048 Z-2.992 F200
G1 X41.743 Y-0.048 Z-3.000 F200
G1 X41.597 Y-0.048 Z-3.000 F200
G1 X-1.597 Y-0.048 Z-3.000 F200
G1 X-1.705 Y-0.040 Z-3.000 F200
G1 X-1.811 Y-0.017 Z-3.000 F200
G1 X-1.913 Y0.021 Z-3.000 F200
G1 X-2.008 Y0.073 Z-3.000 F200
G1 X-2.094 Y0.138 Z-3.000 F200
G1 X-2.171 Y0.214 Z-3.000 F200
G1 X-2.236 Y0.301 Z-3.000 F200
G1 X-2.288 Y0.396 Z-3.000 F200
G1 X-2.325 Y0.497 Z-3.000 F200
G1 X-2.349 Y0.603 Z-3.000 F200
G1 X-2.356 Y0.711 Z-3.000 F200
G1 X-2.349 Y0.819 Z-3.000 F200
G1 X-2.325 Y0.925 Z-3.000 F200
G1 X-2.288 Y1.026 Z-3.000 F200
G1 X-2.236 Y1.121 Z-3.000 F200
G1 X-2.171 Y1.208 Z-3.000 F200
G1 X-2.094 Y1.284 Z-3.000 F200
G1 X-2.008 Y1.349 Z-3.000 F200
G1 X-1.913 Y1.401 Z-3.000 F200
G1 X-1.811 Y1.439 Z-3.000 F200
G1 X-1.705 Y1.462 Z-3.000 F200
G1 X-1.597 Y1.470 Z-3.000 F200
G1 X41.597 Y1.470 Z-3.000 F200
G1 X41.668 Y1.470 Z-2.992 F1500
G1 X41.735 Y1.470 Z-2.969 F1500
G1 X41.795 Y1.470 Z-2.931 F1500
G1 X41.846 Y1.470 Z-2.880 F1500
G1 X41.884 Y1.470 Z-2.820 F1500
G1 X41.907 Y1.470 Z-2.753 F1500
G1 X41.915 Y1.470 Z-2.682 F1500
G1 X41.915 Y1.470 Z5.000 F200
G0 X0.000 Y0.000
M5
