;Titan-7-Outer-Profile
;Machine
;vendor: Snapmaker
;model: Desktop CNC
;description: Generic Snapmaker Marlin v20180725
M3 S10000
G4 P2
G21
G90
;When using Fusion for Personal Use, the feedrate of rapid
;moves is reduced to match the feedrate of cutting moves,
;which can increase machining time. Unrestricted rapid moves
;are available with a Fusion Subscription.

;Titan-7 Outer Profile
G0 X24.816 Y17.983 Z5.000
G1 X24.816 Y17.983 Z5.000 F200
G1 X24.816 Y17.983 Z1.000 F200
G1 X24.816 Y17.983 Z0.635 F200
G1 X24.816 Y17.983 Z0.217 F200
G1 X24.821 Y17.977 Z0.147 F200
G1 X24.837 Y17.959 Z0.080 F200
G1 X24.862 Y17.931 Z0.020 F200
G1 X24.895 Y17.893 Z-0.031 F200
G1 X24.935 Y17.848 Z-0.069 F200
G1 X24.980 Y17.798 Z-0.092 F200
G1 X25.027 Y17.745 Z-0.100 F200
G1 X25.238 Y17.508 Z-0.100 F200
G1 X25.290 Y17.461 Z-0.100 F200
G1 X25.353 Y17.426 Z-0.100 F200
G1 X25.421 Y17.406 Z-0.100 F200
G1 X25.492 Y17.402 Z-0.100 F200
G1 X25.562 Y17.414 Z-0.100 F200
G1 X25.628 Y17.441 Z-0.100 F200
G1 X25.686 Y17.482 Z-0.100 F200
G1 X25.838 Y17.606 Z-0.100 F200
G1 X25.999 Y17.718 Z-0.100 F200
G1 X26.169 Y17.816 Z-0.100 F200
G1 X26.347 Y17.900 Z-0.100 F200
G1 X26.530 Y17.970 Z-0.100 F200
G1 X26.719 Y18.025 Z-0.100 F200
G1 X26.911 Y18.064 Z-0.100 F200
G1 X27.106 Y18.088 Z-0.100 F200
G1 X27.302 Y18.096 Z-0.100 F200
G1 X36.191 Y18.096 Z-0.100 F200
G1 X36.382 Y18.088 Z-0.100 F200
G1 X36.572 Y18.066 Z-0.100 F200
G1 X36.760 Y18.029 Z-0.100 F200
G1 X36.944 Y17.977 Z-0.100 F200
G1 X37.123 Y17.911 Z-0.100 F200
G1 X37.296 Y17.831 Z-0.100 F200
G1 X37.463 Y17.737 Z-0.100 F200
G1 X37.622 Y17.631 Z-0.100 F200
G1 X37.772 Y17.513 Z-0.100 F200
G1 X37.913 Y17.383 Z-0.100 F200
G1 X38.042 Y17.243 Z-0.100 F200
G1 X38.161 Y17.093 Z-0.100 F200
G1 X38.267 Y16.934 Z-0.100 F200
G1 X38.360 Y16.767 Z-0.100 F200
G1 X38.440 Y16.593 Z-0.100 F200
G1 X38.506 Y16.414 Z-0.100 F200
G1 X38.558 Y16.230 Z-0.100 F200
G1 X38.596 Y16.043 Z-0.100 F200
G1 X38.618 Y15.853 Z-0.100 F200
G1 X38.625 Y15.662 Z-0.100 F200
G1 X38.625 Y0.847 Z-0.100 F200
G1 X38.618 Y0.656 Z-0.100 F200
G1 X38.596 Y0.466 Z-0.100 F200
G1 X38.558 Y0.278 Z-0.100 F200
G1 X38.506 Y0.094 Z-0.100 F200
G1 X38.440 Y-0.085 Z-0.100 F200
G1 X38.360 Y-0.258 Z-0.100 F200
G1 X38.267 Y-0.425 Z-0.100 F200
G1 X38.161 Y-0.584 Z-0.100 F200
G1 X38.042 Y-0.734 Z-0.100 F200
G1 X37.913 Y-0.875 Z-0.100 F200
G1 X37.772 Y-1.004 Z-0.100 F200
G1 X37.622 Y-1.123 Z-0.100 F200
G1 X37.463 Y-1.229 Z-0.100 F200
G1 X37.296 Y-1.322 Z-0.100 F200
G1 X37.123 Y-1.402 Z-0.100 F200
G1 X36.944 Y-1.468 Z-0.100 F200
G1 X36.760 Y-1.520 Z-0.100 F200
G1 X36.572 Y-1.558 Z-0.100 F200
G1 X36.382 Y-1.580 Z-0.100 F200
G1 X36.191 Y-1.587 Z-0.100 F200
G1 X0.847 Y-1.587 Z-0.100 F200
G1 X0.656 Y-1.580 Z-0.100 F200
G1 X0.466 Y-1.558 Z-0.100 F200
G1 X0.278 Y-1.520 Z-0.100 F200
G1 X0.094 Y-1.468 Z-0.100 F200
G1 X-0.085 Y-1.402 Z-0.100 F200
G1 X-0.258 Y-1.322 Z-0.100 F200
G1 X-0.425 Y-1.229 Z-0.100 F200
G1 X-0.584 Y-1.123 Z-0.100 F200
G1 X-0.734 Y-1.004 Z-0.100 F200
G1 X-0.875 Y-0.875 Z-0.100 F200
G1 X-1.004 Y-0.734 Z-0.100 F200
G1 X-1.123 Y-0.584 Z-0.100 F200
G1 X-1.229 Y-0.425 Z-0.100 F200
G1 X-1.322 Y-0.258 Z-0.100 F200
G1 X-1.402 Y-0.085 Z-0.100 F200
G1 X-1.468 Y0.094 Z-0.100 F200
G1 X-1.520 Y0.278 Z-0.100 F200
G1 X-1.558 Y0.466 Z-0.100 F200
G1 X-1.580 Y0.656 Z-0.100 F200
G1 X-1.587 Y0.847 Z-0.100 F200
G1 X-1.587 Y5.503 Z-0.100 F200
G1 X-1.580 Y5.694 Z-0.100 F200
G1 X-1.558 Y5.884 Z-0.100 F200
G1 X-1.520 Y6.071 Z-0.100 F200
G1 X-1.468 Y6.255 Z-0.100 F200
G1 X-1.402 Y6.434 Z-0.100 F200
G1 X-1.322 Y6.608 Z-0.100 F200
G1 X-1.229 Y6.775 Z-0.100 F200
G1 X-1.123 Y6.933 Z-0.100 F200
G1 X-1.004 Y7.084 Z-0.100 F200
G1 X-0.875 Y7.224 Z-0.100 F200
G1 X-0.734 Y7.354 Z-0.100 F200
G1 X-0.584 Y7.472 Z-0.100 F200
G1 X-0.425 Y7.578 Z-0.100 F200
G1 X-0.258 Y7.672 Z-0.100 F200
G1 X-0.085 Y7.752 Z-0.100 F200
G1 X0.094 Y7.818 Z-0.100 F200
G1 X0.278 Y7.870 Z-0.100 F200
G1 X0.466 Y7.907 Z-0.100 F200
G1 X0.656 Y7.929 Z-0.100 F200
G1 X0.847 Y7.937 Z-0.100 F200
G1 X18.823 Y7.937 Z-0.100 F200
G1 X18.975 Y7.944 Z-0.100 F200
G1 X19.126 Y7.966 Z-0.100 F200
G1 X19.274 Y8.002 Z-0.100 F200
G1 X19.418 Y8.053 Z-0.100 F200
G1 X19.556 Y8.116 Z-0.100 F200
G1 X19.688 Y8.193 Z-0.100 F200
G1 X19.811 Y8.282 Z-0.100 F200
G1 X19.926 Y8.383 Z-0.100 F200
G1 X24.384 Y12.693 Z-0.100 F200
G1 X24.493 Y12.809 Z-0.100 F200
G1 X24.589 Y12.935 Z-0.100 F200
G1 X24.673 Y13.071 Z-0.100 F200
G1 X24.742 Y13.214 Z-0.100 F200
G1 X24.797 Y13.363 Z-0.100 F200
G1 X24.836 Y13.517 Z-0.100 F200
G1 X24.860 Y13.675 Z-0.100 F200
G1 X24.868 Y13.834 Z-0.100 F200
G1 X24.868 Y15.662 Z-0.100 F200
G1 X24.875 Y15.848 Z-0.100 F200
G1 X24.897 Y16.034 Z-0.100 F200
G1 X24.932 Y16.217 Z-0.100 F200
G1 X24.982 Y16.398 Z-0.100 F200
G1 X25.045 Y16.573 Z-0.100 F200
G1 X25.122 Y16.744 Z-0.100 F200
G1 X25.211 Y16.908 Z-0.100 F200
G1 X25.313 Y17.064 Z-0.100 F200
G1 X25.426 Y17.213 Z-0.100 F200
G1 X25.551 Y17.352 Z-0.100 F200
G1 X25.686 Y17.482 Z-0.100 F200
G1 X25.733 Y17.534 Z-0.100 F1500
G1 X25.768 Y17.597 Z-0.100 F1500
G1 X25.788 Y17.665 Z-0.100 F1500
G1 X25.792 Y17.736 Z-0.100 F1500
G1 X25.780 Y17.806 Z-0.100 F1500
G1 X25.753 Y17.872 Z-0.100 F1500
G1 X25.712 Y17.930 Z-0.100 F1500
G1 X25.501 Y18.167 Z-0.100 F1500
G1 X25.455 Y18.220 Z-0.092 F1500
G1 X25.410 Y18.270 Z-0.069 F1500
G1 X25.370 Y18.315 Z-0.031 F1500
G1 X25.337 Y18.353 Z0.020 F1500
G1 X25.311 Y18.381 Z0.080 F1500
G1 X25.296 Y18.399 Z0.147 F1500
G1 X25.291 Y18.405 Z0.217 F1500
G1 X25.291 Y18.405 Z2.000 F200
G1 X24.816 Y17.983 Z2.000 F200
G1 X24.816 Y17.983 Z1.000 F200
G1 X24.816 Y17.983 Z0.535 F200
G1 X24.816 Y17.983 Z0.117 F200
G1 X24.821 Y17.977 Z0.047 F200
G1 X24.837 Y17.959 Z-0.020 F200
G1 X24.862 Y17.931 Z-0.080 F200
G1 X24.895 Y17.893 Z-0.131 F200
G1 X24.935 Y17.848 Z-0.169 F200
G1 X24.980 Y17.798 Z-0.192 F200
G1 X25.027 Y17.745 Z-0.200 F200
G1 X25.238 Y17.508 Z-0.200 F200
G1 X25.290 Y17.461 Z-0.200 F200
G1 X25.353 Y17.426 Z-0.200 F200
G1 X25.421 Y17.406 Z-0.200 F200
G1 X25.492 Y17.402 Z-0.200 F200
G1 X25.562 Y17.414 Z-0.200 F200
G1 X25.628 Y17.441 Z-0.200 F200
G1 X25.686 Y17.482 Z-0.200 F200
G1 X25.838 Y17.606 Z-0.200 F200
G1 X25.999 Y17.718 Z-0.200 F200
G1 X26.169 Y17.816 Z-0.200 F200
G1 X26.347 Y17.900 Z-0.200 F200
G1 X26.530 Y17.970 Z-0.200 F200
G1 X26.719 Y18.025 Z-0.200 F200
G1 X26.911 Y18.064 Z-0.200 F200
G1 X27.106 Y18.088 Z-0.200 F200
G1 X27.302 Y18.096 Z-0.200 F200
G1 X36.191 Y18.096 Z-0.200 F200
G1 X36.382 Y18.088 Z-0.200 F200
G1 X36.572 Y18.066 Z-0.200 F200
G1 X36.760 Y18.029 Z-0.200 F200
G1 X36.944 Y17.977 Z-0.200 F200
G1 X37.123 Y17.911 Z-0.200 F200
G1 X37.296 Y17.831 Z-0.200 F200
G1 X37.463 Y17.737 Z-0.200 F200
G1 X37.622 Y17.631 Z-0.200 F200
G1 X37.772 Y17.513 Z-0.200 F200
G1 X37.913 Y17.383 Z-0.200 F200
G1 X38.042 Y17.243 Z-0.200 F200
G1 X38.161 Y17.093 Z-0.200 F200
G1 X38.267 Y16.934 Z-0.200 F200
G1 X38.360 Y16.767 Z-0.200 F200
G1 X38.440 Y16.593 Z-0.200 F200
G1 X38.506 Y16.414 Z-0.200 F200
G1 X38.558 Y16.230 Z-0.200 F200
G1 X38.596 Y16.043 Z-0.200 F200
G1 X38.618 Y15.853 Z-0.200 F200
G1 X38.625 Y15.662 Z-0.200 F200
G1 X38.625 Y0.847 Z-0.200 F200
G1 X38.618 Y0.656 Z-0.200 F200
G1 X38.596 Y0.466 Z-0.200 F200
G1 X38.558 Y0.278 Z-0.200 F200
G1 X38.506 Y0.094 Z-0.200 F200
G1 X38.440 Y-0.085 Z-0.200 F200
G1 X38.360 Y-0.258 Z-0.200 F200
G1 X38.267 Y-0.425 Z-0.200 F200
G1 X38.161 Y-0.584 Z-0.200 F200
G1 X38.042 Y-0.734 Z-0.200 F200
G1 X37.913 Y-0.875 Z-0.200 F200
G1 X37.772 Y-1.004 Z-0.200 F200
G1 X37.622 Y-1.123 Z-0.200 F200
G1 X37.463 Y-1.229 Z-0.200 F200
G1 X37.296 Y-1.322 Z-0.200 F200
G1 X37.123 Y-1.402 Z-0.200 F200
G1 X36.944 Y-1.468 Z-0.200 F200
G1 X36.760 Y-1.520 Z-0.200 F200
G1 X36.572 Y-1.558 Z-0.200 F200
G1 X36.382 Y-1.580 Z-0.200 F200
G1 X36.191 Y-1.587 Z-0.200 F200
G1 X0.847 Y-1.587 Z-0.200 F200
G1 X0.656 Y-1.580 Z-0.200 F200
G1 X0.466 Y-1.558 Z-0.200 F200
G1 X0.278 Y-1.520 Z-0.200 F200
G1 X0.094 Y-1.468 Z-0.200 F200
G1 X-0.085 Y-1.402 Z-0.200 F200
G1 X-0.258 Y-1.322 Z-0.200 F200
G1 X-0.425 Y-1.229 Z-0.200 F200
G1 X-0.584 Y-1.123 Z-0.200 F200
G1 X-0.734 Y-1.004 Z-0.200 F200
G1 X-0.875 Y-0.875 Z-0.200 F200
G1 X-1.004 Y-0.734 Z-0.200 F200
G1 X-1.123 Y-0.584 Z-0.200 F200
G1 X-1.229 Y-0.425 Z-0.200 F200
G1 X-1.322 Y-0.258 Z-0.200 F200
G1 X-1.402 Y-0.085 Z-0.200 F200
G1 X-1.468 Y0.094 Z-0.200 F200
G1 X-1.520 Y0.278 Z-0.200 F200
G1 X-1.558 Y0.466 Z-0.200 F200
G1 X-1.580 Y0.656 Z-0.200 F200
G1 X-1.587 Y0.847 Z-0.200 F200
G1 X-1.587 Y5.503 Z-0.200 F200
G1 X-1.580 Y5.694 Z-0.200 F200
G1 X-1.558 Y5.884 Z-0.200 F200
G1 X-1.520 Y6.071 Z-0.200 F200
G1 X-1.468 Y6.255 Z-0.200 F200
G1 X-1.402 Y6.434 Z-0.200 F200
G1 X-1.322 Y6.608 Z-0.200 F200
G1 X-1.229 Y6.775 Z-0.200 F200
G1 X-1.123 Y6.933 Z-0.200 F200
G1 X-1.004 Y7.084 Z-0.200 F200
G1 X-0.875 Y7.224 Z-0.200 F200
G1 X-0.734 Y7.354 Z-0.200 F200
G1 X-0.584 Y7.472 Z-0.200 F200
G1 X-0.425 Y7.578 Z-0.200 F200
G1 X-0.258 Y7.672 Z-0.200 F200
G1 X-0.085 Y7.752 Z-0.200 F200
G1 X0.094 Y7.818 Z-0.200 F200
G1 X0.278 Y7.870 Z-0.200 F200
G1 X0.466 Y7.907 Z-0.200 F200
G1 X0.656 Y7.929 Z-0.200 F200
G1 X0.847 Y7.937 Z-0.200 F200
G1 X18.823 Y7.937 Z-0.200 F200
G1 X18.975 Y7.944 Z-0.200 F200
G1 X19.126 Y7.966 Z-0.200 F200
G1 X19.274 Y8.002 Z-0.200 F200
G1 X19.418 Y8.053 Z-0.200 F200
G1 X19.556 Y8.116 Z-0.200 F200
G1 X19.688 Y8.193 Z-0.200 F200
G1 X19.811 Y8.282 Z-0.200 F200
G1 X19.926 Y8.383 Z-0.200 F200
G1 X24.384 Y12.693 Z-0.200 F200
G1 X24.493 Y12.809 Z-0.200 F200
G1 X24.589 Y12.935 Z-0.200 F200
G1 X24.673 Y13.071 Z-0.200 F200
G1 X24.742 Y13.214 Z-0.200 F200
G1 X24.797 Y13.363 Z-0.200 F200
G1 X24.836 Y13.517 Z-0.200 F200
G1 X24.860 Y13.675 Z-0.200 F200
G1 X24.868 Y13.834 Z-0.200 F200
G1 X24.868 Y15.662 Z-0.200 F200
G1 X24.875 Y15.848 Z-0.200 F200
G1 X24.897 Y16.034 Z-0.200 F200
G1 X24.932 Y16.217 Z-0.200 F200
G1 X24.982 Y16.398 Z-0.200 F200
G1 X25.045 Y16.573 Z-0.200 F200
G1 X25.122 Y16.744 Z-0.200 F200
G1 X25.211 Y16.908 Z-0.200 F200
G1 X25.313 Y17.064 Z-0.200 F200
G1 X25.426 Y17.213 Z-0.200 F200
G1 X25.551 Y17.352 Z-0.200 F200
G1 X25.686 Y17.482 Z-0.200 F200
G1 X25.733 Y17.534 Z-0.200 F1500
G1 X25.768 Y17.597 Z-0.200 F1500
G1 X25.788 Y17.665 Z-0.200 F1500
G1 X25.792 Y17.736 Z-0.200 F1500
G1 X25.780 Y17.806 Z-0.200 F1500
G1 X25.753 Y17.872 Z-0.200 F1500
G1 X25.712 Y17.930 Z-0.200 F1500
G1 X25.501 Y18.167 Z-0.200 F1500
G1 X25.455 Y18.220 Z-0.192 F1500
G1 X25.410 Y18.270 Z-0.169 F1500
G1 X25.370 Y18.315 Z-0.131 F1500
G1 X25.337 Y18.353 Z-0.080 F1500
G1 X25.311 Y18.381 Z-0.020 F1500
G1 X25.296 Y18.399 Z0.047 F1500
G1 X25.291 Y18.405 Z0.117 F1500
G1 X25.291 Y18.405 Z2.000 F200
G1 X24.816 Y17.983 Z2.000 F200
G1 X24.816 Y17.983 Z1.000 F200
G1 X24.816 Y17.983 Z0.435 F200
G1 X24.816 Y17.983 Z0.017 F200
G1 X24.821 Y17.977 Z-0.053 F200
G1 X24.837 Y17.959 Z-0.120 F200
G1 X24.862 Y17.931 Z-0.180 F200
G1 X24.895 Y17.893 Z-0.231 F200
G1 X24.935 Y17.848 Z-0.269 F200
G1 X24.980 Y17.798 Z-0.292 F200
G1 X25.027 Y17.745 Z-0.300 F200
G1 X25.238 Y17.508 Z-0.300 F200
G1 X25.290 Y17.461 Z-0.300 F200
G1 X25.353 Y17.426 Z-0.300 F200
G1 X25.421 Y17.406 Z-0.300 F200
G1 X25.492 Y17.402 Z-0.300 F200
G1 X25.562 Y17.414 Z-0.300 F200
G1 X25.628 Y17.441 Z-0.300 F200
G1 X25.686 Y17.482 Z-0.300 F200
G1 X25.838 Y17.606 Z-0.300 F200
G1 X25.999 Y17.718 Z-0.300 F200
G1 X26.169 Y17.816 Z-0.300 F200
G1 X26.347 Y17.900 Z-0.300 F200
G1 X26.530 Y17.970 Z-0.300 F200
G1 X26.719 Y18.025 Z-0.300 F200
G1 X26.911 Y18.064 Z-0.300 F200
G1 X27.106 Y18.088 Z-0.300 F200
G1 X27.302 Y18.096 Z-0.300 F200
G1 X36.191 Y18.096 Z-0.300 F200
G1 X36.382 Y18.088 Z-0.300 F200
G1 X36.572 Y18.066 Z-0.300 F200
G1 X36.760 Y18.029 Z-0.300 F200
G1 X36.944 Y17.977 Z-0.300 F200
G1 X37.123 Y17.911 Z-0.300 F200
G1 X37.296 Y17.831 Z-0.300 F200
G1 X37.463 Y17.737 Z-0.300 F200
G1 X37.622 Y17.631 Z-0.300 F200
G1 X37.772 Y17.513 Z-0.300 F200
G1 X37.913 Y17.383 Z-0.300 F200
G1 X38.042 Y17.243 Z-0.300 F200
G1 X38.161 Y17.093 Z-0.300 F200
G1 X38.267 Y16.934 Z-0.300 F200
G1 X38.360 Y16.767 Z-0.300 F200
G1 X38.440 Y16.593 Z-0.300 F200
G1 X38.506 Y16.414 Z-0.300 F200
G1 X38.558 Y16.230 Z-0.300 F200
G1 X38.596 Y16.043 Z-0.300 F200
G1 X38.618 Y15.853 Z-0.300 F200
G1 X38.625 Y15.662 Z-0.300 F200
G1 X38.625 Y0.847 Z-0.300 F200
G1 X38.618 Y0.656 Z-0.300 F200
G1 X38.596 Y0.466 Z-0.300 F200
G1 X38.558 Y0.278 Z-0.300 F200
G1 X38.506 Y0.094 Z-0.300 F200
G1 X38.440 Y-0.085 Z-0.300 F200
G1 X38.360 Y-0.258 Z-0.300 F200
G1 X38.267 Y-0.425 Z-0.300 F200
G1 X38.161 Y-0.584 Z-0.300 F200
G1 X38.042 Y-0.734 Z-0.300 F200
G1 X37.913 Y-0.875 Z-0.300 F200
G1 X37.772 Y-1.004 Z-0.300 F200
G1 X37.622 Y-1.123 Z-0.300 F200
G1 X37.463 Y-1.229 Z-0.300 F200
G1 X37.296 Y-1.322 Z-0.300 F200
G1 X37.123 Y-1.402 Z-0.300 F200
G1 X36.944 Y-1.468 Z-0.300 F200
G1 X36.760 Y-1.520 Z-0.300 F200
G1 X36.572 Y-1.558 Z-0.300 F200
G1 X36.382 Y-1.580 Z-0.300 F200
G1 X36.191 Y-1.587 Z-0.300 F200
G1 X0.847 Y-1.587 Z-0.300 F200
G1 X0.656 Y-1.580 Z-0.300 F200
G1 X0.466 Y-1.558 Z-0.300 F200
G1 X0.278 Y-1.520 Z-0.300 F200
G1 X0.094 Y-1.468 Z-0.300 F200
G1 X-0.085 Y-1.402 Z-0.300 F200
G1 X-0.258 Y-1.322 Z-0.300 F200
G1 X-0.425 Y-1.229 Z-0.300 F200
G1 X-0.584 Y-1.123 Z-0.300 F200
G1 X-0.734 Y-1.004 Z-0.300 F200
G1 X-0.875 Y-0.875 Z-0.300 F200
G1 X-1.004 Y-0.734 Z-0.300 F200
G1 X-1.123 Y-0.584 Z-0.300 F200
G1 X-1.229 Y-0.425 Z-0.300 F200
G1 X-1.322 Y-0.258 Z-0.300 F200
G1 X-1.402 Y-0.085 Z-0.300 F200
G1 X-1.468 Y0.094 Z-0.300 F200
G1 X-1.520 Y0.278 Z-0.300 F200
G1 X-1.558 Y0.466 Z-0.300 F200
G1 X-1.580 Y0.656 Z-0.300 F200
G1 X-1.587 Y0.847 Z-0.300 F200
G1 X-1.587 Y5.503 Z-0.300 F200
G1 X-1.580 Y5.694 Z-0.300 F200
G1 X-1.558 Y5.884 Z-0.300 F200
G1 X-1.520 Y6.071 Z-0.300 F200
G1 X-1.468 Y6.255 Z-0.300 F200
G1 X-1.402 Y6.434 Z-0.300 F200
G1 X-1.322 Y6.608 Z-0.300 F200
G1 X-1.229 Y6.775 Z-0.300 F200
G1 X-1.123 Y6.933 Z-0.300 F200
G1 X-1.004 Y7.084 Z-0.300 F200
G1 X-0.875 Y7.224 Z-0.300 F200
G1 X-0.734 Y7.354 Z-0.300 F200
G1 X-0.584 Y7.472 Z-0.300 F200
G1 X-0.425 Y7.578 Z-0.300 F200
G1 X-0.258 Y7.672 Z-0.300 F200
G1 X-0.085 Y7.752 Z-0.300 F200
G1 X0.094 Y7.818 Z-0.300 F200
G1 X0.278 Y7.870 Z-0.300 F200
G1 X0.466 Y7.907 Z-0.300 F200
G1 X0.656 Y7.929 Z-0.300 F200
G1 X0.847 Y7.937 Z-0.300 F200
G1 X18.823 Y7.937 Z-0.300 F200
G1 X18.975 Y7.944 Z-0.300 F200
G1 X19.126 Y7.966 Z-0.300 F200
G1 X19.274 Y8.002 Z-0.300 F200
G1 X19.418 Y8.053 Z-0.300 F200
G1 X19.556 Y8.116 Z-0.300 F200
G1 X19.688 Y8.193 Z-0.300 F200
G1 X19.811 Y8.282 Z-0.300 F200
G1 X19.926 Y8.383 Z-0.300 F200
G1 X24.384 Y12.693 Z-0.300 F200
G1 X24.493 Y12.809 Z-0.300 F200
G1 X24.589 Y12.935 Z-0.300 F200
G1 X24.673 Y13.071 Z-0.300 F200
G1 X24.742 Y13.214 Z-0.300 F200
G1 X24.797 Y13.363 Z-0.300 F200
G1 X24.836 Y13.517 Z-0.300 F200
G1 X24.860 Y13.675 Z-0.300 F200
G1 X24.868 Y13.834 Z-0.300 F200
G1 X24.868 Y15.662 Z-0.300 F200
G1 X24.875 Y15.848 Z-0.300 F200
G1 X24.897 Y16.034 Z-0.300 F200
G1 X24.932 Y16.217 Z-0.300 F200
G1 X24.982 Y16.398 Z-0.300 F200
G1 X25.045 Y16.573 Z-0.300 F200
G1 X25.122 Y16.744 Z-0.300 F200
G1 X25.211 Y16.908 Z-0.300 F200
G1 X25.313 Y17.064 Z-0.300 F200
G1 X25.426 Y17.213 Z-0.300 F200
G1 X25.551 Y17.352 Z-0.300 F200
G1 X25.686 Y17.482 Z-0.300 F200
G1 X25.733 Y17.534 Z-0.300 F1500
G1 X25.768 Y17.597 Z-0.300 F1500
G1 X25.788 Y17.665 Z-0.300 F1500
G1 X25.792 Y17.736 Z-0.300 F1500
G1 X25.780 Y17.806 Z-0.300 F1500
G1 X25.753 Y17.872 Z-0.300 F1500
G1 X25.712 Y17.930 Z-0.300 F1500
G1 X25.501 Y18.167 Z-0.300 F1500
G1 X25.455 Y18.220 Z-0.292 F1500
G1 X25.410 Y18.270 Z-0.269 F1500
G1 X25.370 Y18.315 Z-0.231 F1500
G1 X25.337 Y18.353 Z-0.180 F1500
G1 X25.311 Y18.381 Z-0.120 F1500
G1 X25.296 Y18.399 Z-0.053 F1500
G1 X25.291 Y18.405 Z0.017 F1500
G1 X25.291 Y18.405 Z2.000 F200
G1 X24.816 Y17.983 Z2.000 F200
G1 X24.816 Y17.983 Z1.000 F200
G1 X24.816 Y17.983 Z0.335 F200
G1 X24.816 Y17.983 Z-0.083 F200
G1 X24.821 Y17.977 Z-0.153 F200
G1 X24.837 Y17.959 Z-0.220 F200
G1 X24.862 Y17.931 Z-0.280 F200
G1 X24.895 Y17.893 Z-0.331 F200
G1 X24.935 Y17.848 Z-0.369 F200
G1 X24.980 Y17.798 Z-0.392 F200
G1 X25.027 Y17.745 Z-0.400 F200
G1 X25.238 Y17.508 Z-0.400 F200
G1 X25.290 Y17.461 Z-0.400 F200
G1 X25.353 Y17.426 Z-0.400 F200
G1 X25.421 Y17.406 Z-0.400 F200
G1 X25.492 Y17.402 Z-0.400 F200
G1 X25.562 Y17.414 Z-0.400 F200
G1 X25.628 Y17.441 Z-0.400 F200
G1 X25.686 Y17.482 Z-0.400 F200
G1 X25.838 Y17.606 Z-0.400 F200
G1 X25.999 Y17.718 Z-0.400 F200
G1 X26.169 Y17.816 Z-0.400 F200
G1 X26.347 Y17.900 Z-0.400 F200
G1 X26.530 Y17.970 Z-0.400 F200
G1 X26.719 Y18.025 Z-0.400 F200
G1 X26.911 Y18.064 Z-0.400 F200
G1 X27.106 Y18.088 Z-0.400 F200
G1 X27.302 Y18.096 Z-0.400 F200
G1 X36.191 Y18.096 Z-0.400 F200
G1 X36.382 Y18.088 Z-0.400 F200
G1 X36.572 Y18.066 Z-0.400 F200
G1 X36.760 Y18.029 Z-0.400 F200
G1 X36.944 Y17.977 Z-0.400 F200
G1 X37.123 Y17.911 Z-0.400 F200
G1 X37.296 Y17.831 Z-0.400 F200
G1 X37.463 Y17.737 Z-0.400 F200
G1 X37.622 Y17.631 Z-0.400 F200
G1 X37.772 Y17.513 Z-0.400 F200
G1 X37.913 Y17.383 Z-0.400 F200
G1 X38.042 Y17.243 Z-0.400 F200
G1 X38.161 Y17.093 Z-0.400 F200
G1 X38.267 Y16.934 Z-0.400 F200
G1 X38.360 Y16.767 Z-0.400 F200
G1 X38.440 Y16.593 Z-0.400 F200
G1 X38.506 Y16.414 Z-0.400 F200
G1 X38.558 Y16.230 Z-0.400 F200
G1 X38.596 Y16.043 Z-0.400 F200
G1 X38.618 Y15.853 Z-0.400 F200
G1 X38.625 Y15.662 Z-0.400 F200
G1 X38.625 Y0.847 Z-0.400 F200
G1 X38.618 Y0.656 Z-0.400 F200
G1 X38.596 Y0.466 Z-0.400 F200
G1 X38.558 Y0.278 Z-0.400 F200
G1 X38.506 Y0.094 Z-0.400 F200
G1 X38.440 Y-0.085 Z-0.400 F200
G1 X38.360 Y-0.258 Z-0.400 F200
G1 X38.267 Y-0.425 Z-0.400 F200
G1 X38.161 Y-0.584 Z-0.400 F200
G1 X38.042 Y-0.734 Z-0.400 F200
G1 X37.913 Y-0.875 Z-0.400 F200
G1 X37.772 Y-1.004 Z-0.400 F200
G1 X37.622 Y-1.123 Z-0.400 F200
G1 X37.463 Y-1.229 Z-0.400 F200
G1 X37.296 Y-1.322 Z-0.400 F200
G1 X37.123 Y-1.402 Z-0.400 F200
G1 X36.944 Y-1.468 Z-0.400 F200
G1 X36.760 Y-1.520 Z-0.400 F200
G1 X36.572 Y-1.558 Z-0.400 F200
G1 X36.382 Y-1.580 Z-0.400 F200
G1 X36.191 Y-1.587 Z-0.400 F200
G1 X0.847 Y-1.587 Z-0.400 F200
G1 X0.656 Y-1.580 Z-0.400 F200
G1 X0.466 Y-1.558 Z-0.400 F200
G1 X0.278 Y-1.520 Z-0.400 F200
G1 X0.094 Y-1.468 Z-0.400 F200
G1 X-0.085 Y-1.402 Z-0.400 F200
G1 X-0.258 Y-1.322 Z-0.400 F200
G1 X-0.425 Y-1.229 Z-0.400 F200
G1 X-0.584 Y-1.123 Z-0.400 F200
G1 X-0.734 Y-1.004 Z-0.400 F200
G1 X-0.875 Y-0.875 Z-0.400 F200
G1 X-1.004 Y-0.734 Z-0.400 F200
G1 X-1.123 Y-0.584 Z-0.400 F200
G1 X-1.229 Y-0.425 Z-0.400 F200
G1 X-1.322 Y-0.258 Z-0.400 F200
G1 X-1.402 Y-0.085 Z-0.400 F200
G1 X-1.468 Y0.094 Z-0.400 F200
G1 X-1.520 Y0.278 Z-0.400 F200
G1 X-1.558 Y0.466 Z-0.400 F200
G1 X-1.580 Y0.656 Z-0.400 F200
G1 X-1.587 Y0.847 Z-0.400 F200
G1 X-1.587 Y5.503 Z-0.400 F200
G1 X-1.580 Y5.694 Z-0.400 F200
G1 X-1.558 Y5.884 Z-0.400 F200
G1 X-1.520 Y6.071 Z-0.400 F200
G1 X-1.468 Y6.255 Z-0.400 F200
G1 X-1.402 Y6.434 Z-0.400 F200
G1 X-1.322 Y6.608 Z-0.400 F200
G1 X-1.229 Y6.775 Z-0.400 F200
G1 X-1.123 Y6.933 Z-0.400 F200
G1 X-1.004 Y7.084 Z-0.400 F200
G1 X-0.875 Y7.224 Z-0.400 F200
G1 X-0.734 Y7.354 Z-0.400 F200
G1 X-0.584 Y7.472 Z-0.400 F200
G1 X-0.425 Y7.578 Z-0.400 F200
G1 X-0.258 Y7.672 Z-0.400 F200
G1 X-0.085 Y7.752 Z-0.400 F200
G1 X0.094 Y7.818 Z-0.400 F200
G1 X0.278 Y7.870 Z-0.400 F200
G1 X0.466 Y7.907 Z-0.400 F200
G1 X0.656 Y7.929 Z-0.400 F200
G1 X0.847 Y7.937 Z-0.400 F200
G1 X18.823 Y7.937 Z-0.400 F200
G1 X18.975 Y7.944 Z-0.400 F200
G1 X19.126 Y7.966 Z-0.400 F200
G1 X19.274 Y8.002 Z-0.400 F200
G1 X19.418 Y8.053 Z-0.400 F200
G1 X19.556 Y8.116 Z-0.400 F200
G1 X19.688 Y8.193 Z-0.400 F200
G1 X19.811 Y8.282 Z-0.400 F200
G1 X19.926 Y8.383 Z-0.400 F200
G1 X24.384 Y12.693 Z-0.400 F200
G1 X24.493 Y12.809 Z-0.400 F200
G1 X24.589 Y12.935 Z-0.400 F200
G1 X24.673 Y13.071 Z-0.400 F200
G1 X24.742 Y13.214 Z-0.400 F200
G1 X24.797 Y13.363 Z-0.400 F200
G1 X24.836 Y13.517 Z-0.400 F200
G1 X24.860 Y13.675 Z-0.400 F200
G1 X24.868 Y13.834 Z-0.400 F200
G1 X24.868 Y15.662 Z-0.400 F200
G1 X24.875 Y15.848 Z-0.400 F200
G1 X24.897 Y16.034 Z-0.400 F200
G1 X24.932 Y16.217 Z-0.400 F200
G1 X24.982 Y16.398 Z-0.400 F200
G1 X25.045 Y16.573 Z-0.400 F200
G1 X25.122 Y16.744 Z-0.400 F200
G1 X25.211 Y16.908 Z-0.400 F200
G1 X25.313 Y17.064 Z-0.400 F200
G1 X25.426 Y17.213 Z-0.400 F200
G1 X25.551 Y17.352 Z-0.400 F200
G1 X25.686 Y17.482 Z-0.400 F200
G1 X25.733 Y17.534 Z-0.400 F1500
G1 X25.768 Y17.597 Z-0.400 F1500
G1 X25.788 Y17.665 Z-0.400 F1500
G1 X25.792 Y17.736 Z-0.400 F1500
G1 X25.780 Y17.806 Z-0.400 F1500
G1 X25.753 Y17.872 Z-0.400 F1500
G1 X25.712 Y17.930 Z-0.400 F1500
G1 X25.501 Y18.167 Z-0.400 F1500
G1 X25.455 Y18.220 Z-0.392 F1500
G1 X25.410 Y18.270 Z-0.369 F1500
G1 X25.370 Y18.315 Z-0.331 F1500
G1 X25.337 Y18.353 Z-0.280 F1500
G1 X25.311 Y18.381 Z-0.220 F1500
G1 X25.296 Y18.399 Z-0.153 F1500
G1 X25.291 Y18.405 Z-0.083 F1500
G1 X25.291 Y18.405 Z2.000 F200
G1 X24.816 Y17.983 Z2.000 F200
G1 X24.816 Y17.983 Z1.000 F200
G1 X24.816 Y17.983 Z0.235 F200
G1 X24.816 Y17.983 Z-0.183 F200
G1 X24.821 Y17.977 Z-0.253 F200
G1 X24.837 Y17.959 Z-0.320 F200
G1 X24.862 Y17.931 Z-0.380 F200
G1 X24.895 Y17.893 Z-0.431 F200
G1 X24.935 Y17.848 Z-0.469 F200
G1 X24.980 Y17.798 Z-0.492 F200
G1 X25.027 Y17.745 Z-0.500 F200
G1 X25.238 Y17.508 Z-0.500 F200
G1 X25.290 Y17.461 Z-0.500 F200
G1 X25.353 Y17.426 Z-0.500 F200
G1 X25.421 Y17.406 Z-0.500 F200
G1 X25.492 Y17.402 Z-0.500 F200
G1 X25.562 Y17.414 Z-0.500 F200
G1 X25.628 Y17.441 Z-0.500 F200
G1 X25.686 Y17.482 Z-0.500 F200
G1 X25.838 Y17.606 Z-0.500 F200
G1 X25.999 Y17.718 Z-0.500 F200
G1 X26.169 Y17.816 Z-0.500 F200
G1 X26.347 Y17.900 Z-0.500 F200
G1 X26.530 Y17.970 Z-0.500 F200
G1 X26.719 Y18.025 Z-0.500 F200
G1 X26.911 Y18.064 Z-0.500 F200
G1 X27.106 Y18.088 Z-0.500 F200
G1 X27.302 Y18.096 Z-0.500 F200
G1 X36.191 Y18.096 Z-0.500 F200
G1 X36.382 Y18.088 Z-0.500 F200
G1 X36.572 Y18.066 Z-0.500 F200
G1 X36.760 Y18.029 Z-0.500 F200
G1 X36.944 Y17.977 Z-0.500 F200
G1 X37.123 Y17.911 Z-0.500 F200
G1 X37.296 Y17.831 Z-0.500 F200
G1 X37.463 Y17.737 Z-0.500 F200
G1 X37.622 Y17.631 Z-0.500 F200
G1 X37.772 Y17.513 Z-0.500 F200
G1 X37.913 Y17.383 Z-0.500 F200
G1 X38.042 Y17.243 Z-0.500 F200
G1 X38.161 Y17.093 Z-0.500 F200
G1 X38.267 Y16.934 Z-0.500 F200
G1 X38.360 Y16.767 Z-0.500 F200
G1 X38.440 Y16.593 Z-0.500 F200
G1 X38.506 Y16.414 Z-0.500 F200
G1 X38.558 Y16.230 Z-0.500 F200
G1 X38.596 Y16.043 Z-0.500 F200
G1 X38.618 Y15.853 Z-0.500 F200
G1 X38.625 Y15.662 Z-0.500 F200
G1 X38.625 Y0.847 Z-0.500 F200
G1 X38.618 Y0.656 Z-0.500 F200
G1 X38.596 Y0.466 Z-0.500 F200
G1 X38.558 Y0.278 Z-0.500 F200
G1 X38.506 Y0.094 Z-0.500 F200
G1 X38.440 Y-0.085 Z-0.500 F200
G1 X38.360 Y-0.258 Z-0.500 F200
G1 X38.267 Y-0.425 Z-0.500 F200
G1 X38.161 Y-0.584 Z-0.500 F200
G1 X38.042 Y-0.734 Z-0.500 F200
G1 X37.913 Y-0.875 Z-0.500 F200
G1 X37.772 Y-1.004 Z-0.500 F200
G1 X37.622 Y-1.123 Z-0.500 F200
G1 X37.463 Y-1.229 Z-0.500 F200
G1 X37.296 Y-1.322 Z-0.500 F200
G1 X37.123 Y-1.402 Z-0.500 F200
G1 X36.944 Y-1.468 Z-0.500 F200
G1 X36.760 Y-1.520 Z-0.500 F200
G1 X36.572 Y-1.558 Z-0.500 F200
G1 X36.382 Y-1.580 Z-0.500 F200
G1 X36.191 Y-1.587 Z-0.500 F200
G1 X0.847 Y-1.587 Z-0.500 F200
G1 X0.656 Y-1.580 Z-0.500 F200
G1 X0.466 Y-1.558 Z-0.500 F200
G1 X0.278 Y-1.520 Z-0.500 F200
G1 X0.094 Y-1.468 Z-0.500 F200
G1 X-0.085 Y-1.402 Z-0.500 F200
G1 X-0.258 Y-1.322 Z-0.500 F200
G1 X-0.425 Y-1.229 Z-0.500 F200
G1 X-0.584 Y-1.123 Z-0.500 F200
G1 X-0.734 Y-1.004 Z-0.500 F200
G1 X-0.875 Y-0.875 Z-0.500 F200
G1 X-1.004 Y-0.734 Z-0.500 F200
G1 X-1.123 Y-0.584 Z-0.500 F200
G1 X-1.229 Y-0.425 Z-0.500 F200
G1 X-1.322 Y-0.258 Z-0.500 F200
G1 X-1.402 Y-0.085 Z-0.500 F200
G1 X-1.468 Y0.094 Z-0.500 F200
G1 X-1.520 Y0.278 Z-0.500 F200
G1 X-1.558 Y0.466 Z-0.500 F200
G1 X-1.580 Y0.656 Z-0.500 F200
G1 X-1.587 Y0.847 Z-0.500 F200
G1 X-1.587 Y5.503 Z-0.500 F200
G1 X-1.580 Y5.694 Z-0.500 F200
G1 X-1.558 Y5.884 Z-0.500 F200
G1 X-1.520 Y6.071 Z-0.500 F200
G1 X-1.468 Y6.255 Z-0.500 F200
G1 X-1.402 Y6.434 Z-0.500 F200
G1 X-1.322 Y6.608 Z-0.500 F200
G1 X-1.229 Y6.775 Z-0.500 F200
G1 X-1.123 Y6.933 Z-0.500 F200
G1 X-1.004 Y7.084 Z-0.500 F200
G1 X-0.875 Y7.224 Z-0.500 F200
G1 X-0.734 Y7.354 Z-0.500 F200
G1 X-0.584 Y7.472 Z-0.500 F200
G1 X-0.425 Y7.578 Z-0.500 F200
G1 X-0.258 Y7.672 Z-0.500 F200
G1 X-0.085 Y7.752 Z-0.500 F200
G1 X0.094 Y7.818 Z-0.500 F200
G1 X0.278 Y7.870 Z-0.500 F200
G1 X0.466 Y7.907 Z-0.500 F200
G1 X0.656 Y7.929 Z-0.500 F200
G1 X0.847 Y7.937 Z-0.500 F200
G1 X18.823 Y7.937 Z-0.500 F200
G1 X18.975 Y7.944 Z-0.500 F200
G1 X19.126 Y7.966 Z-0.500 F200
G1 X19.274 Y8.002 Z-0.500 F200
G1 X19.418 Y8.053 Z-0.500 F200
G1 X19.556 Y8.116 Z-0.500 F200
G1 X19.688 Y8.193 Z-0.500 F200
G1 X19.811 Y8.282 Z-0.500 F200
G1 X19.926 Y8.383 Z-0.500 F200
G1 X24.384 Y12.693 Z-0.500 F200
G1 X24.493 Y12.809 Z-0.500 F200
G1 X24.589 Y12.935 Z-0.500 F200
G1 X24.673 Y13.071 Z-0.500 F200
G1 X24.742 Y13.214 Z-0.500 F200
G1 X24.797 Y13.363 Z-0.500 F200
G1 X24.836 Y13.517 Z-0.500 F200
G1 X24.860 Y13.675 Z-0.500 F200
G1 X24.868 Y13.834 Z-0.500 F200
G1 X24.868 Y15.662 Z-0.500 F200
G1 X24.875 Y15.848 Z-0.500 F200
G1 X24.897 Y16.034 Z-0.500 F200
G1 X24.932 Y16.217 Z-0.500 F200
G1 X24.982 Y16.398 Z-0.500 F200
G1 X25.045 Y16.573 Z-0.500 F200
G1 X25.122 Y16.744 Z-0.500 F200
G1 X25.211 Y16.908 Z-0.500 F200
G1 X25.313 Y17.064 Z-0.500 F200
G1 X25.426 Y17.213 Z-0.500 F200
G1 X25.551 Y17.352 Z-0.500 F200
G1 X25.686 Y17.482 Z-0.500 F200
G1 X25.733 Y17.534 Z-0.500 F1500
G1 X25.768 Y17.597 Z-0.500 F1500
G1 X25.788 Y17.665 Z-0.500 F1500
G1 X25.792 Y17.736 Z-0.500 F1500
G1 X25.780 Y17.806 Z-0.500 F1500
G1 X25.753 Y17.872 Z-0.500 F1500
G1 X25.712 Y17.930 Z-0.500 F1500
G1 X25.501 Y18.167 Z-0.500 F1500
G1 X25.455 Y18.220 Z-0.492 F1500
G1 X25.410 Y18.270 Z-0.469 F1500
G1 X25.370 Y18.315 Z-0.431 F1500
G1 X25.337 Y18.353 Z-0.380 F1500
G1 X25.311 Y18.381 Z-0.320 F1500
G1 X25.296 Y18.399 Z-0.253 F1500
G1 X25.291 Y18.405 Z-0.183 F1500
G1 X25.291 Y18.405 Z2.000 F200
G1 X24.816 Y17.983 Z2.000 F200
G1 X24.816 Y17.983 Z1.000 F200
G1 X24.816 Y17.983 Z0.135 F200
G1 X24.816 Y17.983 Z-0.283 F200
G1 X24.821 Y17.977 Z-0.353 F200
G1 X24.837 Y17.959 Z-0.420 F200
G1 X24.862 Y17.931 Z-0.480 F200
G1 X24.895 Y17.893 Z-0.531 F200
G1 X24.935 Y17.848 Z-0.569 F200
G1 X24.980 Y17.798 Z-0.592 F200
G1 X25.027 Y17.745 Z-0.600 F200
G1 X25.238 Y17.508 Z-0.600 F200
G1 X25.290 Y17.461 Z-0.600 F200
G1 X25.353 Y17.426 Z-0.600 F200
G1 X25.421 Y17.406 Z-0.600 F200
G1 X25.492 Y17.402 Z-0.600 F200
G1 X25.562 Y17.414 Z-0.600 F200
G1 X25.628 Y17.441 Z-0.600 F200
G1 X25.686 Y17.482 Z-0.600 F200
G1 X25.838 Y17.606 Z-0.600 F200
G1 X25.999 Y17.718 Z-0.600 F200
G1 X26.169 Y17.816 Z-0.600 F200
G1 X26.347 Y17.900 Z-0.600 F200
G1 X26.530 Y17.970 Z-0.600 F200
G1 X26.719 Y18.025 Z-0.600 F200
G1 X26.911 Y18.064 Z-0.600 F200
G1 X27.106 Y18.088 Z-0.600 F200
G1 X27.302 Y18.096 Z-0.600 F200
G1 X36.191 Y18.096 Z-0.600 F200
G1 X36.382 Y18.088 Z-0.600 F200
G1 X36.572 Y18.066 Z-0.600 F200
G1 X36.760 Y18.029 Z-0.600 F200
G1 X36.944 Y17.977 Z-0.600 F200
G1 X37.123 Y17.911 Z-0.600 F200
G1 X37.296 Y17.831 Z-0.600 F200
G1 X37.463 Y17.737 Z-0.600 F200
G1 X37.622 Y17.631 Z-0.600 F200
G1 X37.772 Y17.513 Z-0.600 F200
G1 X37.913 Y17.383 Z-0.600 F200
G1 X38.042 Y17.243 Z-0.600 F200
G1 X38.161 Y17.093 Z-0.600 F200
G1 X38.267 Y16.934 Z-0.600 F200
G1 X38.360 Y16.767 Z-0.600 F200
G1 X38.440 Y16.593 Z-0.600 F200
G1 X38.506 Y16.414 Z-0.600 F200
G1 X38.558 Y16.230 Z-0.600 F200
G1 X38.596 Y16.043 Z-0.600 F200
G1 X38.618 Y15.853 Z-0.600 F200
G1 X38.625 Y15.662 Z-0.600 F200
G1 X38.625 Y0.847 Z-0.600 F200
G1 X38.618 Y0.656 Z-0.600 F200
G1 X38.596 Y0.466 Z-0.600 F200
G1 X38.558 Y0.278 Z-0.600 F200
G1 X38.506 Y0.094 Z-0.600 F200
G1 X38.440 Y-0.085 Z-0.600 F200
G1 X38.360 Y-0.258 Z-0.600 F200
G1 X38.267 Y-0.425 Z-0.600 F200
G1 X38.161 Y-0.584 Z-0.600 F200
G1 X38.042 Y-0.734 Z-0.600 F200
G1 X37.913 Y-0.875 Z-0.600 F200
G1 X37.772 Y-1.004 Z-0.600 F200
G1 X37.622 Y-1.123 Z-0.600 F200
G1 X37.463 Y-1.229 Z-0.600 F200
G1 X37.296 Y-1.322 Z-0.600 F200
G1 X37.123 Y-1.402 Z-0.600 F200
G1 X36.944 Y-1.468 Z-0.600 F200
G1 X36.760 Y-1.520 Z-0.600 F200
G1 X36.572 Y-1.558 Z-0.600 F200
G1 X36.382 Y-1.580 Z-0.600 F200
G1 X36.191 Y-1.587 Z-0.600 F200
G1 X0.847 Y-1.587 Z-0.600 F200
G1 X0.656 Y-1.580 Z-0.600 F200
G1 X0.466 Y-1.558 Z-0.600 F200
G1 X0.278 Y-1.520 Z-0.600 F200
G1 X0.094 Y-1.468 Z-0.600 F200
G1 X-0.085 Y-1.402 Z-0.600 F200
G1 X-0.258 Y-1.322 Z-0.600 F200
G1 X-0.425 Y-1.229 Z-0.600 F200
G1 X-0.584 Y-1.123 Z-0.600 F200
G1 X-0.734 Y-1.004 Z-0.600 F200
G1 X-0.875 Y-0.875 Z-0.600 F200
G1 X-1.004 Y-0.734 Z-0.600 F200
G1 X-1.123 Y-0.584 Z-0.600 F200
G1 X-1.229 Y-0.425 Z-0.600 F200
G1 X-1.322 Y-0.258 Z-0.600 F200
G1 X-1.402 Y-0.085 Z-0.600 F200
G1 X-1.468 Y0.094 Z-0.600 F200
G1 X-1.520 Y0.278 Z-0.600 F200
G1 X-1.558 Y0.466 Z-0.600 F200
G1 X-1.580 Y0.656 Z-0.600 F200
G1 X-1.587 Y0.847 Z-0.600 F200
G1 X-1.587 Y5.503 Z-0.600 F200
G1 X-1.580 Y5.694 Z-0.600 F200
G1 X-1.558 Y5.884 Z-0.600 F200
G1 X-1.520 Y6.071 Z-0.600 F200
G1 X-1.468 Y6.255 Z-0.600 F200
G1 X-1.402 Y6.434 Z-0.600 F200
G1 X-1.322 Y6.608 Z-0.600 F200
G1 X-1.229 Y6.775 Z-0.600 F200
G1 X-1.123 Y6.933 Z-0.600 F200
G1 X-1.004 Y7.084 Z-0.600 F200
G1 X-0.875 Y7.224 Z-0.600 F200
G1 X-0.734 Y7.354 Z-0.600 F200
G1 X-0.584 Y7.472 Z-0.600 F200
G1 X-0.425 Y7.578 Z-0.600 F200
G1 X-0.258 Y7.672 Z-0.600 F200
G1 X-0.085 Y7.752 Z-0.600 F200
G1 X0.094 Y7.818 Z-0.600 F200
G1 X0.278 Y7.870 Z-0.600 F200
G1 X0.466 Y7.907 Z-0.600 F200
G1 X0.656 Y7.929 Z-0.600 F200
G1 X0.847 Y7.937 Z-0.600 F200
G1 X18.823 Y7.937 Z-0.600 F200
G1 X18.975 Y7.944 Z-0.600 F200
G1 X19.126 Y7.966 Z-0.600 F200
G1 X19.274 Y8.002 Z-0.600 F200
G1 X19.418 Y8.053 Z-0.600 F200
G1 X19.556 Y8.116 Z-0.600 F200
G1 X19.688 Y8.193 Z-0.600 F200
G1 X19.811 Y8.282 Z-0.600 F200
G1 X19.926 Y8.383 Z-0.600 F200
G1 X24.384 Y12.693 Z-0.600 F200
G1 X24.493 Y12.809 Z-0.600 F200
G1 X24.589 Y12.935 Z-0.600 F200
G1 X24.673 Y13.071 Z-0.600 F200
G1 X24.742 Y13.214 Z-0.600 F200
G1 X24.797 Y13.363 Z-0.600 F200
G1 X24.836 Y13.517 Z-0.600 F200
G1 X24.860 Y13.675 Z-0.600 F200
G1 X24.868 Y13.834 Z-0.600 F200
G1 X24.868 Y15.662 Z-0.600 F200
G1 X24.875 Y15.848 Z-0.600 F200
G1 X24.897 Y16.034 Z-0.600 F200
G1 X24.932 Y16.217 Z-0.600 F200
G1 X24.982 Y16.398 Z-0.600 F200
G1 X25.045 Y16.573 Z-0.600 F200
G1 X25.122 Y16.744 Z-0.600 F200
G1 X25.211 Y16.908 Z-0.600 F200
G1 X25.313 Y17.064 Z-0.600 F200
G1 X25.426 Y17.213 Z-0.600 F200
G1 X25.551 Y17.352 Z-0.600 F200
G1 X25.686 Y17.482 Z-0.600 F200
G1 X25.733 Y17.534 Z-0.600 F1500
G1 X25.768 Y17.597 Z-0.600 F1500
G1 X25.788 Y17.665 Z-0.600 F1500
G1 X25.792 Y17.736 Z-0.600 F1500
G1 X25.780 Y17.806 Z-0.600 F1500
G1 X25.753 Y17.872 Z-0.600 F1500
G1 X25.712 Y17.930 Z-0.600 F1500
G1 X25.501 Y18.167 Z-0.600 F1500
G1 X25.455 Y18.220 Z-0.592 F1500
G1 X25.410 Y18.270 Z-0.569 F1500
G1 X25.370 Y18.315 Z-0.531 F1500
G1 X25.337 Y18.353 Z-0.480 F1500
G1 X25.311 Y18.381 Z-0.420 F1500
G1 X25.296 Y18.399 Z-0.353 F1500
G1 X25.291 Y18.405 Z-0.283 F1500
G1 X25.291 Y18.405 Z2.000 F200
G1 X24.816 Y17.983 Z2.000 F200
G1 X24.816 Y17.983 Z1.000 F200
G1 X24.816 Y17.983 Z0.035 F200
G1 X24.816 Y17.983 Z-0.383 F200
G1 X24.821 Y17.977 Z-0.453 F200
G1 X24.837 Y17.959 Z-0.520 F200
G1 X24.862 Y17.931 Z-0.580 F200
G1 X24.895 Y17.893 Z-0.631 F200
G1 X24.935 Y17.848 Z-0.669 F200
G1 X24.980 Y17.798 Z-0.692 F200
G1 X25.027 Y17.745 Z-0.700 F200
G1 X25.238 Y17.508 Z-0.700 F200
G1 X25.290 Y17.461 Z-0.700 F200
G1 X25.353 Y17.426 Z-0.700 F200
G1 X25.421 Y17.406 Z-0.700 F200
G1 X25.492 Y17.402 Z-0.700 F200
G1 X25.562 Y17.414 Z-0.700 F200
G1 X25.628 Y17.441 Z-0.700 F200
G1 X25.686 Y17.482 Z-0.700 F200
G1 X25.838 Y17.606 Z-0.700 F200
G1 X25.999 Y17.718 Z-0.700 F200
G1 X26.169 Y17.816 Z-0.700 F200
G1 X26.347 Y17.900 Z-0.700 F200
G1 X26.530 Y17.970 Z-0.700 F200
G1 X26.719 Y18.025 Z-0.700 F200
G1 X26.911 Y18.064 Z-0.700 F200
G1 X27.106 Y18.088 Z-0.700 F200
G1 X27.302 Y18.096 Z-0.700 F200
G1 X36.191 Y18.096 Z-0.700 F200
G1 X36.382 Y18.088 Z-0.700 F200
G1 X36.572 Y18.066 Z-0.700 F200
G1 X36.760 Y18.029 Z-0.700 F200
G1 X36.944 Y17.977 Z-0.700 F200
G1 X37.123 Y17.911 Z-0.700 F200
G1 X37.296 Y17.831 Z-0.700 F200
G1 X37.463 Y17.737 Z-0.700 F200
G1 X37.622 Y17.631 Z-0.700 F200
G1 X37.772 Y17.513 Z-0.700 F200
G1 X37.913 Y17.383 Z-0.700 F200
G1 X38.042 Y17.243 Z-0.700 F200
G1 X38.161 Y17.093 Z-0.700 F200
G1 X38.267 Y16.934 Z-0.700 F200
G1 X38.360 Y16.767 Z-0.700 F200
G1 X38.440 Y16.593 Z-0.700 F200
G1 X38.506 Y16.414 Z-0.700 F200
G1 X38.558 Y16.230 Z-0.700 F200
G1 X38.596 Y16.043 Z-0.700 F200
G1 X38.618 Y15.853 Z-0.700 F200
G1 X38.625 Y15.662 Z-0.700 F200
G1 X38.625 Y0.847 Z-0.700 F200
G1 X38.618 Y0.656 Z-0.700 F200
G1 X38.596 Y0.466 Z-0.700 F200
G1 X38.558 Y0.278 Z-0.700 F200
G1 X38.506 Y0.094 Z-0.700 F200
G1 X38.440 Y-0.085 Z-0.700 F200
G1 X38.360 Y-0.258 Z-0.700 F200
G1 X38.267 Y-0.425 Z-0.700 F200
G1 X38.161 Y-0.584 Z-0.700 F200
G1 X38.042 Y-0.734 Z-0.700 F200
G1 X37.913 Y-0.875 Z-0.700 F200
G1 X37.772 Y-1.004 Z-0.700 F200
G1 X37.622 Y-1.123 Z-0.700 F200
G1 X37.463 Y-1.229 Z-0.700 F200
G1 X37.296 Y-1.322 Z-0.700 F200
G1 X37.123 Y-1.402 Z-0.700 F200
G1 X36.944 Y-1.468 Z-0.700 F200
G1 X36.760 Y-1.520 Z-0.700 F200
G1 X36.572 Y-1.558 Z-0.700 F200
G1 X36.382 Y-1.580 Z-0.700 F200
G1 X36.191 Y-1.587 Z-0.700 F200
G1 X0.847 Y-1.587 Z-0.700 F200
G1 X0.656 Y-1.580 Z-0.700 F200
G1 X0.466 Y-1.558 Z-0.700 F200
G1 X0.278 Y-1.520 Z-0.700 F200
G1 X0.094 Y-1.468 Z-0.700 F200
G1 X-0.085 Y-1.402 Z-0.700 F200
G1 X-0.258 Y-1.322 Z-0.700 F200
G1 X-0.425 Y-1.229 Z-0.700 F200
G1 X-0.584 Y-1.123 Z-0.700 F200
G1 X-0.734 Y-1.004 Z-0.700 F200
G1 X-0.875 Y-0.875 Z-0.700 F200
G1 X-1.004 Y-0.734 Z-0.700 F200
G1 X-1.123 Y-0.584 Z-0.700 F200
G1 X-1.229 Y-0.425 Z-0.700 F200
G1 X-1.322 Y-0.258 Z-0.700 F200
G1 X-1.402 Y-0.085 Z-0.700 F200
G1 X-1.468 Y0.094 Z-0.700 F200
G1 X-1.520 Y0.278 Z-0.700 F200
G1 X-1.558 Y0.466 Z-0.700 F200
G1 X-1.580 Y0.656 Z-0.700 F200
G1 X-1.587 Y0.847 Z-0.700 F200
G1 X-1.587 Y5.503 Z-0.700 F200
G1 X-1.580 Y5.694 Z-0.700 F200
G1 X-1.558 Y5.884 Z-0.700 F200
G1 X-1.520 Y6.071 Z-0.700 F200
G1 X-1.468 Y6.255 Z-0.700 F200
G1 X-1.402 Y6.434 Z-0.700 F200
G1 X-1.322 Y6.608 Z-0.700 F200
G1 X-1.229 Y6.775 Z-0.700 F200
G1 X-1.123 Y6.933 Z-0.700 F200
G1 X-1.004 Y7.084 Z-0.700 F200
G1 X-0.875 Y7.224 Z-0.700 F200
G1 X-0.734 Y7.354 Z-0.700 F200
G1 X-0.584 Y7.472 Z-0.700 F200
G1 X-0.425 Y7.578 Z-0.700 F200
G1 X-0.258 Y7.672 Z-0.700 F200
G1 X-0.085 Y7.752 Z-0.700 F200
G1 X0.094 Y7.818 Z-0.700 F200
G1 X0.278 Y7.870 Z-0.700 F200
G1 X0.466 Y7.907 Z-0.700 F200
G1 X0.656 Y7.929 Z-0.700 F200
G1 X0.847 Y7.937 Z-0.700 F200
G1 X18.823 Y7.937 Z-0.700 F200
G1 X18.975 Y7.944 Z-0.700 F200
G1 X19.126 Y7.966 Z-0.700 F200
G1 X19.274 Y8.002 Z-0.700 F200
G1 X19.418 Y8.053 Z-0.700 F200
G1 X19.556 Y8.116 Z-0.700 F200
G1 X19.688 Y8.193 Z-0.700 F200
G1 X19.811 Y8.282 Z-0.700 F200
G1 X19.926 Y8.383 Z-0.700 F200
G1 X24.384 Y12.693 Z-0.700 F200
G1 X24.493 Y12.809 Z-0.700 F200
G1 X24.589 Y12.935 Z-0.700 F200
G1 X24.673 Y13.071 Z-0.700 F200
G1 X24.742 Y13.214 Z-0.700 F200
G1 X24.797 Y13.363 Z-0.700 F200
G1 X24.836 Y13.517 Z-0.700 F200
G1 X24.860 Y13.675 Z-0.700 F200
G1 X24.868 Y13.834 Z-0.700 F200
G1 X24.868 Y15.662 Z-0.700 F200
G1 X24.875 Y15.848 Z-0.700 F200
G1 X24.897 Y16.034 Z-0.700 F200
G1 X24.932 Y16.217 Z-0.700 F200
G1 X24.982 Y16.398 Z-0.700 F200
G1 X25.045 Y16.573 Z-0.700 F200
G1 X25.122 Y16.744 Z-0.700 F200
G1 X25.211 Y16.908 Z-0.700 F200
G1 X25.313 Y17.064 Z-0.700 F200
G1 X25.426 Y17.213 Z-0.700 F200
G1 X25.551 Y17.352 Z-0.700 F200
G1 X25.686 Y17.482 Z-0.700 F200
G1 X25.733 Y17.534 Z-0.700 F1500
G1 X25.768 Y17.597 Z-0.700 F1500
G1 X25.788 Y17.665 Z-0.700 F1500
G1 X25.792 Y17.736 Z-0.700 F1500
G1 X25.780 Y17.806 Z-0.700 F1500
G1 X25.753 Y17.872 Z-0.700 F1500
G1 X25.712 Y17.930 Z-0.700 F1500
G1 X25.501 Y18.167 Z-0.700 F1500
G1 X25.455 Y18.220 Z-0.692 F1500
G1 X25.410 Y18.270 Z-0.669 F1500
G1 X25.370 Y18.315 Z-0.631 F1500
G1 X25.337 Y18.353 Z-0.580 F1500
G1 X25.311 Y18.381 Z-0.520 F1500
G1 X25.296 Y18.399 Z-0.453 F1500
G1 X25.291 Y18.405 Z-0.383 F1500
G1 X25.291 Y18.405 Z2.000 F200
G1 X24.816 Y17.983 Z2.000 F200
G1 X24.816 Y17.983 Z1.000 F200
G1 X24.816 Y17.983 Z-0.065 F200
G1 X24.816 Y17.983 Z-0.483 F200
G1 X24.821 Y17.977 Z-0.553 F200
G1 X24.837 Y17.959 Z-0.620 F200
G1 X24.862 Y17.931 Z-0.680 F200
G1 X24.895 Y17.893 Z-0.731 F200
G1 X24.935 Y17.848 Z-0.769 F200
G1 X24.980 Y17.798 Z-0.792 F200
G1 X25.027 Y17.745 Z-0.800 F200
G1 X25.238 Y17.508 Z-0.800 F200
G1 X25.290 Y17.461 Z-0.800 F200
G1 X25.353 Y17.426 Z-0.800 F200
G1 X25.421 Y17.406 Z-0.800 F200
G1 X25.492 Y17.402 Z-0.800 F200
G1 X25.562 Y17.414 Z-0.800 F200
G1 X25.628 Y17.441 Z-0.800 F200
G1 X25.686 Y17.482 Z-0.800 F200
G1 X25.838 Y17.606 Z-0.800 F200
G1 X25.999 Y17.718 Z-0.800 F200
G1 X26.169 Y17.816 Z-0.800 F200
G1 X26.347 Y17.900 Z-0.800 F200
G1 X26.530 Y17.970 Z-0.800 F200
G1 X26.719 Y18.025 Z-0.800 F200
G1 X26.911 Y18.064 Z-0.800 F200
G1 X27.106 Y18.088 Z-0.800 F200
G1 X27.302 Y18.096 Z-0.800 F200
G1 X36.191 Y18.096 Z-0.800 F200
G1 X36.382 Y18.088 Z-0.800 F200
G1 X36.572 Y18.066 Z-0.800 F200
G1 X36.760 Y18.029 Z-0.800 F200
G1 X36.944 Y17.977 Z-0.800 F200
G1 X37.123 Y17.911 Z-0.800 F200
G1 X37.296 Y17.831 Z-0.800 F200
G1 X37.463 Y17.737 Z-0.800 F200
G1 X37.622 Y17.631 Z-0.800 F200
G1 X37.772 Y17.513 Z-0.800 F200
G1 X37.913 Y17.383 Z-0.800 F200
G1 X38.042 Y17.243 Z-0.800 F200
G1 X38.161 Y17.093 Z-0.800 F200
G1 X38.267 Y16.934 Z-0.800 F200
G1 X38.360 Y16.767 Z-0.800 F200
G1 X38.440 Y16.593 Z-0.800 F200
G1 X38.506 Y16.414 Z-0.800 F200
G1 X38.558 Y16.230 Z-0.800 F200
G1 X38.596 Y16.043 Z-0.800 F200
G1 X38.618 Y15.853 Z-0.800 F200
G1 X38.625 Y15.662 Z-0.800 F200
G1 X38.625 Y0.847 Z-0.800 F200
G1 X38.618 Y0.656 Z-0.800 F200
G1 X38.596 Y0.466 Z-0.800 F200
G1 X38.558 Y0.278 Z-0.800 F200
G1 X38.506 Y0.094 Z-0.800 F200
G1 X38.440 Y-0.085 Z-0.800 F200
G1 X38.360 Y-0.258 Z-0.800 F200
G1 X38.267 Y-0.425 Z-0.800 F200
G1 X38.161 Y-0.584 Z-0.800 F200
G1 X38.042 Y-0.734 Z-0.800 F200
G1 X37.913 Y-0.875 Z-0.800 F200
G1 X37.772 Y-1.004 Z-0.800 F200
G1 X37.622 Y-1.123 Z-0.800 F200
G1 X37.463 Y-1.229 Z-0.800 F200
G1 X37.296 Y-1.322 Z-0.800 F200
G1 X37.123 Y-1.402 Z-0.800 F200
G1 X36.944 Y-1.468 Z-0.800 F200
G1 X36.760 Y-1.520 Z-0.800 F200
G1 X36.572 Y-1.558 Z-0.800 F200
G1 X36.382 Y-1.580 Z-0.800 F200
G1 X36.191 Y-1.587 Z-0.800 F200
G1 X0.847 Y-1.587 Z-0.800 F200
G1 X0.656 Y-1.580 Z-0.800 F200
G1 X0.466 Y-1.558 Z-0.800 F200
G1 X0.278 Y-1.520 Z-0.800 F200
G1 X0.094 Y-1.468 Z-0.800 F200
G1 X-0.085 Y-1.402 Z-0.800 F200
G1 X-0.258 Y-1.322 Z-0.800 F200
G1 X-0.425 Y-1.229 Z-0.800 F200
G1 X-0.584 Y-1.123 Z-0.800 F200
G1 X-0.734 Y-1.004 Z-0.800 F200
G1 X-0.875 Y-0.875 Z-0.800 F200
G1 X-1.004 Y-0.734 Z-0.800 F200
G1 X-1.123 Y-0.584 Z-0.800 F200
G1 X-1.229 Y-0.425 Z-0.800 F200
G1 X-1.322 Y-0.258 Z-0.800 F200
G1 X-1.402 Y-0.085 Z-0.800 F200
G1 X-1.468 Y0.094 Z-0.800 F200
G1 X-1.520 Y0.278 Z-0.800 F200
G1 X-1.558 Y0.466 Z-0.800 F200
G1 X-1.580 Y0.656 Z-0.800 F200
G1 X-1.587 Y0.847 Z-0.800 F200
G1 X-1.587 Y5.503 Z-0.800 F200
G1 X-1.580 Y5.694 Z-0.800 F200
G1 X-1.558 Y5.884 Z-0.800 F200
G1 X-1.520 Y6.071 Z-0.800 F200
G1 X-1.468 Y6.255 Z-0.800 F200
G1 X-1.402 Y6.434 Z-0.800 F200
G1 X-1.322 Y6.608 Z-0.800 F200
G1 X-1.229 Y6.775 Z-0.800 F200
G1 X-1.123 Y6.933 Z-0.800 F200
G1 X-1.004 Y7.084 Z-0.800 F200
G1 X-0.875 Y7.224 Z-0.800 F200
G1 X-0.734 Y7.354 Z-0.800 F200
G1 X-0.584 Y7.472 Z-0.800 F200
G1 X-0.425 Y7.578 Z-0.800 F200
G1 X-0.258 Y7.672 Z-0.800 F200
G1 X-0.085 Y7.752 Z-0.800 F200
G1 X0.094 Y7.818 Z-0.800 F200
G1 X0.278 Y7.870 Z-0.800 F200
G1 X0.466 Y7.907 Z-0.800 F200
G1 X0.656 Y7.929 Z-0.800 F200
G1 X0.847 Y7.937 Z-0.800 F200
G1 X18.823 Y7.937 Z-0.800 F200
G1 X18.975 Y7.944 Z-0.800 F200
G1 X19.126 Y7.966 Z-0.800 F200
G1 X19.274 Y8.002 Z-0.800 F200
G1 X19.418 Y8.053 Z-0.800 F200
G1 X19.556 Y8.116 Z-0.800 F200
G1 X19.688 Y8.193 Z-0.800 F200
G1 X19.811 Y8.282 Z-0.800 F200
G1 X19.926 Y8.383 Z-0.800 F200
G1 X24.384 Y12.693 Z-0.800 F200
G1 X24.493 Y12.809 Z-0.800 F200
G1 X24.589 Y12.935 Z-0.800 F200
G1 X24.673 Y13.071 Z-0.800 F200
G1 X24.742 Y13.214 Z-0.800 F200
G1 X24.797 Y13.363 Z-0.800 F200
G1 X24.836 Y13.517 Z-0.800 F200
G1 X24.860 Y13.675 Z-0.800 F200
G1 X24.868 Y13.834 Z-0.800 F200
G1 X24.868 Y15.662 Z-0.800 F200
G1 X24.875 Y15.848 Z-0.800 F200
G1 X24.897 Y16.034 Z-0.800 F200
G1 X24.932 Y16.217 Z-0.800 F200
G1 X24.982 Y16.398 Z-0.800 F200
G1 X25.045 Y16.573 Z-0.800 F200
G1 X25.122 Y16.744 Z-0.800 F200
G1 X25.211 Y16.908 Z-0.800 F200
G1 X25.313 Y17.064 Z-0.800 F200
G1 X25.426 Y17.213 Z-0.800 F200
G1 X25.551 Y17.352 Z-0.800 F200
G1 X25.686 Y17.482 Z-0.800 F200
G1 X25.733 Y17.534 Z-0.800 F1500
G1 X25.768 Y17.597 Z-0.800 F1500
G1 X25.788 Y17.665 Z-0.800 F1500
G1 X25.792 Y17.736 Z-0.800 F1500
G1 X25.780 Y17.806 Z-0.800 F1500
G1 X25.753 Y17.872 Z-0.800 F1500
G1 X25.712 Y17.930 Z-0.800 F1500
G1 X25.501 Y18.167 Z-0.800 F1500
G1 X25.455 Y18.220 Z-0.792 F1500
G1 X25.410 Y18.270 Z-0.769 F1500
G1 X25.370 Y18.315 Z-0.731 F1500
G1 X25.337 Y18.353 Z-0.680 F1500
G1 X25.311 Y18.381 Z-0.620 F1500
G1 X25.296 Y18.399 Z-0.553 F1500
G1 X25.291 Y18.405 Z-0.483 F1500
G1 X25.291 Y18.405 Z2.000 F200
G1 X24.816 Y17.983 Z2.000 F200
G1 X24.816 Y17.983 Z1.000 F200
G1 X24.816 Y17.983 Z-0.165 F200
G1 X24.816 Y17.983 Z-0.583 F200
G1 X24.821 Y17.977 Z-0.653 F200
G1 X24.837 Y17.959 Z-0.720 F200
G1 X24.862 Y17.931 Z-0.780 F200
G1 X24.895 Y17.893 Z-0.831 F200
G1 X24.935 Y17.848 Z-0.869 F200
G1 X24.980 Y17.798 Z-0.892 F200
G1 X25.027 Y17.745 Z-0.900 F200
G1 X25.238 Y17.508 Z-0.900 F200
G1 X25.290 Y17.461 Z-0.900 F200
G1 X25.353 Y17.426 Z-0.900 F200
G1 X25.421 Y17.406 Z-0.900 F200
G1 X25.492 Y17.402 Z-0.900 F200
G1 X25.562 Y17.414 Z-0.900 F200
G1 X25.628 Y17.441 Z-0.900 F200
G1 X25.686 Y17.482 Z-0.900 F200
G1 X25.838 Y17.606 Z-0.900 F200
G1 X25.999 Y17.718 Z-0.900 F200
G1 X26.169 Y17.816 Z-0.900 F200
G1 X26.347 Y17.900 Z-0.900 F200
G1 X26.530 Y17.970 Z-0.900 F200
G1 X26.719 Y18.025 Z-0.900 F200
G1 X26.911 Y18.064 Z-0.900 F200
G1 X27.106 Y18.088 Z-0.900 F200
G1 X27.302 Y18.096 Z-0.900 F200
G1 X36.191 Y18.096 Z-0.900 F200
G1 X36.382 Y18.088 Z-0.900 F200
G1 X36.572 Y18.066 Z-0.900 F200
G1 X36.760 Y18.029 Z-0.900 F200
G1 X36.944 Y17.977 Z-0.900 F200
G1 X37.123 Y17.911 Z-0.900 F200
G1 X37.296 Y17.831 Z-0.900 F200
G1 X37.463 Y17.737 Z-0.900 F200
G1 X37.622 Y17.631 Z-0.900 F200
G1 X37.772 Y17.513 Z-0.900 F200
G1 X37.913 Y17.383 Z-0.900 F200
G1 X38.042 Y17.243 Z-0.900 F200
G1 X38.161 Y17.093 Z-0.900 F200
G1 X38.267 Y16.934 Z-0.900 F200
G1 X38.360 Y16.767 Z-0.900 F200
G1 X38.440 Y16.593 Z-0.900 F200
G1 X38.506 Y16.414 Z-0.900 F200
G1 X38.558 Y16.230 Z-0.900 F200
G1 X38.596 Y16.043 Z-0.900 F200
G1 X38.618 Y15.853 Z-0.900 F200
G1 X38.625 Y15.662 Z-0.900 F200
G1 X38.625 Y0.847 Z-0.900 F200
G1 X38.618 Y0.656 Z-0.900 F200
G1 X38.596 Y0.466 Z-0.900 F200
G1 X38.558 Y0.278 Z-0.900 F200
G1 X38.506 Y0.094 Z-0.900 F200
G1 X38.440 Y-0.085 Z-0.900 F200
G1 X38.360 Y-0.258 Z-0.900 F200
G1 X38.267 Y-0.425 Z-0.900 F200
G1 X38.161 Y-0.584 Z-0.900 F200
G1 X38.042 Y-0.734 Z-0.900 F200
G1 X37.913 Y-0.875 Z-0.900 F200
G1 X37.772 Y-1.004 Z-0.900 F200
G1 X37.622 Y-1.123 Z-0.900 F200
G1 X37.463 Y-1.229 Z-0.900 F200
G1 X37.296 Y-1.322 Z-0.900 F200
G1 X37.123 Y-1.402 Z-0.900 F200
G1 X36.944 Y-1.468 Z-0.900 F200
G1 X36.760 Y-1.520 Z-0.900 F200
G1 X36.572 Y-1.558 Z-0.900 F200
G1 X36.382 Y-1.580 Z-0.900 F200
G1 X36.191 Y-1.587 Z-0.900 F200
G1 X0.847 Y-1.587 Z-0.900 F200
G1 X0.656 Y-1.580 Z-0.900 F200
G1 X0.466 Y-1.558 Z-0.900 F200
G1 X0.278 Y-1.520 Z-0.900 F200
G1 X0.094 Y-1.468 Z-0.900 F200
G1 X-0.085 Y-1.402 Z-0.900 F200
G1 X-0.258 Y-1.322 Z-0.900 F200
G1 X-0.425 Y-1.229 Z-0.900 F200
G1 X-0.584 Y-1.123 Z-0.900 F200
G1 X-0.734 Y-1.004 Z-0.900 F200
G1 X-0.875 Y-0.875 Z-0.900 F200
G1 X-1.004 Y-0.734 Z-0.900 F200
G1 X-1.123 Y-0.584 Z-0.900 F200
G1 X-1.229 Y-0.425 Z-0.900 F200
G1 X-1.322 Y-0.258 Z-0.900 F200
G1 X-1.402 Y-0.085 Z-0.900 F200
G1 X-1.468 Y0.094 Z-0.900 F200
G1 X-1.520 Y0.278 Z-0.900 F200
G1 X-1.558 Y0.466 Z-0.900 F200
G1 X-1.580 Y0.656 Z-0.900 F200
G1 X-1.587 Y0.847 Z-0.900 F200
G1 X-1.587 Y5.503 Z-0.900 F200
G1 X-1.580 Y5.694 Z-0.900 F200
G1 X-1.558 Y5.884 Z-0.900 F200
G1 X-1.520 Y6.071 Z-0.900 F200
G1 X-1.468 Y6.255 Z-0.900 F200
G1 X-1.402 Y6.434 Z-0.900 F200
G1 X-1.322 Y6.608 Z-0.900 F200
G1 X-1.229 Y6.775 Z-0.900 F200
G1 X-1.123 Y6.933 Z-0.900 F200
G1 X-1.004 Y7.084 Z-0.900 F200
G1 X-0.875 Y7.224 Z-0.900 F200
G1 X-0.734 Y7.354 Z-0.900 F200
G1 X-0.584 Y7.472 Z-0.900 F200
G1 X-0.425 Y7.578 Z-0.900 F200
G1 X-0.258 Y7.672 Z-0.900 F200
G1 X-0.085 Y7.752 Z-0.900 F200
G1 X0.094 Y7.818 Z-0.900 F200
G1 X0.278 Y7.870 Z-0.900 F200
G1 X0.466 Y7.907 Z-0.900 F200
G1 X0.656 Y7.929 Z-0.900 F200
G1 X0.847 Y7.937 Z-0.900 F200
G1 X18.823 Y7.937 Z-0.900 F200
G1 X18.975 Y7.944 Z-0.900 F200
G1 X19.126 Y7.966 Z-0.900 F200
G1 X19.274 Y8.002 Z-0.900 F200
G1 X19.418 Y8.053 Z-0.900 F200
G1 X19.556 Y8.116 Z-0.900 F200
G1 X19.688 Y8.193 Z-0.900 F200
G1 X19.811 Y8.282 Z-0.900 F200
G1 X19.926 Y8.383 Z-0.900 F200
G1 X24.384 Y12.693 Z-0.900 F200
G1 X24.493 Y12.809 Z-0.900 F200
G1 X24.589 Y12.935 Z-0.900 F200
G1 X24.673 Y13.071 Z-0.900 F200
G1 X24.742 Y13.214 Z-0.900 F200
G1 X24.797 Y13.363 Z-0.900 F200
G1 X24.836 Y13.517 Z-0.900 F200
G1 X24.860 Y13.675 Z-0.900 F200
G1 X24.868 Y13.834 Z-0.900 F200
G1 X24.868 Y15.662 Z-0.900 F200
G1 X24.875 Y15.848 Z-0.900 F200
G1 X24.897 Y16.034 Z-0.900 F200
G1 X24.932 Y16.217 Z-0.900 F200
G1 X24.982 Y16.398 Z-0.900 F200
G1 X25.045 Y16.573 Z-0.900 F200
G1 X25.122 Y16.744 Z-0.900 F200
G1 X25.211 Y16.908 Z-0.900 F200
G1 X25.313 Y17.064 Z-0.900 F200
G1 X25.426 Y17.213 Z-0.900 F200
G1 X25.551 Y17.352 Z-0.900 F200
G1 X25.686 Y17.482 Z-0.900 F200
G1 X25.733 Y17.534 Z-0.900 F1500
G1 X25.768 Y17.597 Z-0.900 F1500
G1 X25.788 Y17.665 Z-0.900 F1500
G1 X25.792 Y17.736 Z-0.900 F1500
G1 X25.780 Y17.806 Z-0.900 F1500
G1 X25.753 Y17.872 Z-0.900 F1500
G1 X25.712 Y17.930 Z-0.900 F1500
G1 X25.501 Y18.167 Z-0.900 F1500
G1 X25.455 Y18.220 Z-0.892 F1500
G1 X25.410 Y18.270 Z-0.869 F1500
G1 X25.370 Y18.315 Z-0.831 F1500
G1 X25.337 Y18.353 Z-0.780 F1500
G1 X25.311 Y18.381 Z-0.720 F1500
G1 X25.296 Y18.399 Z-0.653 F1500
G1 X25.291 Y18.405 Z-0.583 F1500
G1 X25.291 Y18.405 Z2.000 F200
G1 X24.816 Y17.983 Z2.000 F200
G1 X24.816 Y17.983 Z1.000 F200
G1 X24.816 Y17.983 Z-0.265 F200
G1 X24.816 Y17.983 Z-0.683 F200
G1 X24.821 Y17.977 Z-0.753 F200
G1 X24.837 Y17.959 Z-0.820 F200
G1 X24.862 Y17.931 Z-0.880 F200
G1 X24.895 Y17.893 Z-0.931 F200
G1 X24.935 Y17.848 Z-0.969 F200
G1 X24.980 Y17.798 Z-0.992 F200
G1 X25.027 Y17.745 Z-1.000 F200
G1 X25.238 Y17.508 Z-1.000 F200
G1 X25.290 Y17.461 Z-1.000 F200
G1 X25.353 Y17.426 Z-1.000 F200
G1 X25.421 Y17.406 Z-1.000 F200
G1 X25.492 Y17.402 Z-1.000 F200
G1 X25.562 Y17.414 Z-1.000 F200
G1 X25.628 Y17.441 Z-1.000 F200
G1 X25.686 Y17.482 Z-1.000 F200
G1 X25.838 Y17.606 Z-1.000 F200
G1 X25.999 Y17.718 Z-1.000 F200
G1 X26.169 Y17.816 Z-1.000 F200
G1 X26.347 Y17.900 Z-1.000 F200
G1 X26.530 Y17.970 Z-1.000 F200
G1 X26.719 Y18.025 Z-1.000 F200
G1 X26.911 Y18.064 Z-1.000 F200
G1 X27.106 Y18.088 Z-1.000 F200
G1 X27.302 Y18.096 Z-1.000 F200
G1 X36.191 Y18.096 Z-1.000 F200
G1 X36.382 Y18.088 Z-1.000 F200
G1 X36.572 Y18.066 Z-1.000 F200
G1 X36.760 Y18.029 Z-1.000 F200
G1 X36.944 Y17.977 Z-1.000 F200
G1 X37.123 Y17.911 Z-1.000 F200
G1 X37.296 Y17.831 Z-1.000 F200
G1 X37.463 Y17.737 Z-1.000 F200
G1 X37.622 Y17.631 Z-1.000 F200
G1 X37.772 Y17.513 Z-1.000 F200
G1 X37.913 Y17.383 Z-1.000 F200
G1 X38.042 Y17.243 Z-1.000 F200
G1 X38.161 Y17.093 Z-1.000 F200
G1 X38.267 Y16.934 Z-1.000 F200
G1 X38.360 Y16.767 Z-1.000 F200
G1 X38.440 Y16.593 Z-1.000 F200
G1 X38.506 Y16.414 Z-1.000 F200
G1 X38.558 Y16.230 Z-1.000 F200
G1 X38.596 Y16.043 Z-1.000 F200
G1 X38.618 Y15.853 Z-1.000 F200
G1 X38.625 Y15.662 Z-1.000 F200
G1 X38.625 Y0.847 Z-1.000 F200
G1 X38.618 Y0.656 Z-1.000 F200
G1 X38.596 Y0.466 Z-1.000 F200
G1 X38.558 Y0.278 Z-1.000 F200
G1 X38.506 Y0.094 Z-1.000 F200
G1 X38.440 Y-0.085 Z-1.000 F200
G1 X38.360 Y-0.258 Z-1.000 F200
G1 X38.267 Y-0.425 Z-1.000 F200
G1 X38.161 Y-0.584 Z-1.000 F200
G1 X38.042 Y-0.734 Z-1.000 F200
G1 X37.913 Y-0.875 Z-1.000 F200
G1 X37.772 Y-1.004 Z-1.000 F200
G1 X37.622 Y-1.123 Z-1.000 F200
G1 X37.463 Y-1.229 Z-1.000 F200
G1 X37.296 Y-1.322 Z-1.000 F200
G1 X37.123 Y-1.402 Z-1.000 F200
G1 X36.944 Y-1.468 Z-1.000 F200
G1 X36.760 Y-1.520 Z-1.000 F200
G1 X36.572 Y-1.558 Z-1.000 F200
G1 X36.382 Y-1.580 Z-1.000 F200
G1 X36.191 Y-1.587 Z-1.000 F200
G1 X0.847 Y-1.587 Z-1.000 F200
G1 X0.656 Y-1.580 Z-1.000 F200
G1 X0.466 Y-1.558 Z-1.000 F200
G1 X0.278 Y-1.520 Z-1.000 F200
G1 X0.094 Y-1.468 Z-1.000 F200
G1 X-0.085 Y-1.402 Z-1.000 F200
G1 X-0.258 Y-1.322 Z-1.000 F200
G1 X-0.425 Y-1.229 Z-1.000 F200
G1 X-0.584 Y-1.123 Z-1.000 F200
G1 X-0.734 Y-1.004 Z-1.000 F200
G1 X-0.875 Y-0.875 Z-1.000 F200
G1 X-1.004 Y-0.734 Z-1.000 F200
G1 X-1.123 Y-0.584 Z-1.000 F200
G1 X-1.229 Y-0.425 Z-1.000 F200
G1 X-1.322 Y-0.258 Z-1.000 F200
G1 X-1.402 Y-0.085 Z-1.000 F200
G1 X-1.468 Y0.094 Z-1.000 F200
G1 X-1.520 Y0.278 Z-1.000 F200
G1 X-1.558 Y0.466 Z-1.000 F200
G1 X-1.580 Y0.656 Z-1.000 F200
G1 X-1.587 Y0.847 Z-1.000 F200
G1 X-1.587 Y5.503 Z-1.000 F200
G1 X-1.580 Y5.694 Z-1.000 F200
G1 X-1.558 Y5.884 Z-1.000 F200
G1 X-1.520 Y6.071 Z-1.000 F200
G1 X-1.468 Y6.255 Z-1.000 F200
G1 X-1.402 Y6.434 Z-1.000 F200
G1 X-1.322 Y6.608 Z-1.000 F200
G1 X-1.229 Y6.775 Z-1.000 F200
G1 X-1.123 Y6.933 Z-1.000 F200
G1 X-1.004 Y7.084 Z-1.000 F200
G1 X-0.875 Y7.224 Z-1.000 F200
G1 X-0.734 Y7.354 Z-1.000 F200
G1 X-0.584 Y7.472 Z-1.000 F200
G1 X-0.425 Y7.578 Z-1.000 F200
G1 X-0.258 Y7.672 Z-1.000 F200
G1 X-0.085 Y7.752 Z-1.000 F200
G1 X0.094 Y7.818 Z-1.000 F200
G1 X0.278 Y7.870 Z-1.000 F200
G1 X0.466 Y7.907 Z-1.000 F200
G1 X0.656 Y7.929 Z-1.000 F200
G1 X0.847 Y7.937 Z-1.000 F200
G1 X18.823 Y7.937 Z-1.000 F200
G1 X18.975 Y7.944 Z-1.000 F200
G1 X19.126 Y7.966 Z-1.000 F200
G1 X19.274 Y8.002 Z-1.000 F200
G1 X19.418 Y8.053 Z-1.000 F200
G1 X19.556 Y8.116 Z-1.000 F200
G1 X19.688 Y8.193 Z-1.000 F200
G1 X19.811 Y8.282 Z-1.000 F200
G1 X19.926 Y8.383 Z-1.000 F200
G1 X24.384 Y12.693 Z-1.000 F200
G1 X24.493 Y12.809 Z-1.000 F200
G1 X24.589 Y12.935 Z-1.000 F200
G1 X24.673 Y13.071 Z-1.000 F200
G1 X24.742 Y13.214 Z-1.000 F200
G1 X24.797 Y13.363 Z-1.000 F200
G1 X24.836 Y13.517 Z-1.000 F200
G1 X24.860 Y13.675 Z-1.000 F200
G1 X24.868 Y13.834 Z-1.000 F200
G1 X24.868 Y15.662 Z-1.000 F200
G1 X24.875 Y15.848 Z-1.000 F200
G1 X24.897 Y16.034 Z-1.000 F200
G1 X24.932 Y16.217 Z-1.000 F200
G1 X24.982 Y16.398 Z-1.000 F200
G1 X25.045 Y16.573 Z-1.000 F200
G1 X25.122 Y16.744 Z-1.000 F200
G1 X25.211 Y16.908 Z-1.000 F200
G1 X25.313 Y17.064 Z-1.000 F200
G1 X25.426 Y17.213 Z-1.000 F200
G1 X25.551 Y17.352 Z-1.000 F200
G1 X25.686 Y17.482 Z-1.000 F200
G1 X25.733 Y17.534 Z-1.000 F1500
G1 X25.768 Y17.597 Z-1.000 F1500
G1 X25.788 Y17.665 Z-1.000 F1500
G1 X25.792 Y17.736 Z-1.000 F1500
G1 X25.780 Y17.806 Z-1.000 F1500
G1 X25.753 Y17.872 Z-1.000 F1500
G1 X25.712 Y17.930 Z-1.000 F1500
G1 X25.501 Y18.167 Z-1.000 F1500
G1 X25.455 Y18.220 Z-0.992 F1500
G1 X25.410 Y18.270 Z-0.969 F1500
G1 X25.370 Y18.315 Z-0.931 F1500
G1 X25.337 Y18.353 Z-0.880 F1500
G1 X25.311 Y18.381 Z-0.820 F1500
G1 X25.296 Y18.399 Z-0.753 F1500
G1 X25.291 Y18.405 Z-0.683 F1500
G1 X25.291 Y18.405 Z2.000 F200
G1 X24.816 Y17.983 Z2.000 F200
G1 X24.816 Y17.983 Z1.000 F200
G1 X24.816 Y17.983 Z-0.365 F200
G1 X24.816 Y17.983 Z-0.783 F200
G1 X24.821 Y17.977 Z-0.853 F200
G1 X24.837 Y17.959 Z-0.920 F200
G1 X24.862 Y17.931 Z-0.980 F200
G1 X24.895 Y17.893 Z-1.031 F200
G1 X24.935 Y17.848 Z-1.069 F200
G1 X24.980 Y17.798 Z-1.092 F200
G1 X25.027 Y17.745 Z-1.100 F200
G1 X25.238 Y17.508 Z-1.100 F200
G1 X25.290 Y17.461 Z-1.100 F200
G1 X25.353 Y17.426 Z-1.100 F200
G1 X25.421 Y17.406 Z-1.100 F200
G1 X25.492 Y17.402 Z-1.100 F200
G1 X25.562 Y17.414 Z-1.100 F200
G1 X25.628 Y17.441 Z-1.100 F200
G1 X25.686 Y17.482 Z-1.100 F200
G1 X25.838 Y17.606 Z-1.100 F200
G1 X25.999 Y17.718 Z-1.100 F200
G1 X26.169 Y17.816 Z-1.100 F200
G1 X26.347 Y17.900 Z-1.100 F200
G1 X26.530 Y17.970 Z-1.100 F200
G1 X26.719 Y18.025 Z-1.100 F200
G1 X26.911 Y18.064 Z-1.100 F200
G1 X27.106 Y18.088 Z-1.100 F200
G1 X27.302 Y18.096 Z-1.100 F200
G1 X36.191 Y18.096 Z-1.100 F200
G1 X36.382 Y18.088 Z-1.100 F200
G1 X36.572 Y18.066 Z-1.100 F200
G1 X36.760 Y18.029 Z-1.100 F200
G1 X36.944 Y17.977 Z-1.100 F200
G1 X37.123 Y17.911 Z-1.100 F200
G1 X37.296 Y17.831 Z-1.100 F200
G1 X37.463 Y17.737 Z-1.100 F200
G1 X37.622 Y17.631 Z-1.100 F200
G1 X37.772 Y17.513 Z-1.100 F200
G1 X37.913 Y17.383 Z-1.100 F200
G1 X38.042 Y17.243 Z-1.100 F200
G1 X38.161 Y17.093 Z-1.100 F200
G1 X38.267 Y16.934 Z-1.100 F200
G1 X38.360 Y16.767 Z-1.100 F200
G1 X38.440 Y16.593 Z-1.100 F200
G1 X38.506 Y16.414 Z-1.100 F200
G1 X38.558 Y16.230 Z-1.100 F200
G1 X38.596 Y16.043 Z-1.100 F200
G1 X38.618 Y15.853 Z-1.100 F200
G1 X38.625 Y15.662 Z-1.100 F200
G1 X38.625 Y0.847 Z-1.100 F200
G1 X38.618 Y0.656 Z-1.100 F200
G1 X38.596 Y0.466 Z-1.100 F200
G1 X38.558 Y0.278 Z-1.100 F200
G1 X38.506 Y0.094 Z-1.100 F200
G1 X38.440 Y-0.085 Z-1.100 F200
G1 X38.360 Y-0.258 Z-1.100 F200
G1 X38.267 Y-0.425 Z-1.100 F200
G1 X38.161 Y-0.584 Z-1.100 F200
G1 X38.042 Y-0.734 Z-1.100 F200
G1 X37.913 Y-0.875 Z-1.100 F200
G1 X37.772 Y-1.004 Z-1.100 F200
G1 X37.622 Y-1.123 Z-1.100 F200
G1 X37.463 Y-1.229 Z-1.100 F200
G1 X37.296 Y-1.322 Z-1.100 F200
G1 X37.123 Y-1.402 Z-1.100 F200
G1 X36.944 Y-1.468 Z-1.100 F200
G1 X36.760 Y-1.520 Z-1.100 F200
G1 X36.572 Y-1.558 Z-1.100 F200
G1 X36.382 Y-1.580 Z-1.100 F200
G1 X36.191 Y-1.587 Z-1.100 F200
G1 X0.847 Y-1.587 Z-1.100 F200
G1 X0.656 Y-1.580 Z-1.100 F200
G1 X0.466 Y-1.558 Z-1.100 F200
G1 X0.278 Y-1.520 Z-1.100 F200
G1 X0.094 Y-1.468 Z-1.100 F200
G1 X-0.085 Y-1.402 Z-1.100 F200
G1 X-0.258 Y-1.322 Z-1.100 F200
G1 X-0.425 Y-1.229 Z-1.100 F200
G1 X-0.584 Y-1.123 Z-1.100 F200
G1 X-0.734 Y-1.004 Z-1.100 F200
G1 X-0.875 Y-0.875 Z-1.100 F200
G1 X-1.004 Y-0.734 Z-1.100 F200
G1 X-1.123 Y-0.584 Z-1.100 F200
G1 X-1.229 Y-0.425 Z-1.100 F200
G1 X-1.322 Y-0.258 Z-1.100 F200
G1 X-1.402 Y-0.085 Z-1.100 F200
G1 X-1.468 Y0.094 Z-1.100 F200
G1 X-1.520 Y0.278 Z-1.100 F200
G1 X-1.558 Y0.466 Z-1.100 F200
G1 X-1.580 Y0.656 Z-1.100 F200
G1 X-1.587 Y0.847 Z-1.100 F200
G1 X-1.587 Y5.503 Z-1.100 F200
G1 X-1.580 Y5.694 Z-1.100 F200
G1 X-1.558 Y5.884 Z-1.100 F200
G1 X-1.520 Y6.071 Z-1.100 F200
G1 X-1.468 Y6.255 Z-1.100 F200
G1 X-1.402 Y6.434 Z-1.100 F200
G1 X-1.322 Y6.608 Z-1.100 F200
G1 X-1.229 Y6.775 Z-1.100 F200
G1 X-1.123 Y6.933 Z-1.100 F200
G1 X-1.004 Y7.084 Z-1.100 F200
G1 X-0.875 Y7.224 Z-1.100 F200
G1 X-0.734 Y7.354 Z-1.100 F200
G1 X-0.584 Y7.472 Z-1.100 F200
G1 X-0.425 Y7.578 Z-1.100 F200
G1 X-0.258 Y7.672 Z-1.100 F200
G1 X-0.085 Y7.752 Z-1.100 F200
G1 X0.094 Y7.818 Z-1.100 F200
G1 X0.278 Y7.870 Z-1.100 F200
G1 X0.466 Y7.907 Z-1.100 F200
G1 X0.656 Y7.929 Z-1.100 F200
G1 X0.847 Y7.937 Z-1.100 F200
G1 X18.823 Y7.937 Z-1.100 F200
G1 X18.975 Y7.944 Z-1.100 F200
G1 X19.126 Y7.966 Z-1.100 F200
G1 X19.274 Y8.002 Z-1.100 F200
G1 X19.418 Y8.053 Z-1.100 F200
G1 X19.556 Y8.116 Z-1.100 F200
G1 X19.688 Y8.193 Z-1.100 F200
G1 X19.811 Y8.282 Z-1.100 F200
G1 X19.926 Y8.383 Z-1.100 F200
G1 X24.384 Y12.693 Z-1.100 F200
G1 X24.493 Y12.809 Z-1.100 F200
G1 X24.589 Y12.935 Z-1.100 F200
G1 X24.673 Y13.071 Z-1.100 F200
G1 X24.742 Y13.214 Z-1.100 F200
G1 X24.797 Y13.363 Z-1.100 F200
G1 X24.836 Y13.517 Z-1.100 F200
G1 X24.860 Y13.675 Z-1.100 F200
G1 X24.868 Y13.834 Z-1.100 F200
G1 X24.868 Y15.662 Z-1.100 F200
G1 X24.875 Y15.848 Z-1.100 F200
G1 X24.897 Y16.034 Z-1.100 F200
G1 X24.932 Y16.217 Z-1.100 F200
G1 X24.982 Y16.398 Z-1.100 F200
G1 X25.045 Y16.573 Z-1.100 F200
G1 X25.122 Y16.744 Z-1.100 F200
G1 X25.211 Y16.908 Z-1.100 F200
G1 X25.313 Y17.064 Z-1.100 F200
G1 X25.426 Y17.213 Z-1.100 F200
G1 X25.551 Y17.352 Z-1.100 F200
G1 X25.686 Y17.482 Z-1.100 F200
G1 X25.733 Y17.534 Z-1.100 F1500
G1 X25.768 Y17.597 Z-1.100 F1500
G1 X25.788 Y17.665 Z-1.100 F1500
G1 X25.792 Y17.736 Z-1.100 F1500
G1 X25.780 Y17.806 Z-1.100 F1500
G1 X25.753 Y17.872 Z-1.100 F1500
G1 X25.712 Y17.930 Z-1.100 F1500
G1 X25.501 Y18.167 Z-1.100 F1500
G1 X25.455 Y18.220 Z-1.092 F1500
G1 X25.410 Y18.270 Z-1.069 F1500
G1 X25.370 Y18.315 Z-1.031 F1500
G1 X25.337 Y18.353 Z-0.980 F1500
G1 X25.311 Y18.381 Z-0.920 F1500
G1 X25.296 Y18.399 Z-0.853 F1500
G1 X25.291 Y18.405 Z-0.783 F1500
G1 X25.291 Y18.405 Z2.000 F200
G1 X24.816 Y17.983 Z2.000 F200
G1 X24.816 Y17.983 Z1.000 F200
G1 X24.816 Y17.983 Z-0.465 F200
G1 X24.816 Y17.983 Z-0.883 F200
G1 X24.821 Y17.977 Z-0.953 F200
G1 X24.837 Y17.959 Z-1.020 F200
G1 X24.862 Y17.931 Z-1.080 F200
G1 X24.895 Y17.893 Z-1.131 F200
G1 X24.935 Y17.848 Z-1.169 F200
G1 X24.980 Y17.798 Z-1.192 F200
G1 X25.027 Y17.745 Z-1.200 F200
G1 X25.238 Y17.508 Z-1.200 F200
G1 X25.290 Y17.461 Z-1.200 F200
G1 X25.353 Y17.426 Z-1.200 F200
G1 X25.421 Y17.406 Z-1.200 F200
G1 X25.492 Y17.402 Z-1.200 F200
G1 X25.562 Y17.414 Z-1.200 F200
G1 X25.628 Y17.441 Z-1.200 F200
G1 X25.686 Y17.482 Z-1.200 F200
G1 X25.838 Y17.606 Z-1.200 F200
G1 X25.999 Y17.718 Z-1.200 F200
G1 X26.169 Y17.816 Z-1.200 F200
G1 X26.347 Y17.900 Z-1.200 F200
G1 X26.530 Y17.970 Z-1.200 F200
G1 X26.719 Y18.025 Z-1.200 F200
G1 X26.911 Y18.064 Z-1.200 F200
G1 X27.106 Y18.088 Z-1.200 F200
G1 X27.302 Y18.096 Z-1.200 F200
G1 X36.191 Y18.096 Z-1.200 F200
G1 X36.382 Y18.088 Z-1.200 F200
G1 X36.572 Y18.066 Z-1.200 F200
G1 X36.760 Y18.029 Z-1.200 F200
G1 X36.944 Y17.977 Z-1.200 F200
G1 X37.123 Y17.911 Z-1.200 F200
G1 X37.296 Y17.831 Z-1.200 F200
G1 X37.463 Y17.737 Z-1.200 F200
G1 X37.622 Y17.631 Z-1.200 F200
G1 X37.772 Y17.513 Z-1.200 F200
G1 X37.913 Y17.383 Z-1.200 F200
G1 X38.042 Y17.243 Z-1.200 F200
G1 X38.161 Y17.093 Z-1.200 F200
G1 X38.267 Y16.934 Z-1.200 F200
G1 X38.360 Y16.767 Z-1.200 F200
G1 X38.440 Y16.593 Z-1.200 F200
G1 X38.506 Y16.414 Z-1.200 F200
G1 X38.558 Y16.230 Z-1.200 F200
G1 X38.596 Y16.043 Z-1.200 F200
G1 X38.618 Y15.853 Z-1.200 F200
G1 X38.625 Y15.662 Z-1.200 F200
G1 X38.625 Y0.847 Z-1.200 F200
G1 X38.618 Y0.656 Z-1.200 F200
G1 X38.596 Y0.466 Z-1.200 F200
G1 X38.558 Y0.278 Z-1.200 F200
G1 X38.506 Y0.094 Z-1.200 F200
G1 X38.440 Y-0.085 Z-1.200 F200
G1 X38.360 Y-0.258 Z-1.200 F200
G1 X38.267 Y-0.425 Z-1.200 F200
G1 X38.161 Y-0.584 Z-1.200 F200
G1 X38.042 Y-0.734 Z-1.200 F200
G1 X37.913 Y-0.875 Z-1.200 F200
G1 X37.772 Y-1.004 Z-1.200 F200
G1 X37.622 Y-1.123 Z-1.200 F200
G1 X37.463 Y-1.229 Z-1.200 F200
G1 X37.296 Y-1.322 Z-1.200 F200
G1 X37.123 Y-1.402 Z-1.200 F200
G1 X36.944 Y-1.468 Z-1.200 F200
G1 X36.760 Y-1.520 Z-1.200 F200
G1 X36.572 Y-1.558 Z-1.200 F200
G1 X36.382 Y-1.580 Z-1.200 F200
G1 X36.191 Y-1.587 Z-1.200 F200
G1 X0.847 Y-1.587 Z-1.200 F200
G1 X0.656 Y-1.580 Z-1.200 F200
G1 X0.466 Y-1.558 Z-1.200 F200
G1 X0.278 Y-1.520 Z-1.200 F200
G1 X0.094 Y-1.468 Z-1.200 F200
G1 X-0.085 Y-1.402 Z-1.200 F200
G1 X-0.258 Y-1.322 Z-1.200 F200
G1 X-0.425 Y-1.229 Z-1.200 F200
G1 X-0.584 Y-1.123 Z-1.200 F200
G1 X-0.734 Y-1.004 Z-1.200 F200
G1 X-0.875 Y-0.875 Z-1.200 F200
G1 X-1.004 Y-0.734 Z-1.200 F200
G1 X-1.123 Y-0.584 Z-1.200 F200
G1 X-1.229 Y-0.425 Z-1.200 F200
G1 X-1.322 Y-0.258 Z-1.200 F200
G1 X-1.402 Y-0.085 Z-1.200 F200
G1 X-1.468 Y0.094 Z-1.200 F200
G1 X-1.520 Y0.278 Z-1.200 F200
G1 X-1.558 Y0.466 Z-1.200 F200
G1 X-1.580 Y0.656 Z-1.200 F200
G1 X-1.587 Y0.847 Z-1.200 F200
G1 X-1.587 Y5.503 Z-1.200 F200
G1 X-1.580 Y5.694 Z-1.200 F200
G1 X-1.558 Y5.884 Z-1.200 F200
G1 X-1.520 Y6.071 Z-1.200 F200
G1 X-1.468 Y6.255 Z-1.200 F200
G1 X-1.402 Y6.434 Z-1.200 F200
G1 X-1.322 Y6.608 Z-1.200 F200
G1 X-1.229 Y6.775 Z-1.200 F200
G1 X-1.123 Y6.933 Z-1.200 F200
G1 X-1.004 Y7.084 Z-1.200 F200
G1 X-0.875 Y7.224 Z-1.200 F200
G1 X-0.734 Y7.354 Z-1.200 F200
G1 X-0.584 Y7.472 Z-1.200 F200
G1 X-0.425 Y7.578 Z-1.200 F200
G1 X-0.258 Y7.672 Z-1.200 F200
G1 X-0.085 Y7.752 Z-1.200 F200
G1 X0.094 Y7.818 Z-1.200 F200
G1 X0.278 Y7.870 Z-1.200 F200
G1 X0.466 Y7.907 Z-1.200 F200
G1 X0.656 Y7.929 Z-1.200 F200
G1 X0.847 Y7.937 Z-1.200 F200
G1 X18.823 Y7.937 Z-1.200 F200
G1 X18.975 Y7.944 Z-1.200 F200
G1 X19.126 Y7.966 Z-1.200 F200
G1 X19.274 Y8.002 Z-1.200 F200
G1 X19.418 Y8.053 Z-1.200 F200
G1 X19.556 Y8.116 Z-1.200 F200
G1 X19.688 Y8.193 Z-1.200 F200
G1 X19.811 Y8.282 Z-1.200 F200
G1 X19.926 Y8.383 Z-1.200 F200
G1 X24.384 Y12.693 Z-1.200 F200
G1 X24.493 Y12.809 Z-1.200 F200
G1 X24.589 Y12.935 Z-1.200 F200
G1 X24.673 Y13.071 Z-1.200 F200
G1 X24.742 Y13.214 Z-1.200 F200
G1 X24.797 Y13.363 Z-1.200 F200
G1 X24.836 Y13.517 Z-1.200 F200
G1 X24.860 Y13.675 Z-1.200 F200
G1 X24.868 Y13.834 Z-1.200 F200
G1 X24.868 Y15.662 Z-1.200 F200
G1 X24.875 Y15.848 Z-1.200 F200
G1 X24.897 Y16.034 Z-1.200 F200
G1 X24.932 Y16.217 Z-1.200 F200
G1 X24.982 Y16.398 Z-1.200 F200
G1 X25.045 Y16.573 Z-1.200 F200
G1 X25.122 Y16.744 Z-1.200 F200
G1 X25.211 Y16.908 Z-1.200 F200
G1 X25.313 Y17.064 Z-1.200 F200
G1 X25.426 Y17.213 Z-1.200 F200
G1 X25.551 Y17.352 Z-1.200 F200
G1 X25.686 Y17.482 Z-1.200 F200
G1 X25.733 Y17.534 Z-1.200 F1500
G1 X25.768 Y17.597 Z-1.200 F1500
G1 X25.788 Y17.665 Z-1.200 F1500
G1 X25.792 Y17.736 Z-1.200 F1500
G1 X25.780 Y17.806 Z-1.200 F1500
G1 X25.753 Y17.872 Z-1.200 F1500
G1 X25.712 Y17.930 Z-1.200 F1500
G1 X25.501 Y18.167 Z-1.200 F1500
G1 X25.455 Y18.220 Z-1.192 F1500
G1 X25.410 Y18.270 Z-1.169 F1500
G1 X25.370 Y18.315 Z-1.131 F1500
G1 X25.337 Y18.353 Z-1.080 F1500
G1 X25.311 Y18.381 Z-1.020 F1500
G1 X25.296 Y18.399 Z-0.953 F1500
G1 X25.291 Y18.405 Z-0.883 F1500
G1 X25.291 Y18.405 Z2.000 F200
G1 X24.816 Y17.983 Z2.000 F200
G1 X24.816 Y17.983 Z1.000 F200
G1 X24.816 Y17.983 Z-0.565 F200
G1 X24.816 Y17.983 Z-0.983 F200
G1 X24.821 Y17.977 Z-1.053 F200
G1 X24.837 Y17.959 Z-1.120 F200
G1 X24.862 Y17.931 Z-1.180 F200
G1 X24.895 Y17.893 Z-1.231 F200
G1 X24.935 Y17.848 Z-1.269 F200
G1 X24.980 Y17.798 Z-1.292 F200
G1 X25.027 Y17.745 Z-1.300 F200
G1 X25.238 Y17.508 Z-1.300 F200
G1 X25.290 Y17.461 Z-1.300 F200
G1 X25.353 Y17.426 Z-1.300 F200
G1 X25.421 Y17.406 Z-1.300 F200
G1 X25.492 Y17.402 Z-1.300 F200
G1 X25.562 Y17.414 Z-1.300 F200
G1 X25.628 Y17.441 Z-1.300 F200
G1 X25.686 Y17.482 Z-1.300 F200
G1 X25.838 Y17.606 Z-1.300 F200
G1 X25.999 Y17.718 Z-1.300 F200
G1 X26.169 Y17.816 Z-1.300 F200
G1 X26.347 Y17.900 Z-1.300 F200
G1 X26.530 Y17.970 Z-1.300 F200
G1 X26.719 Y18.025 Z-1.300 F200
G1 X26.911 Y18.064 Z-1.300 F200
G1 X27.106 Y18.088 Z-1.300 F200
G1 X27.302 Y18.096 Z-1.300 F200
G1 X36.191 Y18.096 Z-1.300 F200
G1 X36.382 Y18.088 Z-1.300 F200
G1 X36.572 Y18.066 Z-1.300 F200
G1 X36.760 Y18.029 Z-1.300 F200
G1 X36.944 Y17.977 Z-1.300 F200
G1 X37.123 Y17.911 Z-1.300 F200
G1 X37.296 Y17.831 Z-1.300 F200
G1 X37.463 Y17.737 Z-1.300 F200
G1 X37.622 Y17.631 Z-1.300 F200
G1 X37.772 Y17.513 Z-1.300 F200
G1 X37.913 Y17.383 Z-1.300 F200
G1 X38.042 Y17.243 Z-1.300 F200
G1 X38.161 Y17.093 Z-1.300 F200
G1 X38.267 Y16.934 Z-1.300 F200
G1 X38.360 Y16.767 Z-1.300 F200
G1 X38.440 Y16.593 Z-1.300 F200
G1 X38.506 Y16.414 Z-1.300 F200
G1 X38.558 Y16.230 Z-1.300 F200
G1 X38.596 Y16.043 Z-1.300 F200
G1 X38.618 Y15.853 Z-1.300 F200
G1 X38.625 Y15.662 Z-1.300 F200
G1 X38.625 Y0.847 Z-1.300 F200
G1 X38.618 Y0.656 Z-1.300 F200
G1 X38.596 Y0.466 Z-1.300 F200
G1 X38.558 Y0.278 Z-1.300 F200
G1 X38.506 Y0.094 Z-1.300 F200
G1 X38.440 Y-0.085 Z-1.300 F200
G1 X38.360 Y-0.258 Z-1.300 F200
G1 X38.267 Y-0.425 Z-1.300 F200
G1 X38.161 Y-0.584 Z-1.300 F200
G1 X38.042 Y-0.734 Z-1.300 F200
G1 X37.913 Y-0.875 Z-1.300 F200
G1 X37.772 Y-1.004 Z-1.300 F200
G1 X37.622 Y-1.123 Z-1.300 F200
G1 X37.463 Y-1.229 Z-1.300 F200
G1 X37.296 Y-1.322 Z-1.300 F200
G1 X37.123 Y-1.402 Z-1.300 F200
G1 X36.944 Y-1.468 Z-1.300 F200
G1 X36.760 Y-1.520 Z-1.300 F200
G1 X36.572 Y-1.558 Z-1.300 F200
G1 X36.382 Y-1.580 Z-1.300 F200
G1 X36.191 Y-1.587 Z-1.300 F200
G1 X0.847 Y-1.587 Z-1.300 F200
G1 X0.656 Y-1.580 Z-1.300 F200
G1 X0.466 Y-1.558 Z-1.300 F200
G1 X0.278 Y-1.520 Z-1.300 F200
G1 X0.094 Y-1.468 Z-1.300 F200
G1 X-0.085 Y-1.402 Z-1.300 F200
G1 X-0.258 Y-1.322 Z-1.300 F200
G1 X-0.425 Y-1.229 Z-1.300 F200
G1 X-0.584 Y-1.123 Z-1.300 F200
G1 X-0.734 Y-1.004 Z-1.300 F200
G1 X-0.875 Y-0.875 Z-1.300 F200
G1 X-1.004 Y-0.734 Z-1.300 F200
G1 X-1.123 Y-0.584 Z-1.300 F200
G1 X-1.229 Y-0.425 Z-1.300 F200
G1 X-1.322 Y-0.258 Z-1.300 F200
G1 X-1.402 Y-0.085 Z-1.300 F200
G1 X-1.468 Y0.094 Z-1.300 F200
G1 X-1.520 Y0.278 Z-1.300 F200
G1 X-1.558 Y0.466 Z-1.300 F200
G1 X-1.580 Y0.656 Z-1.300 F200
G1 X-1.587 Y0.847 Z-1.300 F200
G1 X-1.587 Y5.503 Z-1.300 F200
G1 X-1.580 Y5.694 Z-1.300 F200
G1 X-1.558 Y5.884 Z-1.300 F200
G1 X-1.520 Y6.071 Z-1.300 F200
G1 X-1.468 Y6.255 Z-1.300 F200
G1 X-1.402 Y6.434 Z-1.300 F200
G1 X-1.322 Y6.608 Z-1.300 F200
G1 X-1.229 Y6.775 Z-1.300 F200
G1 X-1.123 Y6.933 Z-1.300 F200
G1 X-1.004 Y7.084 Z-1.300 F200
G1 X-0.875 Y7.224 Z-1.300 F200
G1 X-0.734 Y7.354 Z-1.300 F200
G1 X-0.584 Y7.472 Z-1.300 F200
G1 X-0.425 Y7.578 Z-1.300 F200
G1 X-0.258 Y7.672 Z-1.300 F200
G1 X-0.085 Y7.752 Z-1.300 F200
G1 X0.094 Y7.818 Z-1.300 F200
G1 X0.278 Y7.870 Z-1.300 F200
G1 X0.466 Y7.907 Z-1.300 F200
G1 X0.656 Y7.929 Z-1.300 F200
G1 X0.847 Y7.937 Z-1.300 F200
G1 X18.823 Y7.937 Z-1.300 F200
G1 X18.975 Y7.944 Z-1.300 F200
G1 X19.126 Y7.966 Z-1.300 F200
G1 X19.274 Y8.002 Z-1.300 F200
G1 X19.418 Y8.053 Z-1.300 F200
G1 X19.556 Y8.116 Z-1.300 F200
G1 X19.688 Y8.193 Z-1.300 F200
G1 X19.811 Y8.282 Z-1.300 F200
G1 X19.926 Y8.383 Z-1.300 F200
G1 X24.384 Y12.693 Z-1.300 F200
G1 X24.493 Y12.809 Z-1.300 F200
G1 X24.589 Y12.935 Z-1.300 F200
G1 X24.673 Y13.071 Z-1.300 F200
G1 X24.742 Y13.214 Z-1.300 F200
G1 X24.797 Y13.363 Z-1.300 F200
G1 X24.836 Y13.517 Z-1.300 F200
G1 X24.860 Y13.675 Z-1.300 F200
G1 X24.868 Y13.834 Z-1.300 F200
G1 X24.868 Y15.662 Z-1.300 F200
G1 X24.875 Y15.848 Z-1.300 F200
G1 X24.897 Y16.034 Z-1.300 F200
G1 X24.932 Y16.217 Z-1.300 F200
G1 X24.982 Y16.398 Z-1.300 F200
G1 X25.045 Y16.573 Z-1.300 F200
G1 X25.122 Y16.744 Z-1.300 F200
G1 X25.211 Y16.908 Z-1.300 F200
G1 X25.313 Y17.064 Z-1.300 F200
G1 X25.426 Y17.213 Z-1.300 F200
G1 X25.551 Y17.352 Z-1.300 F200
G1 X25.686 Y17.482 Z-1.300 F200
G1 X25.733 Y17.534 Z-1.300 F1500
G1 X25.768 Y17.597 Z-1.300 F1500
G1 X25.788 Y17.665 Z-1.300 F1500
G1 X25.792 Y17.736 Z-1.300 F1500
G1 X25.780 Y17.806 Z-1.300 F1500
G1 X25.753 Y17.872 Z-1.300 F1500
G1 X25.712 Y17.930 Z-1.300 F1500
G1 X25.501 Y18.167 Z-1.300 F1500
G1 X25.455 Y18.220 Z-1.292 F1500
G1 X25.410 Y18.270 Z-1.269 F1500
G1 X25.370 Y18.315 Z-1.231 F1500
G1 X25.337 Y18.353 Z-1.180 F1500
G1 X25.311 Y18.381 Z-1.120 F1500
G1 X25.296 Y18.399 Z-1.053 F1500
G1 X25.291 Y18.405 Z-0.983 F1500
G1 X25.291 Y18.405 Z2.000 F200
G1 X24.816 Y17.983 Z2.000 F200
G1 X24.816 Y17.983 Z1.000 F200
G1 X24.816 Y17.983 Z-0.665 F200
G1 X24.816 Y17.983 Z-1.083 F200
G1 X24.821 Y17.977 Z-1.153 F200
G1 X24.837 Y17.959 Z-1.220 F200
G1 X24.862 Y17.931 Z-1.280 F200
G1 X24.895 Y17.893 Z-1.331 F200
G1 X24.935 Y17.848 Z-1.369 F200
G1 X24.980 Y17.798 Z-1.392 F200
G1 X25.027 Y17.745 Z-1.400 F200
G1 X25.238 Y17.508 Z-1.400 F200
G1 X25.290 Y17.461 Z-1.400 F200
G1 X25.353 Y17.426 Z-1.400 F200
G1 X25.421 Y17.406 Z-1.400 F200
G1 X25.492 Y17.402 Z-1.400 F200
G1 X25.562 Y17.414 Z-1.400 F200
G1 X25.628 Y17.441 Z-1.400 F200
G1 X25.686 Y17.482 Z-1.400 F200
G1 X25.838 Y17.606 Z-1.400 F200
G1 X25.999 Y17.718 Z-1.400 F200
G1 X26.169 Y17.816 Z-1.400 F200
G1 X26.347 Y17.900 Z-1.400 F200
G1 X26.530 Y17.970 Z-1.400 F200
G1 X26.719 Y18.025 Z-1.400 F200
G1 X26.911 Y18.064 Z-1.400 F200
G1 X27.106 Y18.088 Z-1.400 F200
G1 X27.302 Y18.096 Z-1.400 F200
G1 X36.191 Y18.096 Z-1.400 F200
G1 X36.382 Y18.088 Z-1.400 F200
G1 X36.572 Y18.066 Z-1.400 F200
G1 X36.760 Y18.029 Z-1.400 F200
G1 X36.944 Y17.977 Z-1.400 F200
G1 X37.123 Y17.911 Z-1.400 F200
G1 X37.296 Y17.831 Z-1.400 F200
G1 X37.463 Y17.737 Z-1.400 F200
G1 X37.622 Y17.631 Z-1.400 F200
G1 X37.772 Y17.513 Z-1.400 F200
G1 X37.913 Y17.383 Z-1.400 F200
G1 X38.042 Y17.243 Z-1.400 F200
G1 X38.161 Y17.093 Z-1.400 F200
G1 X38.267 Y16.934 Z-1.400 F200
G1 X38.360 Y16.767 Z-1.400 F200
G1 X38.440 Y16.593 Z-1.400 F200
G1 X38.506 Y16.414 Z-1.400 F200
G1 X38.558 Y16.230 Z-1.400 F200
G1 X38.596 Y16.043 Z-1.400 F200
G1 X38.618 Y15.853 Z-1.400 F200
G1 X38.625 Y15.662 Z-1.400 F200
G1 X38.625 Y0.847 Z-1.400 F200
G1 X38.618 Y0.656 Z-1.400 F200
G1 X38.596 Y0.466 Z-1.400 F200
G1 X38.558 Y0.278 Z-1.400 F200
G1 X38.506 Y0.094 Z-1.400 F200
G1 X38.440 Y-0.085 Z-1.400 F200
G1 X38.360 Y-0.258 Z-1.400 F200
G1 X38.267 Y-0.425 Z-1.400 F200
G1 X38.161 Y-0.584 Z-1.400 F200
G1 X38.042 Y-0.734 Z-1.400 F200
G1 X37.913 Y-0.875 Z-1.400 F200
G1 X37.772 Y-1.004 Z-1.400 F200
G1 X37.622 Y-1.123 Z-1.400 F200
G1 X37.463 Y-1.229 Z-1.400 F200
G1 X37.296 Y-1.322 Z-1.400 F200
G1 X37.123 Y-1.402 Z-1.400 F200
G1 X36.944 Y-1.468 Z-1.400 F200
G1 X36.760 Y-1.520 Z-1.400 F200
G1 X36.572 Y-1.558 Z-1.400 F200
G1 X36.382 Y-1.580 Z-1.400 F200
G1 X36.191 Y-1.587 Z-1.400 F200
G1 X0.847 Y-1.587 Z-1.400 F200
G1 X0.656 Y-1.580 Z-1.400 F200
G1 X0.466 Y-1.558 Z-1.400 F200
G1 X0.278 Y-1.520 Z-1.400 F200
G1 X0.094 Y-1.468 Z-1.400 F200
G1 X-0.085 Y-1.402 Z-1.400 F200
G1 X-0.258 Y-1.322 Z-1.400 F200
G1 X-0.425 Y-1.229 Z-1.400 F200
G1 X-0.584 Y-1.123 Z-1.400 F200
G1 X-0.734 Y-1.004 Z-1.400 F200
G1 X-0.875 Y-0.875 Z-1.400 F200
G1 X-1.004 Y-0.734 Z-1.400 F200
G1 X-1.123 Y-0.584 Z-1.400 F200
G1 X-1.229 Y-0.425 Z-1.400 F200
G1 X-1.322 Y-0.258 Z-1.400 F200
G1 X-1.402 Y-0.085 Z-1.400 F200
G1 X-1.468 Y0.094 Z-1.400 F200
G1 X-1.520 Y0.278 Z-1.400 F200
G1 X-1.558 Y0.466 Z-1.400 F200
G1 X-1.580 Y0.656 Z-1.400 F200
G1 X-1.587 Y0.847 Z-1.400 F200
G1 X-1.587 Y5.503 Z-1.400 F200
G1 X-1.580 Y5.694 Z-1.400 F200
G1 X-1.558 Y5.884 Z-1.400 F200
G1 X-1.520 Y6.071 Z-1.400 F200
G1 X-1.468 Y6.255 Z-1.400 F200
G1 X-1.402 Y6.434 Z-1.400 F200
G1 X-1.322 Y6.608 Z-1.400 F200
G1 X-1.229 Y6.775 Z-1.400 F200
G1 X-1.123 Y6.933 Z-1.400 F200
G1 X-1.004 Y7.084 Z-1.400 F200
G1 X-0.875 Y7.224 Z-1.400 F200
G1 X-0.734 Y7.354 Z-1.400 F200
G1 X-0.584 Y7.472 Z-1.400 F200
G1 X-0.425 Y7.578 Z-1.400 F200
G1 X-0.258 Y7.672 Z-1.400 F200
G1 X-0.085 Y7.752 Z-1.400 F200
G1 X0.094 Y7.818 Z-1.400 F200
G1 X0.278 Y7.870 Z-1.400 F200
G1 X0.466 Y7.907 Z-1.400 F200
G1 X0.656 Y7.929 Z-1.400 F200
G1 X0.847 Y7.937 Z-1.400 F200
G1 X18.823 Y7.937 Z-1.400 F200
G1 X18.975 Y7.944 Z-1.400 F200
G1 X19.126 Y7.966 Z-1.400 F200
G1 X19.274 Y8.002 Z-1.400 F200
G1 X19.418 Y8.053 Z-1.400 F200
G1 X19.556 Y8.116 Z-1.400 F200
G1 X19.688 Y8.193 Z-1.400 F200
G1 X19.811 Y8.282 Z-1.400 F200
G1 X19.926 Y8.383 Z-1.400 F200
G1 X24.384 Y12.693 Z-1.400 F200
G1 X24.493 Y12.809 Z-1.400 F200
G1 X24.589 Y12.935 Z-1.400 F200
G1 X24.673 Y13.071 Z-1.400 F200
G1 X24.742 Y13.214 Z-1.400 F200
G1 X24.797 Y13.363 Z-1.400 F200
G1 X24.836 Y13.517 Z-1.400 F200
G1 X24.860 Y13.675 Z-1.400 F200
G1 X24.868 Y13.834 Z-1.400 F200
G1 X24.868 Y15.662 Z-1.400 F200
G1 X24.875 Y15.848 Z-1.400 F200
G1 X24.897 Y16.034 Z-1.400 F200
G1 X24.932 Y16.217 Z-1.400 F200
G1 X24.982 Y16.398 Z-1.400 F200
G1 X25.045 Y16.573 Z-1.400 F200
G1 X25.122 Y16.744 Z-1.400 F200
G1 X25.211 Y16.908 Z-1.400 F200
G1 X25.313 Y17.064 Z-1.400 F200
G1 X25.426 Y17.213 Z-1.400 F200
G1 X25.551 Y17.352 Z-1.400 F200
G1 X25.686 Y17.482 Z-1.400 F200
G1 X25.733 Y17.534 Z-1.400 F1500
G1 X25.768 Y17.597 Z-1.400 F1500
G1 X25.788 Y17.665 Z-1.400 F1500
G1 X25.792 Y17.736 Z-1.400 F1500
G1 X25.780 Y17.806 Z-1.400 F1500
G1 X25.753 Y17.872 Z-1.400 F1500
G1 X25.712 Y17.930 Z-1.400 F1500
G1 X25.501 Y18.167 Z-1.400 F1500
G1 X25.455 Y18.220 Z-1.392 F1500
G1 X25.410 Y18.270 Z-1.369 F1500
G1 X25.370 Y18.315 Z-1.331 F1500
G1 X25.337 Y18.353 Z-1.280 F1500
G1 X25.311 Y18.381 Z-1.220 F1500
G1 X25.296 Y18.399 Z-1.153 F1500
G1 X25.291 Y18.405 Z-1.083 F1500
G1 X25.291 Y18.405 Z2.000 F200
G1 X24.816 Y17.983 Z2.000 F200
G1 X24.816 Y17.983 Z1.000 F200
G1 X24.816 Y17.983 Z-0.765 F200
G1 X24.816 Y17.983 Z-1.183 F200
G1 X24.821 Y17.977 Z-1.253 F200
G1 X24.837 Y17.959 Z-1.320 F200
G1 X24.862 Y17.931 Z-1.380 F200
G1 X24.895 Y17.893 Z-1.431 F200
G1 X24.935 Y17.848 Z-1.469 F200
G1 X24.980 Y17.798 Z-1.492 F200
G1 X25.027 Y17.745 Z-1.500 F200
G1 X25.238 Y17.508 Z-1.500 F200
G1 X25.290 Y17.461 Z-1.500 F200
G1 X25.353 Y17.426 Z-1.500 F200
G1 X25.421 Y17.406 Z-1.500 F200
G1 X25.492 Y17.402 Z-1.500 F200
G1 X25.562 Y17.414 Z-1.500 F200
G1 X25.628 Y17.441 Z-1.500 F200
G1 X25.686 Y17.482 Z-1.500 F200
G1 X25.838 Y17.606 Z-1.500 F200
G1 X25.999 Y17.718 Z-1.500 F200
G1 X26.169 Y17.816 Z-1.500 F200
G1 X26.347 Y17.900 Z-1.500 F200
G1 X26.530 Y17.970 Z-1.500 F200
G1 X26.719 Y18.025 Z-1.500 F200
G1 X26.911 Y18.064 Z-1.500 F200
G1 X27.106 Y18.088 Z-1.500 F200
G1 X27.302 Y18.096 Z-1.500 F200
G1 X36.191 Y18.096 Z-1.500 F200
G1 X36.382 Y18.088 Z-1.500 F200
G1 X36.572 Y18.066 Z-1.500 F200
G1 X36.760 Y18.029 Z-1.500 F200
G1 X36.944 Y17.977 Z-1.500 F200
G1 X37.123 Y17.911 Z-1.500 F200
G1 X37.296 Y17.831 Z-1.500 F200
G1 X37.463 Y17.737 Z-1.500 F200
G1 X37.622 Y17.631 Z-1.500 F200
G1 X37.772 Y17.513 Z-1.500 F200
G1 X37.913 Y17.383 Z-1.500 F200
G1 X38.042 Y17.243 Z-1.500 F200
G1 X38.161 Y17.093 Z-1.500 F200
G1 X38.267 Y16.934 Z-1.500 F200
G1 X38.360 Y16.767 Z-1.500 F200
G1 X38.440 Y16.593 Z-1.500 F200
G1 X38.506 Y16.414 Z-1.500 F200
G1 X38.558 Y16.230 Z-1.500 F200
G1 X38.596 Y16.043 Z-1.500 F200
G1 X38.618 Y15.853 Z-1.500 F200
G1 X38.625 Y15.662 Z-1.500 F200
G1 X38.625 Y0.847 Z-1.500 F200
G1 X38.618 Y0.656 Z-1.500 F200
G1 X38.596 Y0.466 Z-1.500 F200
G1 X38.558 Y0.278 Z-1.500 F200
G1 X38.506 Y0.094 Z-1.500 F200
G1 X38.440 Y-0.085 Z-1.500 F200
G1 X38.360 Y-0.258 Z-1.500 F200
G1 X38.267 Y-0.425 Z-1.500 F200
G1 X38.161 Y-0.584 Z-1.500 F200
G1 X38.042 Y-0.734 Z-1.500 F200
G1 X37.913 Y-0.875 Z-1.500 F200
G1 X37.772 Y-1.004 Z-1.500 F200
G1 X37.622 Y-1.123 Z-1.500 F200
G1 X37.463 Y-1.229 Z-1.500 F200
G1 X37.296 Y-1.322 Z-1.500 F200
G1 X37.123 Y-1.402 Z-1.500 F200
G1 X36.944 Y-1.468 Z-1.500 F200
G1 X36.760 Y-1.520 Z-1.500 F200
G1 X36.572 Y-1.558 Z-1.500 F200
G1 X36.382 Y-1.580 Z-1.500 F200
G1 X36.191 Y-1.587 Z-1.500 F200
G1 X0.847 Y-1.587 Z-1.500 F200
G1 X0.656 Y-1.580 Z-1.500 F200
G1 X0.466 Y-1.558 Z-1.500 F200
G1 X0.278 Y-1.520 Z-1.500 F200
G1 X0.094 Y-1.468 Z-1.500 F200
G1 X-0.085 Y-1.402 Z-1.500 F200
G1 X-0.258 Y-1.322 Z-1.500 F200
G1 X-0.425 Y-1.229 Z-1.500 F200
G1 X-0.584 Y-1.123 Z-1.500 F200
G1 X-0.734 Y-1.004 Z-1.500 F200
G1 X-0.875 Y-0.875 Z-1.500 F200
G1 X-1.004 Y-0.734 Z-1.500 F200
G1 X-1.123 Y-0.584 Z-1.500 F200
G1 X-1.229 Y-0.425 Z-1.500 F200
G1 X-1.322 Y-0.258 Z-1.500 F200
G1 X-1.402 Y-0.085 Z-1.500 F200
G1 X-1.468 Y0.094 Z-1.500 F200
G1 X-1.520 Y0.278 Z-1.500 F200
G1 X-1.558 Y0.466 Z-1.500 F200
G1 X-1.580 Y0.656 Z-1.500 F200
G1 X-1.587 Y0.847 Z-1.500 F200
G1 X-1.587 Y5.503 Z-1.500 F200
G1 X-1.580 Y5.694 Z-1.500 F200
G1 X-1.558 Y5.884 Z-1.500 F200
G1 X-1.520 Y6.071 Z-1.500 F200
G1 X-1.468 Y6.255 Z-1.500 F200
G1 X-1.402 Y6.434 Z-1.500 F200
G1 X-1.322 Y6.608 Z-1.500 F200
G1 X-1.229 Y6.775 Z-1.500 F200
G1 X-1.123 Y6.933 Z-1.500 F200
G1 X-1.004 Y7.084 Z-1.500 F200
G1 X-0.875 Y7.224 Z-1.500 F200
G1 X-0.734 Y7.354 Z-1.500 F200
G1 X-0.584 Y7.472 Z-1.500 F200
G1 X-0.425 Y7.578 Z-1.500 F200
G1 X-0.258 Y7.672 Z-1.500 F200
G1 X-0.085 Y7.752 Z-1.500 F200
G1 X0.094 Y7.818 Z-1.500 F200
G1 X0.278 Y7.870 Z-1.500 F200
G1 X0.466 Y7.907 Z-1.500 F200
G1 X0.656 Y7.929 Z-1.500 F200
G1 X0.847 Y7.937 Z-1.500 F200
G1 X18.823 Y7.937 Z-1.500 F200
G1 X18.975 Y7.944 Z-1.500 F200
G1 X19.126 Y7.966 Z-1.500 F200
G1 X19.274 Y8.002 Z-1.500 F200
G1 X19.418 Y8.053 Z-1.500 F200
G1 X19.556 Y8.116 Z-1.500 F200
G1 X19.688 Y8.193 Z-1.500 F200
G1 X19.811 Y8.282 Z-1.500 F200
G1 X19.926 Y8.383 Z-1.500 F200
G1 X24.384 Y12.693 Z-1.500 F200
G1 X24.493 Y12.809 Z-1.500 F200
G1 X24.589 Y12.935 Z-1.500 F200
G1 X24.673 Y13.071 Z-1.500 F200
G1 X24.742 Y13.214 Z-1.500 F200
G1 X24.797 Y13.363 Z-1.500 F200
G1 X24.836 Y13.517 Z-1.500 F200
G1 X24.860 Y13.675 Z-1.500 F200
G1 X24.868 Y13.834 Z-1.500 F200
G1 X24.868 Y15.662 Z-1.500 F200
G1 X24.875 Y15.848 Z-1.500 F200
G1 X24.897 Y16.034 Z-1.500 F200
G1 X24.932 Y16.217 Z-1.500 F200
G1 X24.982 Y16.398 Z-1.500 F200
G1 X25.045 Y16.573 Z-1.500 F200
G1 X25.122 Y16.744 Z-1.500 F200
G1 X25.211 Y16.908 Z-1.500 F200
G1 X25.313 Y17.064 Z-1.500 F200
G1 X25.426 Y17.213 Z-1.500 F200
G1 X25.551 Y17.352 Z-1.500 F200
G1 X25.686 Y17.482 Z-1.500 F200
G1 X25.733 Y17.534 Z-1.500 F1500
G1 X25.768 Y17.597 Z-1.500 F1500
G1 X25.788 Y17.665 Z-1.500 F1500
G1 X25.792 Y17.736 Z-1.500 F1500
G1 X25.780 Y17.806 Z-1.500 F1500
G1 X25.753 Y17.872 Z-1.500 F1500
G1 X25.712 Y17.930 Z-1.500 F1500
G1 X25.501 Y18.167 Z-1.500 F1500
G1 X25.455 Y18.220 Z-1.492 F1500
G1 X25.410 Y18.270 Z-1.469 F1500
G1 X25.370 Y18.315 Z-1.431 F1500
G1 X25.337 Y18.353 Z-1.380 F1500
G1 X25.311 Y18.381 Z-1.320 F1500
G1 X25.296 Y18.399 Z-1.253 F1500
G1 X25.291 Y18.405 Z-1.183 F1500
G1 X25.291 Y18.405 Z2.000 F200
G1 X24.816 Y17.983 Z2.000 F200
G1 X24.816 Y17.983 Z1.000 F200
G1 X24.816 Y17.983 Z-0.865 F200
G1 X24.816 Y17.983 Z-1.283 F200
G1 X24.821 Y17.977 Z-1.353 F200
G1 X24.837 Y17.959 Z-1.420 F200
G1 X24.862 Y17.931 Z-1.480 F200
G1 X24.895 Y17.893 Z-1.531 F200
G1 X24.935 Y17.848 Z-1.569 F200
G1 X24.980 Y17.798 Z-1.592 F200
G1 X25.027 Y17.745 Z-1.600 F200
G1 X25.238 Y17.508 Z-1.600 F200
G1 X25.290 Y17.461 Z-1.600 F200
G1 X25.353 Y17.426 Z-1.600 F200
G1 X25.421 Y17.406 Z-1.600 F200
G1 X25.492 Y17.402 Z-1.600 F200
G1 X25.562 Y17.414 Z-1.600 F200
G1 X25.628 Y17.441 Z-1.600 F200
G1 X25.686 Y17.482 Z-1.600 F200
G1 X25.838 Y17.606 Z-1.600 F200
G1 X25.999 Y17.718 Z-1.600 F200
G1 X26.169 Y17.816 Z-1.600 F200
G1 X26.347 Y17.900 Z-1.600 F200
G1 X26.530 Y17.970 Z-1.600 F200
G1 X26.719 Y18.025 Z-1.600 F200
G1 X26.911 Y18.064 Z-1.600 F200
G1 X27.106 Y18.088 Z-1.600 F200
G1 X27.302 Y18.096 Z-1.600 F200
G1 X36.191 Y18.096 Z-1.600 F200
G1 X36.382 Y18.088 Z-1.600 F200
G1 X36.572 Y18.066 Z-1.600 F200
G1 X36.760 Y18.029 Z-1.600 F200
G1 X36.944 Y17.977 Z-1.600 F200
G1 X37.123 Y17.911 Z-1.600 F200
G1 X37.296 Y17.831 Z-1.600 F200
G1 X37.463 Y17.737 Z-1.600 F200
G1 X37.622 Y17.631 Z-1.600 F200
G1 X37.772 Y17.513 Z-1.600 F200
G1 X37.913 Y17.383 Z-1.600 F200
G1 X38.042 Y17.243 Z-1.600 F200
G1 X38.161 Y17.093 Z-1.600 F200
G1 X38.267 Y16.934 Z-1.600 F200
G1 X38.360 Y16.767 Z-1.600 F200
G1 X38.440 Y16.593 Z-1.600 F200
G1 X38.506 Y16.414 Z-1.600 F200
G1 X38.558 Y16.230 Z-1.600 F200
G1 X38.596 Y16.043 Z-1.600 F200
G1 X38.618 Y15.853 Z-1.600 F200
G1 X38.625 Y15.662 Z-1.600 F200
G1 X38.625 Y0.847 Z-1.600 F200
G1 X38.618 Y0.656 Z-1.600 F200
G1 X38.596 Y0.466 Z-1.600 F200
G1 X38.558 Y0.278 Z-1.600 F200
G1 X38.506 Y0.094 Z-1.600 F200
G1 X38.440 Y-0.085 Z-1.600 F200
G1 X38.360 Y-0.258 Z-1.600 F200
G1 X38.267 Y-0.425 Z-1.600 F200
G1 X38.161 Y-0.584 Z-1.600 F200
G1 X38.042 Y-0.734 Z-1.600 F200
G1 X37.913 Y-0.875 Z-1.600 F200
G1 X37.772 Y-1.004 Z-1.600 F200
G1 X37.622 Y-1.123 Z-1.600 F200
G1 X37.463 Y-1.229 Z-1.600 F200
G1 X37.296 Y-1.322 Z-1.600 F200
G1 X37.123 Y-1.402 Z-1.600 F200
G1 X36.944 Y-1.468 Z-1.600 F200
G1 X36.760 Y-1.520 Z-1.600 F200
G1 X36.572 Y-1.558 Z-1.600 F200
G1 X36.382 Y-1.580 Z-1.600 F200
G1 X36.191 Y-1.587 Z-1.600 F200
G1 X0.847 Y-1.587 Z-1.600 F200
G1 X0.656 Y-1.580 Z-1.600 F200
G1 X0.466 Y-1.558 Z-1.600 F200
G1 X0.278 Y-1.520 Z-1.600 F200
G1 X0.094 Y-1.468 Z-1.600 F200
G1 X-0.085 Y-1.402 Z-1.600 F200
G1 X-0.258 Y-1.322 Z-1.600 F200
G1 X-0.425 Y-1.229 Z-1.600 F200
G1 X-0.584 Y-1.123 Z-1.600 F200
G1 X-0.734 Y-1.004 Z-1.600 F200
G1 X-0.875 Y-0.875 Z-1.600 F200
G1 X-1.004 Y-0.734 Z-1.600 F200
G1 X-1.123 Y-0.584 Z-1.600 F200
G1 X-1.229 Y-0.425 Z-1.600 F200
G1 X-1.322 Y-0.258 Z-1.600 F200
G1 X-1.402 Y-0.085 Z-1.600 F200
G1 X-1.468 Y0.094 Z-1.600 F200
G1 X-1.520 Y0.278 Z-1.600 F200
G1 X-1.558 Y0.466 Z-1.600 F200
G1 X-1.580 Y0.656 Z-1.600 F200
G1 X-1.587 Y0.847 Z-1.600 F200
G1 X-1.587 Y5.503 Z-1.600 F200
G1 X-1.580 Y5.694 Z-1.600 F200
G1 X-1.558 Y5.884 Z-1.600 F200
G1 X-1.520 Y6.071 Z-1.600 F200
G1 X-1.468 Y6.255 Z-1.600 F200
G1 X-1.402 Y6.434 Z-1.600 F200
G1 X-1.322 Y6.608 Z-1.600 F200
G1 X-1.229 Y6.775 Z-1.600 F200
G1 X-1.123 Y6.933 Z-1.600 F200
G1 X-1.004 Y7.084 Z-1.600 F200
G1 X-0.875 Y7.224 Z-1.600 F200
G1 X-0.734 Y7.354 Z-1.600 F200
G1 X-0.584 Y7.472 Z-1.600 F200
G1 X-0.425 Y7.578 Z-1.600 F200
G1 X-0.258 Y7.672 Z-1.600 F200
G1 X-0.085 Y7.752 Z-1.600 F200
G1 X0.094 Y7.818 Z-1.600 F200
G1 X0.278 Y7.870 Z-1.600 F200
G1 X0.466 Y7.907 Z-1.600 F200
G1 X0.656 Y7.929 Z-1.600 F200
G1 X0.847 Y7.937 Z-1.600 F200
G1 X18.823 Y7.937 Z-1.600 F200
G1 X18.975 Y7.944 Z-1.600 F200
G1 X19.126 Y7.966 Z-1.600 F200
G1 X19.274 Y8.002 Z-1.600 F200
G1 X19.418 Y8.053 Z-1.600 F200
G1 X19.556 Y8.116 Z-1.600 F200
G1 X19.688 Y8.193 Z-1.600 F200
G1 X19.811 Y8.282 Z-1.600 F200
G1 X19.926 Y8.383 Z-1.600 F200
G1 X24.384 Y12.693 Z-1.600 F200
G1 X24.493 Y12.809 Z-1.600 F200
G1 X24.589 Y12.935 Z-1.600 F200
G1 X24.673 Y13.071 Z-1.600 F200
G1 X24.742 Y13.214 Z-1.600 F200
G1 X24.797 Y13.363 Z-1.600 F200
G1 X24.836 Y13.517 Z-1.600 F200
G1 X24.860 Y13.675 Z-1.600 F200
G1 X24.868 Y13.834 Z-1.600 F200
G1 X24.868 Y15.662 Z-1.600 F200
G1 X24.875 Y15.848 Z-1.600 F200
G1 X24.897 Y16.034 Z-1.600 F200
G1 X24.932 Y16.217 Z-1.600 F200
G1 X24.982 Y16.398 Z-1.600 F200
G1 X25.045 Y16.573 Z-1.600 F200
G1 X25.122 Y16.744 Z-1.600 F200
G1 X25.211 Y16.908 Z-1.600 F200
G1 X25.313 Y17.064 Z-1.600 F200
G1 X25.426 Y17.213 Z-1.600 F200
G1 X25.551 Y17.352 Z-1.600 F200
G1 X25.686 Y17.482 Z-1.600 F200
G1 X25.733 Y17.534 Z-1.600 F1500
G1 X25.768 Y17.597 Z-1.600 F1500
G1 X25.788 Y17.665 Z-1.600 F1500
G1 X25.792 Y17.736 Z-1.600 F1500
G1 X25.780 Y17.806 Z-1.600 F1500
G1 X25.753 Y17.872 Z-1.600 F1500
G1 X25.712 Y17.930 Z-1.600 F1500
G1 X25.501 Y18.167 Z-1.600 F1500
G1 X25.455 Y18.220 Z-1.592 F1500
G1 X25.410 Y18.270 Z-1.569 F1500
G1 X25.370 Y18.315 Z-1.531 F1500
G1 X25.337 Y18.353 Z-1.480 F1500
G1 X25.311 Y18.381 Z-1.420 F1500
G1 X25.296 Y18.399 Z-1.353 F1500
G1 X25.291 Y18.405 Z-1.283 F1500
G1 X25.291 Y18.405 Z2.000 F200
G1 X24.816 Y17.983 Z2.000 F200
G1 X24.816 Y17.983 Z1.000 F200
G1 X24.816 Y17.983 Z-0.965 F200
G1 X24.816 Y17.983 Z-1.383 F200
G1 X24.821 Y17.977 Z-1.453 F200
G1 X24.837 Y17.959 Z-1.520 F200
G1 X24.862 Y17.931 Z-1.580 F200
G1 X24.895 Y17.893 Z-1.631 F200
G1 X24.935 Y17.848 Z-1.669 F200
G1 X24.980 Y17.798 Z-1.692 F200
G1 X25.027 Y17.745 Z-1.700 F200
G1 X25.238 Y17.508 Z-1.700 F200
G1 X25.290 Y17.461 Z-1.700 F200
G1 X25.353 Y17.426 Z-1.700 F200
G1 X25.421 Y17.406 Z-1.700 F200
G1 X25.492 Y17.402 Z-1.700 F200
G1 X25.562 Y17.414 Z-1.700 F200
G1 X25.628 Y17.441 Z-1.700 F200
G1 X25.686 Y17.482 Z-1.700 F200
G1 X25.838 Y17.606 Z-1.700 F200
G1 X25.999 Y17.718 Z-1.700 F200
G1 X26.169 Y17.816 Z-1.700 F200
G1 X26.347 Y17.900 Z-1.700 F200
G1 X26.530 Y17.970 Z-1.700 F200
G1 X26.719 Y18.025 Z-1.700 F200
G1 X26.911 Y18.064 Z-1.700 F200
G1 X27.106 Y18.088 Z-1.700 F200
G1 X27.302 Y18.096 Z-1.700 F200
G1 X36.191 Y18.096 Z-1.700 F200
G1 X36.382 Y18.088 Z-1.700 F200
G1 X36.572 Y18.066 Z-1.700 F200
G1 X36.760 Y18.029 Z-1.700 F200
G1 X36.944 Y17.977 Z-1.700 F200
G1 X37.123 Y17.911 Z-1.700 F200
G1 X37.296 Y17.831 Z-1.700 F200
G1 X37.463 Y17.737 Z-1.700 F200
G1 X37.622 Y17.631 Z-1.700 F200
G1 X37.772 Y17.513 Z-1.700 F200
G1 X37.913 Y17.383 Z-1.700 F200
G1 X38.042 Y17.243 Z-1.700 F200
G1 X38.161 Y17.093 Z-1.700 F200
G1 X38.267 Y16.934 Z-1.700 F200
G1 X38.360 Y16.767 Z-1.700 F200
G1 X38.440 Y16.593 Z-1.700 F200
G1 X38.506 Y16.414 Z-1.700 F200
G1 X38.558 Y16.230 Z-1.700 F200
G1 X38.596 Y16.043 Z-1.700 F200
G1 X38.618 Y15.853 Z-1.700 F200
G1 X38.625 Y15.662 Z-1.700 F200
G1 X38.625 Y0.847 Z-1.700 F200
G1 X38.618 Y0.656 Z-1.700 F200
G1 X38.596 Y0.466 Z-1.700 F200
G1 X38.558 Y0.278 Z-1.700 F200
G1 X38.506 Y0.094 Z-1.700 F200
G1 X38.440 Y-0.085 Z-1.700 F200
G1 X38.360 Y-0.258 Z-1.700 F200
G1 X38.267 Y-0.425 Z-1.700 F200
G1 X38.161 Y-0.584 Z-1.700 F200
G1 X38.042 Y-0.734 Z-1.700 F200
G1 X37.913 Y-0.875 Z-1.700 F200
G1 X37.772 Y-1.004 Z-1.700 F200
G1 X37.622 Y-1.123 Z-1.700 F200
G1 X37.463 Y-1.229 Z-1.700 F200
G1 X37.296 Y-1.322 Z-1.700 F200
G1 X37.123 Y-1.402 Z-1.700 F200
G1 X36.944 Y-1.468 Z-1.700 F200
G1 X36.760 Y-1.520 Z-1.700 F200
G1 X36.572 Y-1.558 Z-1.700 F200
G1 X36.382 Y-1.580 Z-1.700 F200
G1 X36.191 Y-1.587 Z-1.700 F200
G1 X0.847 Y-1.587 Z-1.700 F200
G1 X0.656 Y-1.580 Z-1.700 F200
G1 X0.466 Y-1.558 Z-1.700 F200
G1 X0.278 Y-1.520 Z-1.700 F200
G1 X0.094 Y-1.468 Z-1.700 F200
G1 X-0.085 Y-1.402 Z-1.700 F200
G1 X-0.258 Y-1.322 Z-1.700 F200
G1 X-0.425 Y-1.229 Z-1.700 F200
G1 X-0.584 Y-1.123 Z-1.700 F200
G1 X-0.734 Y-1.004 Z-1.700 F200
G1 X-0.875 Y-0.875 Z-1.700 F200
G1 X-1.004 Y-0.734 Z-1.700 F200
G1 X-1.123 Y-0.584 Z-1.700 F200
G1 X-1.229 Y-0.425 Z-1.700 F200
G1 X-1.322 Y-0.258 Z-1.700 F200
G1 X-1.402 Y-0.085 Z-1.700 F200
G1 X-1.468 Y0.094 Z-1.700 F200
G1 X-1.520 Y0.278 Z-1.700 F200
G1 X-1.558 Y0.466 Z-1.700 F200
G1 X-1.580 Y0.656 Z-1.700 F200
G1 X-1.587 Y0.847 Z-1.700 F200
G1 X-1.587 Y5.503 Z-1.700 F200
G1 X-1.580 Y5.694 Z-1.700 F200
G1 X-1.558 Y5.884 Z-1.700 F200
G1 X-1.520 Y6.071 Z-1.700 F200
G1 X-1.468 Y6.255 Z-1.700 F200
G1 X-1.402 Y6.434 Z-1.700 F200
G1 X-1.322 Y6.608 Z-1.700 F200
G1 X-1.229 Y6.775 Z-1.700 F200
G1 X-1.123 Y6.933 Z-1.700 F200
G1 X-1.004 Y7.084 Z-1.700 F200
G1 X-0.875 Y7.224 Z-1.700 F200
G1 X-0.734 Y7.354 Z-1.700 F200
G1 X-0.584 Y7.472 Z-1.700 F200
G1 X-0.425 Y7.578 Z-1.700 F200
G1 X-0.258 Y7.672 Z-1.700 F200
G1 X-0.085 Y7.752 Z-1.700 F200
G1 X0.094 Y7.818 Z-1.700 F200
G1 X0.278 Y7.870 Z-1.700 F200
G1 X0.466 Y7.907 Z-1.700 F200
G1 X0.656 Y7.929 Z-1.700 F200
G1 X0.847 Y7.937 Z-1.700 F200
G1 X18.823 Y7.937 Z-1.700 F200
G1 X18.975 Y7.944 Z-1.700 F200
G1 X19.126 Y7.966 Z-1.700 F200
G1 X19.274 Y8.002 Z-1.700 F200
G1 X19.418 Y8.053 Z-1.700 F200
G1 X19.556 Y8.116 Z-1.700 F200
G1 X19.688 Y8.193 Z-1.700 F200
G1 X19.811 Y8.282 Z-1.700 F200
G1 X19.926 Y8.383 Z-1.700 F200
G1 X24.384 Y12.693 Z-1.700 F200
G1 X24.493 Y12.809 Z-1.700 F200
G1 X24.589 Y12.935 Z-1.700 F200
G1 X24.673 Y13.071 Z-1.700 F200
G1 X24.742 Y13.214 Z-1.700 F200
G1 X24.797 Y13.363 Z-1.700 F200
G1 X24.836 Y13.517 Z-1.700 F200
G1 X24.860 Y13.675 Z-1.700 F200
G1 X24.868 Y13.834 Z-1.700 F200
G1 X24.868 Y15.662 Z-1.700 F200
G1 X24.875 Y15.848 Z-1.700 F200
G1 X24.897 Y16.034 Z-1.700 F200
G1 X24.932 Y16.217 Z-1.700 F200
G1 X24.982 Y16.398 Z-1.700 F200
G1 X25.045 Y16.573 Z-1.700 F200
G1 X25.122 Y16.744 Z-1.700 F200
G1 X25.211 Y16.908 Z-1.700 F200
G1 X25.313 Y17.064 Z-1.700 F200
G1 X25.426 Y17.213 Z-1.700 F200
G1 X25.551 Y17.352 Z-1.700 F200
G1 X25.686 Y17.482 Z-1.700 F200
G1 X25.733 Y17.534 Z-1.700 F1500
G1 X25.768 Y17.597 Z-1.700 F1500
G1 X25.788 Y17.665 Z-1.700 F1500
G1 X25.792 Y17.736 Z-1.700 F1500
G1 X25.780 Y17.806 Z-1.700 F1500
G1 X25.753 Y17.872 Z-1.700 F1500
G1 X25.712 Y17.930 Z-1.700 F1500
G1 X25.501 Y18.167 Z-1.700 F1500
G1 X25.455 Y18.220 Z-1.692 F1500
G1 X25.410 Y18.270 Z-1.669 F1500
G1 X25.370 Y18.315 Z-1.631 F1500
G1 X25.337 Y18.353 Z-1.580 F1500
G1 X25.311 Y18.381 Z-1.520 F1500
G1 X25.296 Y18.399 Z-1.453 F1500
G1 X25.291 Y18.405 Z-1.383 F1500
G1 X25.291 Y18.405 Z2.000 F200
G1 X24.816 Y17.983 Z2.000 F200
G1 X24.816 Y17.983 Z1.000 F200
G1 X24.816 Y17.983 Z-1.065 F200
G1 X24.816 Y17.983 Z-1.483 F200
G1 X24.821 Y17.977 Z-1.553 F200
G1 X24.837 Y17.959 Z-1.620 F200
G1 X24.862 Y17.931 Z-1.680 F200
G1 X24.895 Y17.893 Z-1.731 F200
G1 X24.935 Y17.848 Z-1.769 F200
G1 X24.980 Y17.798 Z-1.792 F200
G1 X25.027 Y17.745 Z-1.800 F200
G1 X25.238 Y17.508 Z-1.800 F200
G1 X25.290 Y17.461 Z-1.800 F200
G1 X25.353 Y17.426 Z-1.800 F200
G1 X25.421 Y17.406 Z-1.800 F200
G1 X25.492 Y17.402 Z-1.800 F200
G1 X25.562 Y17.414 Z-1.800 F200
G1 X25.628 Y17.441 Z-1.800 F200
G1 X25.686 Y17.482 Z-1.800 F200
G1 X25.838 Y17.606 Z-1.800 F200
G1 X25.999 Y17.718 Z-1.800 F200
G1 X26.169 Y17.816 Z-1.800 F200
G1 X26.347 Y17.900 Z-1.800 F200
G1 X26.530 Y17.970 Z-1.800 F200
G1 X26.719 Y18.025 Z-1.800 F200
G1 X26.911 Y18.064 Z-1.800 F200
G1 X27.106 Y18.088 Z-1.800 F200
G1 X27.302 Y18.096 Z-1.800 F200
G1 X36.191 Y18.096 Z-1.800 F200
G1 X36.382 Y18.088 Z-1.800 F200
G1 X36.572 Y18.066 Z-1.800 F200
G1 X36.760 Y18.029 Z-1.800 F200
G1 X36.944 Y17.977 Z-1.800 F200
G1 X37.123 Y17.911 Z-1.800 F200
G1 X37.296 Y17.831 Z-1.800 F200
G1 X37.463 Y17.737 Z-1.800 F200
G1 X37.622 Y17.631 Z-1.800 F200
G1 X37.772 Y17.513 Z-1.800 F200
G1 X37.913 Y17.383 Z-1.800 F200
G1 X38.042 Y17.243 Z-1.800 F200
G1 X38.161 Y17.093 Z-1.800 F200
G1 X38.267 Y16.934 Z-1.800 F200
G1 X38.360 Y16.767 Z-1.800 F200
G1 X38.440 Y16.593 Z-1.800 F200
G1 X38.506 Y16.414 Z-1.800 F200
G1 X38.558 Y16.230 Z-1.800 F200
G1 X38.596 Y16.043 Z-1.800 F200
G1 X38.618 Y15.853 Z-1.800 F200
G1 X38.625 Y15.662 Z-1.800 F200
G1 X38.625 Y0.847 Z-1.800 F200
G1 X38.618 Y0.656 Z-1.800 F200
G1 X38.596 Y0.466 Z-1.800 F200
G1 X38.558 Y0.278 Z-1.800 F200
G1 X38.506 Y0.094 Z-1.800 F200
G1 X38.440 Y-0.085 Z-1.800 F200
G1 X38.360 Y-0.258 Z-1.800 F200
G1 X38.267 Y-0.425 Z-1.800 F200
G1 X38.161 Y-0.584 Z-1.800 F200
G1 X38.042 Y-0.734 Z-1.800 F200
G1 X37.913 Y-0.875 Z-1.800 F200
G1 X37.772 Y-1.004 Z-1.800 F200
G1 X37.622 Y-1.123 Z-1.800 F200
G1 X37.463 Y-1.229 Z-1.800 F200
G1 X37.296 Y-1.322 Z-1.800 F200
G1 X37.123 Y-1.402 Z-1.800 F200
G1 X36.944 Y-1.468 Z-1.800 F200
G1 X36.760 Y-1.520 Z-1.800 F200
G1 X36.572 Y-1.558 Z-1.800 F200
G1 X36.382 Y-1.580 Z-1.800 F200
G1 X36.191 Y-1.587 Z-1.800 F200
G1 X0.847 Y-1.587 Z-1.800 F200
G1 X0.656 Y-1.580 Z-1.800 F200
G1 X0.466 Y-1.558 Z-1.800 F200
G1 X0.278 Y-1.520 Z-1.800 F200
G1 X0.094 Y-1.468 Z-1.800 F200
G1 X-0.085 Y-1.402 Z-1.800 F200
G1 X-0.258 Y-1.322 Z-1.800 F200
G1 X-0.425 Y-1.229 Z-1.800 F200
G1 X-0.584 Y-1.123 Z-1.800 F200
G1 X-0.734 Y-1.004 Z-1.800 F200
G1 X-0.875 Y-0.875 Z-1.800 F200
G1 X-1.004 Y-0.734 Z-1.800 F200
G1 X-1.123 Y-0.584 Z-1.800 F200
G1 X-1.229 Y-0.425 Z-1.800 F200
G1 X-1.322 Y-0.258 Z-1.800 F200
G1 X-1.402 Y-0.085 Z-1.800 F200
G1 X-1.468 Y0.094 Z-1.800 F200
G1 X-1.520 Y0.278 Z-1.800 F200
G1 X-1.558 Y0.466 Z-1.800 F200
G1 X-1.580 Y0.656 Z-1.800 F200
G1 X-1.587 Y0.847 Z-1.800 F200
G1 X-1.587 Y5.503 Z-1.800 F200
G1 X-1.580 Y5.694 Z-1.800 F200
G1 X-1.558 Y5.884 Z-1.800 F200
G1 X-1.520 Y6.071 Z-1.800 F200
G1 X-1.468 Y6.255 Z-1.800 F200
G1 X-1.402 Y6.434 Z-1.800 F200
G1 X-1.322 Y6.608 Z-1.800 F200
G1 X-1.229 Y6.775 Z-1.800 F200
G1 X-1.123 Y6.933 Z-1.800 F200
G1 X-1.004 Y7.084 Z-1.800 F200
G1 X-0.875 Y7.224 Z-1.800 F200
G1 X-0.734 Y7.354 Z-1.800 F200
G1 X-0.584 Y7.472 Z-1.800 F200
G1 X-0.425 Y7.578 Z-1.800 F200
G1 X-0.258 Y7.672 Z-1.800 F200
G1 X-0.085 Y7.752 Z-1.800 F200
G1 X0.094 Y7.818 Z-1.800 F200
G1 X0.278 Y7.870 Z-1.800 F200
G1 X0.466 Y7.907 Z-1.800 F200
G1 X0.656 Y7.929 Z-1.800 F200
G1 X0.847 Y7.937 Z-1.800 F200
G1 X18.823 Y7.937 Z-1.800 F200
G1 X18.975 Y7.944 Z-1.800 F200
G1 X19.126 Y7.966 Z-1.800 F200
G1 X19.274 Y8.002 Z-1.800 F200
G1 X19.418 Y8.053 Z-1.800 F200
G1 X19.556 Y8.116 Z-1.800 F200
G1 X19.688 Y8.193 Z-1.800 F200
G1 X19.811 Y8.282 Z-1.800 F200
G1 X19.926 Y8.383 Z-1.800 F200
G1 X24.384 Y12.693 Z-1.800 F200
G1 X24.493 Y12.809 Z-1.800 F200
G1 X24.589 Y12.935 Z-1.800 F200
G1 X24.673 Y13.071 Z-1.800 F200
G1 X24.742 Y13.214 Z-1.800 F200
G1 X24.797 Y13.363 Z-1.800 F200
G1 X24.836 Y13.517 Z-1.800 F200
G1 X24.860 Y13.675 Z-1.800 F200
G1 X24.868 Y13.834 Z-1.800 F200
G1 X24.868 Y15.662 Z-1.800 F200
G1 X24.875 Y15.848 Z-1.800 F200
G1 X24.897 Y16.034 Z-1.800 F200
G1 X24.932 Y16.217 Z-1.800 F200
G1 X24.982 Y16.398 Z-1.800 F200
G1 X25.045 Y16.573 Z-1.800 F200
G1 X25.122 Y16.744 Z-1.800 F200
G1 X25.211 Y16.908 Z-1.800 F200
G1 X25.313 Y17.064 Z-1.800 F200
G1 X25.426 Y17.213 Z-1.800 F200
G1 X25.551 Y17.352 Z-1.800 F200
G1 X25.686 Y17.482 Z-1.800 F200
G1 X25.733 Y17.534 Z-1.800 F1500
G1 X25.768 Y17.597 Z-1.800 F1500
G1 X25.788 Y17.665 Z-1.800 F1500
G1 X25.792 Y17.736 Z-1.800 F1500
G1 X25.780 Y17.806 Z-1.800 F1500
G1 X25.753 Y17.872 Z-1.800 F1500
G1 X25.712 Y17.930 Z-1.800 F1500
G1 X25.501 Y18.167 Z-1.800 F1500
G1 X25.455 Y18.220 Z-1.792 F1500
G1 X25.410 Y18.270 Z-1.769 F1500
G1 X25.370 Y18.315 Z-1.731 F1500
G1 X25.337 Y18.353 Z-1.680 F1500
G1 X25.311 Y18.381 Z-1.620 F1500
G1 X25.296 Y18.399 Z-1.553 F1500
G1 X25.291 Y18.405 Z-1.483 F1500
G1 X25.291 Y18.405 Z2.000 F200
G1 X24.816 Y17.983 Z2.000 F200
G1 X24.816 Y17.983 Z1.000 F200
G1 X24.816 Y17.983 Z-1.165 F200
G1 X24.816 Y17.983 Z-1.583 F200
G1 X24.821 Y17.977 Z-1.653 F200
G1 X24.837 Y17.959 Z-1.720 F200
G1 X24.862 Y17.931 Z-1.780 F200
G1 X24.895 Y17.893 Z-1.831 F200
G1 X24.935 Y17.848 Z-1.869 F200
G1 X24.980 Y17.798 Z-1.892 F200
G1 X25.027 Y17.745 Z-1.900 F200
G1 X25.238 Y17.508 Z-1.900 F200
G1 X25.290 Y17.461 Z-1.900 F200
G1 X25.353 Y17.426 Z-1.900 F200
G1 X25.421 Y17.406 Z-1.900 F200
G1 X25.492 Y17.402 Z-1.900 F200
G1 X25.562 Y17.414 Z-1.900 F200
G1 X25.628 Y17.441 Z-1.900 F200
G1 X25.686 Y17.482 Z-1.900 F200
G1 X25.838 Y17.606 Z-1.900 F200
G1 X25.999 Y17.718 Z-1.900 F200
G1 X26.169 Y17.816 Z-1.900 F200
G1 X26.347 Y17.900 Z-1.900 F200
G1 X26.530 Y17.970 Z-1.900 F200
G1 X26.719 Y18.025 Z-1.900 F200
G1 X26.911 Y18.064 Z-1.900 F200
G1 X27.106 Y18.088 Z-1.900 F200
G1 X27.302 Y18.096 Z-1.900 F200
G1 X36.191 Y18.096 Z-1.900 F200
G1 X36.382 Y18.088 Z-1.900 F200
G1 X36.572 Y18.066 Z-1.900 F200
G1 X36.760 Y18.029 Z-1.900 F200
G1 X36.944 Y17.977 Z-1.900 F200
G1 X37.123 Y17.911 Z-1.900 F200
G1 X37.296 Y17.831 Z-1.900 F200
G1 X37.463 Y17.737 Z-1.900 F200
G1 X37.622 Y17.631 Z-1.900 F200
G1 X37.772 Y17.513 Z-1.900 F200
G1 X37.913 Y17.383 Z-1.900 F200
G1 X38.042 Y17.243 Z-1.900 F200
G1 X38.161 Y17.093 Z-1.900 F200
G1 X38.267 Y16.934 Z-1.900 F200
G1 X38.360 Y16.767 Z-1.900 F200
G1 X38.440 Y16.593 Z-1.900 F200
G1 X38.506 Y16.414 Z-1.900 F200
G1 X38.558 Y16.230 Z-1.900 F200
G1 X38.596 Y16.043 Z-1.900 F200
G1 X38.618 Y15.853 Z-1.900 F200
G1 X38.625 Y15.662 Z-1.900 F200
G1 X38.625 Y0.847 Z-1.900 F200
G1 X38.618 Y0.656 Z-1.900 F200
G1 X38.596 Y0.466 Z-1.900 F200
G1 X38.558 Y0.278 Z-1.900 F200
G1 X38.506 Y0.094 Z-1.900 F200
G1 X38.440 Y-0.085 Z-1.900 F200
G1 X38.360 Y-0.258 Z-1.900 F200
G1 X38.267 Y-0.425 Z-1.900 F200
G1 X38.161 Y-0.584 Z-1.900 F200
G1 X38.042 Y-0.734 Z-1.900 F200
G1 X37.913 Y-0.875 Z-1.900 F200
G1 X37.772 Y-1.004 Z-1.900 F200
G1 X37.622 Y-1.123 Z-1.900 F200
G1 X37.463 Y-1.229 Z-1.900 F200
G1 X37.296 Y-1.322 Z-1.900 F200
G1 X37.123 Y-1.402 Z-1.900 F200
G1 X36.944 Y-1.468 Z-1.900 F200
G1 X36.760 Y-1.520 Z-1.900 F200
G1 X36.572 Y-1.558 Z-1.900 F200
G1 X36.382 Y-1.580 Z-1.900 F200
G1 X36.191 Y-1.587 Z-1.900 F200
G1 X0.847 Y-1.587 Z-1.900 F200
G1 X0.656 Y-1.580 Z-1.900 F200
G1 X0.466 Y-1.558 Z-1.900 F200
G1 X0.278 Y-1.520 Z-1.900 F200
G1 X0.094 Y-1.468 Z-1.900 F200
G1 X-0.085 Y-1.402 Z-1.900 F200
G1 X-0.258 Y-1.322 Z-1.900 F200
G1 X-0.425 Y-1.229 Z-1.900 F200
G1 X-0.584 Y-1.123 Z-1.900 F200
G1 X-0.734 Y-1.004 Z-1.900 F200
G1 X-0.875 Y-0.875 Z-1.900 F200
G1 X-1.004 Y-0.734 Z-1.900 F200
G1 X-1.123 Y-0.584 Z-1.900 F200
G1 X-1.229 Y-0.425 Z-1.900 F200
G1 X-1.322 Y-0.258 Z-1.900 F200
G1 X-1.402 Y-0.085 Z-1.900 F200
G1 X-1.468 Y0.094 Z-1.900 F200
G1 X-1.520 Y0.278 Z-1.900 F200
G1 X-1.558 Y0.466 Z-1.900 F200
G1 X-1.580 Y0.656 Z-1.900 F200
G1 X-1.587 Y0.847 Z-1.900 F200
G1 X-1.587 Y5.503 Z-1.900 F200
G1 X-1.580 Y5.694 Z-1.900 F200
G1 X-1.558 Y5.884 Z-1.900 F200
G1 X-1.520 Y6.071 Z-1.900 F200
G1 X-1.468 Y6.255 Z-1.900 F200
G1 X-1.402 Y6.434 Z-1.900 F200
G1 X-1.322 Y6.608 Z-1.900 F200
G1 X-1.229 Y6.775 Z-1.900 F200
G1 X-1.123 Y6.933 Z-1.900 F200
G1 X-1.004 Y7.084 Z-1.900 F200
G1 X-0.875 Y7.224 Z-1.900 F200
G1 X-0.734 Y7.354 Z-1.900 F200
G1 X-0.584 Y7.472 Z-1.900 F200
G1 X-0.425 Y7.578 Z-1.900 F200
G1 X-0.258 Y7.672 Z-1.900 F200
G1 X-0.085 Y7.752 Z-1.900 F200
G1 X0.094 Y7.818 Z-1.900 F200
G1 X0.278 Y7.870 Z-1.900 F200
G1 X0.466 Y7.907 Z-1.900 F200
G1 X0.656 Y7.929 Z-1.900 F200
G1 X0.847 Y7.937 Z-1.900 F200
G1 X18.823 Y7.937 Z-1.900 F200
G1 X18.975 Y7.944 Z-1.900 F200
G1 X19.126 Y7.966 Z-1.900 F200
G1 X19.274 Y8.002 Z-1.900 F200
G1 X19.418 Y8.053 Z-1.900 F200
G1 X19.556 Y8.116 Z-1.900 F200
G1 X19.688 Y8.193 Z-1.900 F200
G1 X19.811 Y8.282 Z-1.900 F200
G1 X19.926 Y8.383 Z-1.900 F200
G1 X24.384 Y12.693 Z-1.900 F200
G1 X24.493 Y12.809 Z-1.900 F200
G1 X24.589 Y12.935 Z-1.900 F200
G1 X24.673 Y13.071 Z-1.900 F200
G1 X24.742 Y13.214 Z-1.900 F200
G1 X24.797 Y13.363 Z-1.900 F200
G1 X24.836 Y13.517 Z-1.900 F200
G1 X24.860 Y13.675 Z-1.900 F200
G1 X24.868 Y13.834 Z-1.900 F200
G1 X24.868 Y15.662 Z-1.900 F200
G1 X24.875 Y15.848 Z-1.900 F200
G1 X24.897 Y16.034 Z-1.900 F200
G1 X24.932 Y16.217 Z-1.900 F200
G1 X24.982 Y16.398 Z-1.900 F200
G1 X25.045 Y16.573 Z-1.900 F200
G1 X25.122 Y16.744 Z-1.900 F200
G1 X25.211 Y16.908 Z-1.900 F200
G1 X25.313 Y17.064 Z-1.900 F200
G1 X25.426 Y17.213 Z-1.900 F200
G1 X25.551 Y17.352 Z-1.900 F200
G1 X25.686 Y17.482 Z-1.900 F200
G1 X25.733 Y17.534 Z-1.900 F1500
G1 X25.768 Y17.597 Z-1.900 F1500
G1 X25.788 Y17.665 Z-1.900 F1500
G1 X25.792 Y17.736 Z-1.900 F1500
G1 X25.780 Y17.806 Z-1.900 F1500
G1 X25.753 Y17.872 Z-1.900 F1500
G1 X25.712 Y17.930 Z-1.900 F1500
G1 X25.501 Y18.167 Z-1.900 F1500
G1 X25.455 Y18.220 Z-1.892 F1500
G1 X25.410 Y18.270 Z-1.869 F1500
G1 X25.370 Y18.315 Z-1.831 F1500
G1 X25.337 Y18.353 Z-1.780 F1500
G1 X25.311 Y18.381 Z-1.720 F1500
G1 X25.296 Y18.399 Z-1.653 F1500
G1 X25.291 Y18.405 Z-1.583 F1500
G1 X25.291 Y18.405 Z2.000 F200
G1 X24.816 Y17.983 Z2.000 F200
G1 X24.816 Y17.983 Z1.000 F200
G1 X24.816 Y17.983 Z-1.265 F200
G1 X24.816 Y17.983 Z-1.683 F200
G1 X24.821 Y17.977 Z-1.753 F200
G1 X24.837 Y17.959 Z-1.820 F200
G1 X24.862 Y17.931 Z-1.880 F200
G1 X24.895 Y17.893 Z-1.931 F200
G1 X24.935 Y17.848 Z-1.969 F200
G1 X24.980 Y17.798 Z-1.992 F200
G1 X25.027 Y17.745 Z-2.000 F200
G1 X25.238 Y17.508 Z-2.000 F200
G1 X25.290 Y17.461 Z-2.000 F200
G1 X25.353 Y17.426 Z-2.000 F200
G1 X25.421 Y17.406 Z-2.000 F200
G1 X25.492 Y17.402 Z-2.000 F200
G1 X25.562 Y17.414 Z-2.000 F200
G1 X25.628 Y17.441 Z-2.000 F200
G1 X25.686 Y17.482 Z-2.000 F200
G1 X25.838 Y17.606 Z-2.000 F200
G1 X25.999 Y17.718 Z-2.000 F200
G1 X26.169 Y17.816 Z-2.000 F200
G1 X26.347 Y17.900 Z-2.000 F200
G1 X26.530 Y17.970 Z-2.000 F200
G1 X26.719 Y18.025 Z-2.000 F200
G1 X26.911 Y18.064 Z-2.000 F200
G1 X27.106 Y18.088 Z-2.000 F200
G1 X27.302 Y18.096 Z-2.000 F200
G1 X36.191 Y18.096 Z-2.000 F200
G1 X36.382 Y18.088 Z-2.000 F200
G1 X36.572 Y18.066 Z-2.000 F200
G1 X36.760 Y18.029 Z-2.000 F200
G1 X36.944 Y17.977 Z-2.000 F200
G1 X37.123 Y17.911 Z-2.000 F200
G1 X37.296 Y17.831 Z-2.000 F200
G1 X37.463 Y17.737 Z-2.000 F200
G1 X37.622 Y17.631 Z-2.000 F200
