;Titan-7 Holes
;Machine
;vendor: Snapmaker
;model: Desktop CNC
;description: Generic Snapmaker Marlin v20180725
M3 S10000
G4 P2
G21
G90

;Drill13
G0 X33.863 Y13.334 Z23.102
G0 X33.863 Y13.334 Z23.102
G0 X33.863 Y13.334 Z23.102
G0 X33.863 Y13.334 Z13.102
G0 X33.863 Y13.334 Z0.000
G1 X33.863 Y13.334 Z-7.349 F1000
G0 X33.863 Y13.334 Z13.102
G0 X33.863 Y3.175 Z13.102
G0 X33.863 Y3.175 Z13.102
G0 X33.863 Y3.175 Z0.000
G1 X33.863 Y3.175 Z-7.349 F1000
G0 X33.863 Y3.175 Z13.102
G0 X14.815 Y3.175 Z13.102
G0 X14.815 Y3.175 Z13.102
G0 X14.815 Y3.175 Z0.000
G1 X14.815 Y3.175 Z-7.349 F1000
G0 X14.815 Y3.175 Z13.102
G0 X3.175 Y3.175 Z13.102
G0 X3.175 Y3.175 Z13.102
G0 X3.175 Y3.175 Z0.000
G1 X3.175 Y3.175 Z-7.349 F1000
G0 X3.175 Y3.175 Z13.102
G0 X3.175 Y3.175 Z23.102
G0 X0.000 Y0.000
M5
