;Titan-7 Top Pocket Finisher
;Machine
;vendor: Snapmaker
;model: Desktop CNC
;description: Generic Snapmaker Marlin v20180725
M3 S10000
G4 P2
G21
G90
;When using Fusion for Personal Use, the feedrate of rapid
;moves is reduced to match the feedrate of cutting moves,
;which can increase machining time. Unrestricted rapid moves
;are available with a Fusion Subscription.

;Titan-7 Upper Pocket Finisher
G0 X19.444 Y9.664 Z10.000
G1 X19.444 Y9.664 Z10.000 F200
G1 X19.444 Y9.664 Z5.000 F200
G1 X19.444 Y9.664 Z0.635 F200
G1 X19.444 Y9.664 Z0.217 F200
G1 X19.444 Y9.656 Z0.147 F200
G1 X19.444 Y9.633 Z0.080 F200
G1 X19.444 Y9.595 Z0.020 F200
G1 X19.444 Y9.545 Z-0.031 F200
G1 X19.444 Y9.485 Z-0.069 F200
G1 X19.444 Y9.418 Z-0.092 F200
G1 X19.444 Y9.347 Z-0.100 F200
G1 X19.444 Y9.029 Z-0.100 F200
G1 X19.452 Y8.959 Z-0.100 F200
G1 X19.475 Y8.892 Z-0.100 F200
G1 X19.513 Y8.831 Z-0.100 F200
G1 X19.564 Y8.781 Z-0.100 F200
G1 X19.624 Y8.743 Z-0.100 F200
G1 X19.691 Y8.720 Z-0.100 F200
G1 X19.761 Y8.712 Z-0.100 F200
G1 X25.087 Y8.712 Z-0.100 F200
G1 X25.158 Y8.720 Z-0.100 F1500
G1 X25.225 Y8.743 Z-0.100 F1500
G1 X25.285 Y8.781 Z-0.100 F1500
G1 X25.335 Y8.831 Z-0.100 F1500
G1 X25.373 Y8.892 Z-0.100 F1500
G1 X25.397 Y8.959 Z-0.100 F1500
G1 X25.405 Y9.029 Z-0.100 F1500
G1 X25.405 Y9.347 Z-0.100 F1500
G1 X25.405 Y9.418 Z-0.092 F1500
G1 X25.405 Y9.485 Z-0.069 F1500
G1 X25.405 Y9.545 Z-0.031 F1500
G1 X25.405 Y9.595 Z0.020 F1500
G1 X25.405 Y9.633 Z0.080 F1500
G1 X25.405 Y9.656 Z0.147 F1500
G1 X25.405 Y9.664 Z0.217 F1500
G1 X25.405 Y9.664 Z5.000 F200
G1 X19.444 Y9.664 Z5.000 F200
G1 X19.444 Y9.664 Z0.535 F200
G1 X19.444 Y9.664 Z0.117 F200
G1 X19.444 Y9.656 Z0.047 F200
G1 X19.444 Y9.633 Z-0.020 F200
G1 X19.444 Y9.595 Z-0.080 F200
G1 X19.444 Y9.545 Z-0.131 F200
G1 X19.444 Y9.485 Z-0.169 F200
G1 X19.444 Y9.418 Z-0.192 F200
G1 X19.444 Y9.347 Z-0.200 F200
G1 X19.444 Y9.029 Z-0.200 F200
G1 X19.452 Y8.959 Z-0.200 F200
G1 X19.475 Y8.892 Z-0.200 F200
G1 X19.513 Y8.831 Z-0.200 F200
G1 X19.564 Y8.781 Z-0.200 F200
G1 X19.624 Y8.743 Z-0.200 F200
G1 X19.691 Y8.720 Z-0.200 F200
G1 X19.761 Y8.712 Z-0.200 F200
G1 X25.087 Y8.712 Z-0.200 F200
G1 X25.158 Y8.720 Z-0.200 F1500
G1 X25.225 Y8.743 Z-0.200 F1500
G1 X25.285 Y8.781 Z-0.200 F1500
G1 X25.335 Y8.831 Z-0.200 F1500
G1 X25.373 Y8.892 Z-0.200 F1500
G1 X25.397 Y8.959 Z-0.200 F1500
G1 X25.405 Y9.029 Z-0.200 F1500
G1 X25.405 Y9.347 Z-0.200 F1500
G1 X25.405 Y9.418 Z-0.192 F1500
G1 X25.405 Y9.485 Z-0.169 F1500
G1 X25.405 Y9.545 Z-0.131 F1500
G1 X25.405 Y9.595 Z-0.080 F1500
G1 X25.405 Y9.633 Z-0.020 F1500
G1 X25.405 Y9.656 Z0.047 F1500
G1 X25.405 Y9.664 Z0.117 F1500
G1 X25.405 Y9.664 Z5.000 F200
G1 X19.444 Y9.664 Z5.000 F200
G1 X19.444 Y9.664 Z0.435 F200
G1 X19.444 Y9.664 Z0.017 F200
G1 X19.444 Y9.656 Z-0.053 F200
G1 X19.444 Y9.633 Z-0.120 F200
G1 X19.444 Y9.595 Z-0.180 F200
G1 X19.444 Y9.545 Z-0.231 F200
G1 X19.444 Y9.485 Z-0.269 F200
G1 X19.444 Y9.418 Z-0.292 F200
G1 X19.444 Y9.347 Z-0.300 F200
G1 X19.444 Y9.029 Z-0.300 F200
G1 X19.452 Y8.959 Z-0.300 F200
G1 X19.475 Y8.892 Z-0.300 F200
G1 X19.513 Y8.831 Z-0.300 F200
G1 X19.564 Y8.781 Z-0.300 F200
G1 X19.624 Y8.743 Z-0.300 F200
G1 X19.691 Y8.720 Z-0.300 F200
G1 X19.761 Y8.712 Z-0.300 F200
G1 X25.087 Y8.712 Z-0.300 F200
G1 X25.158 Y8.720 Z-0.300 F1500
G1 X25.225 Y8.743 Z-0.300 F1500
G1 X25.285 Y8.781 Z-0.300 F1500
G1 X25.335 Y8.831 Z-0.300 F1500
G1 X25.373 Y8.892 Z-0.300 F1500
G1 X25.397 Y8.959 Z-0.300 F1500
G1 X25.405 Y9.029 Z-0.300 F1500
G1 X25.405 Y9.347 Z-0.300 F1500
G1 X25.405 Y9.418 Z-0.292 F1500
G1 X25.405 Y9.485 Z-0.269 F1500
G1 X25.405 Y9.545 Z-0.231 F1500
G1 X25.405 Y9.595 Z-0.180 F1500
G1 X25.405 Y9.633 Z-0.120 F1500
G1 X25.405 Y9.656 Z-0.053 F1500
G1 X25.405 Y9.664 Z0.017 F1500
G1 X25.405 Y9.664 Z5.000 F200
G1 X19.444 Y9.664 Z5.000 F200
G1 X19.444 Y9.664 Z0.335 F200
G1 X19.444 Y9.664 Z-0.083 F200
G1 X19.444 Y9.656 Z-0.153 F200
G1 X19.444 Y9.633 Z-0.220 F200
G1 X19.444 Y9.595 Z-0.280 F200
G1 X19.444 Y9.545 Z-0.331 F200
G1 X19.444 Y9.485 Z-0.369 F200
G1 X19.444 Y9.418 Z-0.392 F200
G1 X19.444 Y9.347 Z-0.400 F200
G1 X19.444 Y9.029 Z-0.400 F200
G1 X19.452 Y8.959 Z-0.400 F200
G1 X19.475 Y8.892 Z-0.400 F200
G1 X19.513 Y8.831 Z-0.400 F200
G1 X19.564 Y8.781 Z-0.400 F200
G1 X19.624 Y8.743 Z-0.400 F200
G1 X19.691 Y8.720 Z-0.400 F200
G1 X19.761 Y8.712 Z-0.400 F200
G1 X25.087 Y8.712 Z-0.400 F200
G1 X25.158 Y8.720 Z-0.400 F1500
G1 X25.225 Y8.743 Z-0.400 F1500
G1 X25.285 Y8.781 Z-0.400 F1500
G1 X25.335 Y8.831 Z-0.400 F1500
G1 X25.373 Y8.892 Z-0.400 F1500
G1 X25.397 Y8.959 Z-0.400 F1500
G1 X25.405 Y9.029 Z-0.400 F1500
G1 X25.405 Y9.347 Z-0.400 F1500
G1 X25.405 Y9.418 Z-0.392 F1500
G1 X25.405 Y9.485 Z-0.369 F1500
G1 X25.405 Y9.545 Z-0.331 F1500
G1 X25.405 Y9.595 Z-0.280 F1500
G1 X25.405 Y9.633 Z-0.220 F1500
G1 X25.405 Y9.656 Z-0.153 F1500
G1 X25.405 Y9.664 Z-0.083 F1500
G1 X25.405 Y9.664 Z5.000 F200
G1 X19.444 Y9.664 Z5.000 F200
G1 X19.444 Y9.664 Z0.235 F200
G1 X19.444 Y9.664 Z-0.183 F200
G1 X19.444 Y9.656 Z-0.253 F200
G1 X19.444 Y9.633 Z-0.320 F200
G1 X19.444 Y9.595 Z-0.380 F200
G1 X19.444 Y9.545 Z-0.431 F200
G1 X19.444 Y9.485 Z-0.469 F200
G1 X19.444 Y9.418 Z-0.492 F200
G1 X19.444 Y9.347 Z-0.500 F200
G1 X19.444 Y9.029 Z-0.500 F200
G1 X19.452 Y8.959 Z-0.500 F200
G1 X19.475 Y8.892 Z-0.500 F200
G1 X19.513 Y8.831 Z-0.500 F200
G1 X19.564 Y8.781 Z-0.500 F200
G1 X19.624 Y8.743 Z-0.500 F200
G1 X19.691 Y8.720 Z-0.500 F200
G1 X19.761 Y8.712 Z-0.500 F200
G1 X25.087 Y8.712 Z-0.500 F200
G1 X25.158 Y8.720 Z-0.500 F1500
G1 X25.225 Y8.743 Z-0.500 F1500
G1 X25.285 Y8.781 Z-0.500 F1500
G1 X25.335 Y8.831 Z-0.500 F1500
G1 X25.373 Y8.892 Z-0.500 F1500
G1 X25.397 Y8.959 Z-0.500 F1500
G1 X25.405 Y9.029 Z-0.500 F1500
G1 X25.405 Y9.347 Z-0.500 F1500
G1 X25.405 Y9.418 Z-0.492 F1500
G1 X25.405 Y9.485 Z-0.469 F1500
G1 X25.405 Y9.545 Z-0.431 F1500
G1 X25.405 Y9.595 Z-0.380 F1500
G1 X25.405 Y9.633 Z-0.320 F1500
G1 X25.405 Y9.656 Z-0.253 F1500
G1 X25.405 Y9.664 Z-0.183 F1500
G1 X25.405 Y9.664 Z5.000 F200
G1 X19.444 Y9.664 Z5.000 F200
G1 X19.444 Y9.664 Z0.135 F200
G1 X19.444 Y9.664 Z-0.283 F200
G1 X19.444 Y9.656 Z-0.353 F200
G1 X19.444 Y9.633 Z-0.420 F200
G1 X19.444 Y9.595 Z-0.480 F200
G1 X19.444 Y9.545 Z-0.531 F200
G1 X19.444 Y9.485 Z-0.569 F200
G1 X19.444 Y9.418 Z-0.592 F200
G1 X19.444 Y9.347 Z-0.600 F200
G1 X19.444 Y9.029 Z-0.600 F200
G1 X19.452 Y8.959 Z-0.600 F200
G1 X19.475 Y8.892 Z-0.600 F200
G1 X19.513 Y8.831 Z-0.600 F200
G1 X19.564 Y8.781 Z-0.600 F200
G1 X19.624 Y8.743 Z-0.600 F200
G1 X19.691 Y8.720 Z-0.600 F200
G1 X19.761 Y8.712 Z-0.600 F200
G1 X25.087 Y8.712 Z-0.600 F200
G1 X25.158 Y8.720 Z-0.600 F1500
G1 X25.225 Y8.743 Z-0.600 F1500
G1 X25.285 Y8.781 Z-0.600 F1500
G1 X25.335 Y8.831 Z-0.600 F1500
G1 X25.373 Y8.892 Z-0.600 F1500
G1 X25.397 Y8.959 Z-0.600 F1500
G1 X25.405 Y9.029 Z-0.600 F1500
G1 X25.405 Y9.347 Z-0.600 F1500
G1 X25.405 Y9.418 Z-0.592 F1500
G1 X25.405 Y9.485 Z-0.569 F1500
G1 X25.405 Y9.545 Z-0.531 F1500
G1 X25.405 Y9.595 Z-0.480 F1500
G1 X25.405 Y9.633 Z-0.420 F1500
G1 X25.405 Y9.656 Z-0.353 F1500
G1 X25.405 Y9.664 Z-0.283 F1500
G1 X25.405 Y9.664 Z5.000 F200
G1 X19.444 Y9.664 Z5.000 F200
G1 X19.444 Y9.664 Z0.035 F200
G1 X19.444 Y9.664 Z-0.383 F200
G1 X19.444 Y9.656 Z-0.453 F200
G1 X19.444 Y9.633 Z-0.520 F200
G1 X19.444 Y9.595 Z-0.580 F200
G1 X19.444 Y9.545 Z-0.631 F200
G1 X19.444 Y9.485 Z-0.669 F200
G1 X19.444 Y9.418 Z-0.692 F200
G1 X19.444 Y9.347 Z-0.700 F200
G1 X19.444 Y9.029 Z-0.700 F200
G1 X19.452 Y8.959 Z-0.700 F200
G1 X19.475 Y8.892 Z-0.700 F200
G1 X19.513 Y8.831 Z-0.700 F200
G1 X19.564 Y8.781 Z-0.700 F200
G1 X19.624 Y8.743 Z-0.700 F200
G1 X19.691 Y8.720 Z-0.700 F200
G1 X19.761 Y8.712 Z-0.700 F200
G1 X25.087 Y8.712 Z-0.700 F200
G1 X25.158 Y8.720 Z-0.700 F1500
G1 X25.225 Y8.743 Z-0.700 F1500
G1 X25.285 Y8.781 Z-0.700 F1500
G1 X25.335 Y8.831 Z-0.700 F1500
G1 X25.373 Y8.892 Z-0.700 F1500
G1 X25.397 Y8.959 Z-0.700 F1500
G1 X25.405 Y9.029 Z-0.700 F1500
G1 X25.405 Y9.347 Z-0.700 F1500
G1 X25.405 Y9.418 Z-0.692 F1500
G1 X25.405 Y9.485 Z-0.669 F1500
G1 X25.405 Y9.545 Z-0.631 F1500
G1 X25.405 Y9.595 Z-0.580 F1500
G1 X25.405 Y9.633 Z-0.520 F1500
G1 X25.405 Y9.656 Z-0.453 F1500
G1 X25.405 Y9.664 Z-0.383 F1500
G1 X25.405 Y9.664 Z5.000 F200
G1 X19.444 Y9.664 Z5.000 F200
G1 X19.444 Y9.664 Z-0.065 F200
G1 X19.444 Y9.664 Z-0.483 F200
G1 X19.444 Y9.656 Z-0.553 F200
G1 X19.444 Y9.633 Z-0.620 F200
G1 X19.444 Y9.595 Z-0.680 F200
G1 X19.444 Y9.545 Z-0.731 F200
G1 X19.444 Y9.485 Z-0.769 F200
G1 X19.444 Y9.418 Z-0.792 F200
G1 X19.444 Y9.347 Z-0.800 F200
G1 X19.444 Y9.029 Z-0.800 F200
G1 X19.452 Y8.959 Z-0.800 F200
G1 X19.475 Y8.892 Z-0.800 F200
G1 X19.513 Y8.831 Z-0.800 F200
G1 X19.564 Y8.781 Z-0.800 F200
G1 X19.624 Y8.743 Z-0.800 F200
G1 X19.691 Y8.720 Z-0.800 F200
G1 X19.761 Y8.712 Z-0.800 F200
G1 X25.087 Y8.712 Z-0.800 F200
G1 X25.158 Y8.720 Z-0.800 F1500
G1 X25.225 Y8.743 Z-0.800 F1500
G1 X25.285 Y8.781 Z-0.800 F1500
G1 X25.335 Y8.831 Z-0.800 F1500
G1 X25.373 Y8.892 Z-0.800 F1500
G1 X25.397 Y8.959 Z-0.800 F1500
G1 X25.405 Y9.029 Z-0.800 F1500
G1 X25.405 Y9.347 Z-0.800 F1500
G1 X25.405 Y9.418 Z-0.792 F1500
G1 X25.405 Y9.485 Z-0.769 F1500
G1 X25.405 Y9.545 Z-0.731 F1500
G1 X25.405 Y9.595 Z-0.680 F1500
G1 X25.405 Y9.633 Z-0.620 F1500
G1 X25.405 Y9.656 Z-0.553 F1500
G1 X25.405 Y9.664 Z-0.483 F1500
G1 X25.405 Y9.664 Z5.000 F200
G1 X19.444 Y9.664 Z5.000 F200
G1 X19.444 Y9.664 Z-0.165 F200
G1 X19.444 Y9.664 Z-0.583 F200
G1 X19.444 Y9.656 Z-0.653 F200
G1 X19.444 Y9.633 Z-0.720 F200
G1 X19.444 Y9.595 Z-0.780 F200
G1 X19.444 Y9.545 Z-0.831 F200
G1 X19.444 Y9.485 Z-0.869 F200
G1 X19.444 Y9.418 Z-0.892 F200
G1 X19.444 Y9.347 Z-0.900 F200
G1 X19.444 Y9.029 Z-0.900 F200
G1 X19.452 Y8.959 Z-0.900 F200
G1 X19.475 Y8.892 Z-0.900 F200
G1 X19.513 Y8.831 Z-0.900 F200
G1 X19.564 Y8.781 Z-0.900 F200
G1 X19.624 Y8.743 Z-0.900 F200
G1 X19.691 Y8.720 Z-0.900 F200
G1 X19.761 Y8.712 Z-0.900 F200
G1 X25.087 Y8.712 Z-0.900 F200
G1 X25.158 Y8.720 Z-0.900 F1500
G1 X25.225 Y8.743 Z-0.900 F1500
G1 X25.285 Y8.781 Z-0.900 F1500
G1 X25.335 Y8.831 Z-0.900 F1500
G1 X25.373 Y8.892 Z-0.900 F1500
G1 X25.397 Y8.959 Z-0.900 F1500
G1 X25.405 Y9.029 Z-0.900 F1500
G1 X25.405 Y9.347 Z-0.900 F1500
G1 X25.405 Y9.418 Z-0.892 F1500
G1 X25.405 Y9.485 Z-0.869 F1500
G1 X25.405 Y9.545 Z-0.831 F1500
G1 X25.405 Y9.595 Z-0.780 F1500
G1 X25.405 Y9.633 Z-0.720 F1500
G1 X25.405 Y9.656 Z-0.653 F1500
G1 X25.405 Y9.664 Z-0.583 F1500
G1 X25.405 Y9.664 Z5.000 F200
G1 X19.444 Y9.664 Z5.000 F200
G1 X19.444 Y9.664 Z-0.265 F200
G1 X19.444 Y9.664 Z-0.683 F200
G1 X19.444 Y9.656 Z-0.753 F200
G1 X19.444 Y9.633 Z-0.820 F200
G1 X19.444 Y9.595 Z-0.880 F200
G1 X19.444 Y9.545 Z-0.931 F200
G1 X19.444 Y9.485 Z-0.969 F200
G1 X19.444 Y9.418 Z-0.992 F200
G1 X19.444 Y9.347 Z-1.000 F200
G1 X19.444 Y9.029 Z-1.000 F200
G1 X19.452 Y8.959 Z-1.000 F200
G1 X19.475 Y8.892 Z-1.000 F200
G1 X19.513 Y8.831 Z-1.000 F200
G1 X19.564 Y8.781 Z-1.000 F200
G1 X19.624 Y8.743 Z-1.000 F200
G1 X19.691 Y8.720 Z-1.000 F200
G1 X19.761 Y8.712 Z-1.000 F200
G1 X25.087 Y8.712 Z-1.000 F200
G1 X25.158 Y8.720 Z-1.000 F1500
G1 X25.225 Y8.743 Z-1.000 F1500
G1 X25.285 Y8.781 Z-1.000 F1500
G1 X25.335 Y8.831 Z-1.000 F1500
G1 X25.373 Y8.892 Z-1.000 F1500
G1 X25.397 Y8.959 Z-1.000 F1500
G1 X25.405 Y9.029 Z-1.000 F1500
G1 X25.405 Y9.347 Z-1.000 F1500
G1 X25.405 Y9.418 Z-0.992 F1500
G1 X25.405 Y9.485 Z-0.969 F1500
G1 X25.405 Y9.545 Z-0.931 F1500
G1 X25.405 Y9.595 Z-0.880 F1500
G1 X25.405 Y9.633 Z-0.820 F1500
G1 X25.405 Y9.656 Z-0.753 F1500
G1 X25.405 Y9.664 Z-0.683 F1500
G1 X25.405 Y9.664 Z5.000 F200
G1 X19.444 Y9.664 Z5.000 F200
G1 X19.444 Y9.664 Z-0.365 F200
G1 X19.444 Y9.664 Z-0.783 F200
G1 X19.444 Y9.656 Z-0.853 F200
G1 X19.444 Y9.633 Z-0.920 F200
G1 X19.444 Y9.595 Z-0.980 F200
G1 X19.444 Y9.545 Z-1.031 F200
G1 X19.444 Y9.485 Z-1.069 F200
G1 X19.444 Y9.418 Z-1.092 F200
G1 X19.444 Y9.347 Z-1.100 F200
G1 X19.444 Y9.029 Z-1.100 F200
G1 X19.452 Y8.959 Z-1.100 F200
G1 X19.475 Y8.892 Z-1.100 F200
G1 X19.513 Y8.831 Z-1.100 F200
G1 X19.564 Y8.781 Z-1.100 F200
G1 X19.624 Y8.743 Z-1.100 F200
G1 X19.691 Y8.720 Z-1.100 F200
G1 X19.761 Y8.712 Z-1.100 F200
G1 X25.087 Y8.712 Z-1.100 F200
G1 X25.158 Y8.720 Z-1.100 F1500
G1 X25.225 Y8.743 Z-1.100 F1500
G1 X25.285 Y8.781 Z-1.100 F1500
G1 X25.335 Y8.831 Z-1.100 F1500
G1 X25.373 Y8.892 Z-1.100 F1500
G1 X25.397 Y8.959 Z-1.100 F1500
G1 X25.405 Y9.029 Z-1.100 F1500
G1 X25.405 Y9.347 Z-1.100 F1500
G1 X25.405 Y9.418 Z-1.092 F1500
G1 X25.405 Y9.485 Z-1.069 F1500
G1 X25.405 Y9.545 Z-1.031 F1500
G1 X25.405 Y9.595 Z-0.980 F1500
G1 X25.405 Y9.633 Z-0.920 F1500
G1 X25.405 Y9.656 Z-0.853 F1500
G1 X25.405 Y9.664 Z-0.783 F1500
G1 X25.405 Y9.664 Z5.000 F200
G1 X19.444 Y9.664 Z5.000 F200
G1 X19.444 Y9.664 Z-0.465 F200
G1 X19.444 Y9.664 Z-0.883 F200
G1 X19.444 Y9.656 Z-0.953 F200
G1 X19.444 Y9.633 Z-1.020 F200
G1 X19.444 Y9.595 Z-1.080 F200
G1 X19.444 Y9.545 Z-1.131 F200
G1 X19.444 Y9.485 Z-1.169 F200
G1 X19.444 Y9.418 Z-1.192 F200
G1 X19.444 Y9.347 Z-1.200 F200
G1 X19.444 Y9.029 Z-1.200 F200
G1 X19.452 Y8.959 Z-1.200 F200
G1 X19.475 Y8.892 Z-1.200 F200
G1 X19.513 Y8.831 Z-1.200 F200
G1 X19.564 Y8.781 Z-1.200 F200
G1 X19.624 Y8.743 Z-1.200 F200
G1 X19.691 Y8.720 Z-1.200 F200
G1 X19.761 Y8.712 Z-1.200 F200
G1 X25.087 Y8.712 Z-1.200 F200
G1 X25.158 Y8.720 Z-1.200 F1500
G1 X25.225 Y8.743 Z-1.200 F1500
G1 X25.285 Y8.781 Z-1.200 F1500
G1 X25.335 Y8.831 Z-1.200 F1500
G1 X25.373 Y8.892 Z-1.200 F1500
G1 X25.397 Y8.959 Z-1.200 F1500
G1 X25.405 Y9.029 Z-1.200 F1500
G1 X25.405 Y9.347 Z-1.200 F1500
G1 X25.405 Y9.418 Z-1.192 F1500
G1 X25.405 Y9.485 Z-1.169 F1500
G1 X25.405 Y9.545 Z-1.131 F1500
G1 X25.405 Y9.595 Z-1.080 F1500
G1 X25.405 Y9.633 Z-1.020 F1500
G1 X25.405 Y9.656 Z-0.953 F1500
G1 X25.405 Y9.664 Z-0.883 F1500
G1 X25.405 Y9.664 Z5.000 F200
G1 X19.444 Y9.664 Z5.000 F200
G1 X19.444 Y9.664 Z-0.565 F200
G1 X19.444 Y9.664 Z-0.983 F200
G1 X19.444 Y9.656 Z-1.053 F200
G1 X19.444 Y9.633 Z-1.120 F200
G1 X19.444 Y9.595 Z-1.180 F200
G1 X19.444 Y9.545 Z-1.231 F200
G1 X19.444 Y9.485 Z-1.269 F200
G1 X19.444 Y9.418 Z-1.292 F200
G1 X19.444 Y9.347 Z-1.300 F200
G1 X19.444 Y9.029 Z-1.300 F200
G1 X19.452 Y8.959 Z-1.300 F200
G1 X19.475 Y8.892 Z-1.300 F200
G1 X19.513 Y8.831 Z-1.300 F200
G1 X19.564 Y8.781 Z-1.300 F200
G1 X19.624 Y8.743 Z-1.300 F200
G1 X19.691 Y8.720 Z-1.300 F200
G1 X19.761 Y8.712 Z-1.300 F200
G1 X25.087 Y8.712 Z-1.300 F200
G1 X25.158 Y8.720 Z-1.300 F1500
G1 X25.225 Y8.743 Z-1.300 F1500
G1 X25.285 Y8.781 Z-1.300 F1500
G1 X25.335 Y8.831 Z-1.300 F1500
G1 X25.373 Y8.892 Z-1.300 F1500
G1 X25.397 Y8.959 Z-1.300 F1500
G1 X25.405 Y9.029 Z-1.300 F1500
G1 X25.405 Y9.347 Z-1.300 F1500
G1 X25.405 Y9.418 Z-1.292 F1500
G1 X25.405 Y9.485 Z-1.269 F1500
G1 X25.405 Y9.545 Z-1.231 F1500
G1 X25.405 Y9.595 Z-1.180 F1500
G1 X25.405 Y9.633 Z-1.120 F1500
G1 X25.405 Y9.656 Z-1.053 F1500
G1 X25.405 Y9.664 Z-0.983 F1500
G1 X25.405 Y9.664 Z5.000 F200
G1 X19.444 Y9.664 Z5.000 F200
G1 X19.444 Y9.664 Z-0.665 F200
G1 X19.444 Y9.664 Z-1.083 F200
G1 X19.444 Y9.656 Z-1.153 F200
G1 X19.444 Y9.633 Z-1.220 F200
G1 X19.444 Y9.595 Z-1.280 F200
G1 X19.444 Y9.545 Z-1.331 F200
G1 X19.444 Y9.485 Z-1.369 F200
G1 X19.444 Y9.418 Z-1.392 F200
G1 X19.444 Y9.347 Z-1.400 F200
G1 X19.444 Y9.029 Z-1.400 F200
G1 X19.452 Y8.959 Z-1.400 F200
G1 X19.475 Y8.892 Z-1.400 F200
G1 X19.513 Y8.831 Z-1.400 F200
G1 X19.564 Y8.781 Z-1.400 F200
G1 X19.624 Y8.743 Z-1.400 F200
G1 X19.691 Y8.720 Z-1.400 F200
G1 X19.761 Y8.712 Z-1.400 F200
G1 X25.087 Y8.712 Z-1.400 F200
G1 X25.158 Y8.720 Z-1.400 F1500
G1 X25.225 Y8.743 Z-1.400 F1500
G1 X25.285 Y8.781 Z-1.400 F1500
G1 X25.335 Y8.831 Z-1.400 F1500
G1 X25.373 Y8.892 Z-1.400 F1500
G1 X25.397 Y8.959 Z-1.400 F1500
G1 X25.405 Y9.029 Z-1.400 F1500
G1 X25.405 Y9.347 Z-1.400 F1500
G1 X25.405 Y9.418 Z-1.392 F1500
G1 X25.405 Y9.485 Z-1.369 F1500
G1 X25.405 Y9.545 Z-1.331 F1500
G1 X25.405 Y9.595 Z-1.280 F1500
G1 X25.405 Y9.633 Z-1.220 F1500
G1 X25.405 Y9.656 Z-1.153 F1500
G1 X25.405 Y9.664 Z-1.083 F1500
G1 X25.405 Y9.664 Z5.000 F200
G1 X19.444 Y9.664 Z5.000 F200
G1 X19.444 Y9.664 Z-0.765 F200
G1 X19.444 Y9.664 Z-1.183 F200
G1 X19.444 Y9.656 Z-1.253 F200
G1 X19.444 Y9.633 Z-1.320 F200
G1 X19.444 Y9.595 Z-1.380 F200
G1 X19.444 Y9.545 Z-1.431 F200
G1 X19.444 Y9.485 Z-1.469 F200
G1 X19.444 Y9.418 Z-1.492 F200
G1 X19.444 Y9.347 Z-1.500 F200
G1 X19.444 Y9.029 Z-1.500 F200
G1 X19.452 Y8.959 Z-1.500 F200
G1 X19.475 Y8.892 Z-1.500 F200
G1 X19.513 Y8.831 Z-1.500 F200
G1 X19.564 Y8.781 Z-1.500 F200
G1 X19.624 Y8.743 Z-1.500 F200
G1 X19.691 Y8.720 Z-1.500 F200
G1 X19.761 Y8.712 Z-1.500 F200
G1 X25.087 Y8.712 Z-1.500 F200
G1 X25.158 Y8.720 Z-1.500 F1500
G1 X25.225 Y8.743 Z-1.500 F1500
G1 X25.285 Y8.781 Z-1.500 F1500
G1 X25.335 Y8.831 Z-1.500 F1500
G1 X25.373 Y8.892 Z-1.500 F1500
G1 X25.397 Y8.959 Z-1.500 F1500
G1 X25.405 Y9.029 Z-1.500 F1500
G1 X25.405 Y9.347 Z-1.500 F1500
G1 X25.405 Y9.418 Z-1.492 F1500
G1 X25.405 Y9.485 Z-1.469 F1500
G1 X25.405 Y9.545 Z-1.431 F1500
G1 X25.405 Y9.595 Z-1.380 F1500
G1 X25.405 Y9.633 Z-1.320 F1500
G1 X25.405 Y9.656 Z-1.253 F1500
G1 X25.405 Y9.664 Z-1.183 F1500
G1 X25.405 Y9.664 Z5.000 F200
G1 X19.444 Y9.664 Z5.000 F200
G1 X19.444 Y9.664 Z-0.865 F200
G1 X19.444 Y9.664 Z-1.283 F200
G1 X19.444 Y9.656 Z-1.353 F200
G1 X19.444 Y9.633 Z-1.420 F200
G1 X19.444 Y9.595 Z-1.480 F200
G1 X19.444 Y9.545 Z-1.531 F200
G1 X19.444 Y9.485 Z-1.569 F200
G1 X19.444 Y9.418 Z-1.592 F200
G1 X19.444 Y9.347 Z-1.600 F200
G1 X19.444 Y9.029 Z-1.600 F200
G1 X19.452 Y8.959 Z-1.600 F200
G1 X19.475 Y8.892 Z-1.600 F200
G1 X19.513 Y8.831 Z-1.600 F200
G1 X19.564 Y8.781 Z-1.600 F200
G1 X19.624 Y8.743 Z-1.600 F200
G1 X19.691 Y8.720 Z-1.600 F200
G1 X19.761 Y8.712 Z-1.600 F200
G1 X25.087 Y8.712 Z-1.600 F200
G1 X25.158 Y8.720 Z-1.600 F1500
G1 X25.225 Y8.743 Z-1.600 F1500
G1 X25.285 Y8.781 Z-1.600 F1500
G1 X25.335 Y8.831 Z-1.600 F1500
G1 X25.373 Y8.892 Z-1.600 F1500
G1 X25.397 Y8.959 Z-1.600 F1500
G1 X25.405 Y9.029 Z-1.600 F1500
G1 X25.405 Y9.347 Z-1.600 F1500
G1 X25.405 Y9.418 Z-1.592 F1500
G1 X25.405 Y9.485 Z-1.569 F1500
G1 X25.405 Y9.545 Z-1.531 F1500
G1 X25.405 Y9.595 Z-1.480 F1500
G1 X25.405 Y9.633 Z-1.420 F1500
G1 X25.405 Y9.656 Z-1.353 F1500
G1 X25.405 Y9.664 Z-1.283 F1500
G1 X25.405 Y9.664 Z5.000 F200
G1 X19.444 Y9.664 Z5.000 F200
G1 X19.444 Y9.664 Z-0.965 F200
G1 X19.444 Y9.664 Z-1.383 F200
G1 X19.444 Y9.656 Z-1.453 F200
G1 X19.444 Y9.633 Z-1.520 F200
G1 X19.444 Y9.595 Z-1.580 F200
G1 X19.444 Y9.545 Z-1.631 F200
G1 X19.444 Y9.485 Z-1.669 F200
G1 X19.444 Y9.418 Z-1.692 F200
G1 X19.444 Y9.347 Z-1.700 F200
G1 X19.444 Y9.029 Z-1.700 F200
G1 X19.452 Y8.959 Z-1.700 F200
G1 X19.475 Y8.892 Z-1.700 F200
G1 X19.513 Y8.831 Z-1.700 F200
G1 X19.564 Y8.781 Z-1.700 F200
G1 X19.624 Y8.743 Z-1.700 F200
G1 X19.691 Y8.720 Z-1.700 F200
G1 X19.761 Y8.712 Z-1.700 F200
G1 X25.087 Y8.712 Z-1.700 F200
G1 X25.158 Y8.720 Z-1.700 F1500
G1 X25.225 Y8.743 Z-1.700 F1500
G1 X25.285 Y8.781 Z-1.700 F1500
G1 X25.335 Y8.831 Z-1.700 F1500
G1 X25.373 Y8.892 Z-1.700 F1500
G1 X25.397 Y8.959 Z-1.700 F1500
G1 X25.405 Y9.029 Z-1.700 F1500
G1 X25.405 Y9.347 Z-1.700 F1500
G1 X25.405 Y9.418 Z-1.692 F1500
G1 X25.405 Y9.485 Z-1.669 F1500
G1 X25.405 Y9.545 Z-1.631 F1500
G1 X25.405 Y9.595 Z-1.580 F1500
G1 X25.405 Y9.633 Z-1.520 F1500
G1 X25.405 Y9.656 Z-1.453 F1500
G1 X25.405 Y9.664 Z-1.383 F1500
G1 X25.405 Y9.664 Z5.000 F200
G1 X19.444 Y9.664 Z5.000 F200
G1 X19.444 Y9.664 Z-1.065 F200
G1 X19.444 Y9.664 Z-1.483 F200
G1 X19.444 Y9.656 Z-1.553 F200
G1 X19.444 Y9.633 Z-1.620 F200
G1 X19.444 Y9.595 Z-1.680 F200
G1 X19.444 Y9.545 Z-1.731 F200
G1 X19.444 Y9.485 Z-1.769 F200
G1 X19.444 Y9.418 Z-1.792 F200
G1 X19.444 Y9.347 Z-1.800 F200
G1 X19.444 Y9.029 Z-1.800 F200
G1 X19.452 Y8.959 Z-1.800 F200
G1 X19.475 Y8.892 Z-1.800 F200
G1 X19.513 Y8.831 Z-1.800 F200
G1 X19.564 Y8.781 Z-1.800 F200
G1 X19.624 Y8.743 Z-1.800 F200
G1 X19.691 Y8.720 Z-1.800 F200
G1 X19.761 Y8.712 Z-1.800 F200
G1 X25.087 Y8.712 Z-1.800 F200
G1 X25.158 Y8.720 Z-1.800 F1500
G1 X25.225 Y8.743 Z-1.800 F1500
G1 X25.285 Y8.781 Z-1.800 F1500
G1 X25.335 Y8.831 Z-1.800 F1500
G1 X25.373 Y8.892 Z-1.800 F1500
G1 X25.397 Y8.959 Z-1.800 F1500
G1 X25.405 Y9.029 Z-1.800 F1500
G1 X25.405 Y9.347 Z-1.800 F1500
G1 X25.405 Y9.418 Z-1.792 F1500
G1 X25.405 Y9.485 Z-1.769 F1500
G1 X25.405 Y9.545 Z-1.731 F1500
G1 X25.405 Y9.595 Z-1.680 F1500
G1 X25.405 Y9.633 Z-1.620 F1500
G1 X25.405 Y9.656 Z-1.553 F1500
G1 X25.405 Y9.664 Z-1.483 F1500
G1 X25.405 Y9.664 Z5.000 F200
G1 X19.444 Y9.664 Z5.000 F200
G1 X19.444 Y9.664 Z-1.165 F200
G1 X19.444 Y9.664 Z-1.583 F200
G1 X19.444 Y9.656 Z-1.653 F200
G1 X19.444 Y9.633 Z-1.720 F200
G1 X19.444 Y9.595 Z-1.780 F200
G1 X19.444 Y9.545 Z-1.831 F200
G1 X19.444 Y9.485 Z-1.869 F200
G1 X19.444 Y9.418 Z-1.892 F200
G1 X19.444 Y9.347 Z-1.900 F200
G1 X19.444 Y9.029 Z-1.900 F200
G1 X19.452 Y8.959 Z-1.900 F200
G1 X19.475 Y8.892 Z-1.900 F200
G1 X19.513 Y8.831 Z-1.900 F200
G1 X19.564 Y8.781 Z-1.900 F200
G1 X19.624 Y8.743 Z-1.900 F200
G1 X19.691 Y8.720 Z-1.900 F200
G1 X19.761 Y8.712 Z-1.900 F200
G1 X25.087 Y8.712 Z-1.900 F200
G1 X25.158 Y8.720 Z-1.900 F1500
G1 X25.225 Y8.743 Z-1.900 F1500
G1 X25.285 Y8.781 Z-1.900 F1500
G1 X25.335 Y8.831 Z-1.900 F1500
G1 X25.373 Y8.892 Z-1.900 F1500
G1 X25.397 Y8.959 Z-1.900 F1500
G1 X25.405 Y9.029 Z-1.900 F1500
G1 X25.405 Y9.347 Z-1.900 F1500
G1 X25.405 Y9.418 Z-1.892 F1500
G1 X25.405 Y9.485 Z-1.869 F1500
G1 X25.405 Y9.545 Z-1.831 F1500
G1 X25.405 Y9.595 Z-1.780 F1500
G1 X25.405 Y9.633 Z-1.720 F1500
G1 X25.405 Y9.656 Z-1.653 F1500
G1 X25.405 Y9.664 Z-1.583 F1500
G1 X25.405 Y9.664 Z5.000 F200
G1 X19.444 Y9.664 Z5.000 F200
G1 X19.444 Y9.664 Z-1.265 F200
G1 X19.444 Y9.664 Z-1.683 F200
G1 X19.444 Y9.656 Z-1.753 F200
G1 X19.444 Y9.633 Z-1.820 F200
G1 X19.444 Y9.595 Z-1.880 F200
G1 X19.444 Y9.545 Z-1.931 F200
G1 X19.444 Y9.485 Z-1.969 F200
G1 X19.444 Y9.418 Z-1.992 F200
G1 X19.444 Y9.347 Z-2.000 F200
G1 X19.444 Y9.029 Z-2.000 F200
G1 X19.452 Y8.959 Z-2.000 F200
G1 X19.475 Y8.892 Z-2.000 F200
G1 X19.513 Y8.831 Z-2.000 F200
G1 X19.564 Y8.781 Z-2.000 F200
G1 X19.624 Y8.743 Z-2.000 F200
G1 X19.691 Y8.720 Z-2.000 F200
G1 X19.761 Y8.712 Z-2.000 F200
G1 X25.087 Y8.712 Z-2.000 F200
G1 X25.158 Y8.720 Z-2.000 F1500
G1 X25.225 Y8.743 Z-2.000 F1500
G1 X25.285 Y8.781 Z-2.000 F1500
G1 X25.335 Y8.831 Z-2.000 F1500
G1 X25.373 Y8.892 Z-2.000 F1500
G1 X25.397 Y8.959 Z-2.000 F1500
G1 X25.405 Y9.029 Z-2.000 F1500
G1 X25.405 Y9.347 Z-2.000 F1500
G1 X25.405 Y9.418 Z-1.992 F1500
G1 X25.405 Y9.485 Z-1.969 F1500
G1 X25.405 Y9.545 Z-1.931 F1500
G1 X25.405 Y9.595 Z-1.880 F1500
G1 X25.405 Y9.633 Z-1.820 F1500
G1 X25.405 Y9.656 Z-1.753 F1500
G1 X25.405 Y9.664 Z-1.683 F1500
G1 X25.405 Y9.664 Z5.000 F200
G1 X19.444 Y9.664 Z5.000 F200
G1 X19.444 Y9.664 Z-1.365 F200
G1 X19.444 Y9.664 Z-1.741 F200
G1 X19.444 Y9.656 Z-1.811 F200
G1 X19.444 Y9.633 Z-1.878 F200
G1 X19.444 Y9.595 Z-1.939 F200
G1 X19.444 Y9.545 Z-1.989 F200
G1 X19.444 Y9.485 Z-2.027 F200
G1 X19.444 Y9.418 Z-2.050 F200
G1 X19.444 Y9.347 Z-2.058 F200
G1 X19.444 Y9.029 Z-2.058 F200
G1 X19.452 Y8.959 Z-2.058 F200
G1 X19.475 Y8.892 Z-2.058 F200
G1 X19.513 Y8.831 Z-2.058 F200
G1 X19.564 Y8.781 Z-2.058 F200
G1 X19.624 Y8.743 Z-2.058 F200
G1 X19.691 Y8.720 Z-2.058 F200
G1 X19.761 Y8.712 Z-2.058 F200
G1 X25.087 Y8.712 Z-2.058 F200
G1 X25.158 Y8.720 Z-2.058 F1500
G1 X25.225 Y8.743 Z-2.058 F1500
G1 X25.285 Y8.781 Z-2.058 F1500
G1 X25.335 Y8.831 Z-2.058 F1500
G1 X25.373 Y8.892 Z-2.058 F1500
G1 X25.397 Y8.959 Z-2.058 F1500
G1 X25.405 Y9.029 Z-2.058 F1500
G1 X25.405 Y9.347 Z-2.058 F1500
G1 X25.405 Y9.418 Z-2.050 F1500
G1 X25.405 Y9.485 Z-2.027 F1500
G1 X25.405 Y9.545 Z-1.989 F1500
G1 X25.405 Y9.595 Z-1.939 F1500
G1 X25.405 Y9.633 Z-1.878 F1500
G1 X25.405 Y9.656 Z-1.811 F1500
G1 X25.405 Y9.664 Z-1.741 F1500
G1 X25.405 Y9.664 Z5.000 F200
G1 X19.444 Y9.664 Z5.000 F200
G1 X19.444 Y9.664 Z-1.423 F200
G1 X19.444 Y9.664 Z-1.799 F200
G1 X19.444 Y9.656 Z-1.870 F200
G1 X19.444 Y9.633 Z-1.937 F200
G1 X19.444 Y9.595 Z-1.997 F200
G1 X19.444 Y9.545 Z-2.047 F200
G1 X19.444 Y9.485 Z-2.085 F200
G1 X19.444 Y9.418 Z-2.108 F200
G1 X19.444 Y9.347 Z-2.116 F200
G1 X19.444 Y9.029 Z-2.116 F200
G1 X19.452 Y8.959 Z-2.116 F200
G1 X19.475 Y8.892 Z-2.116 F200
G1 X19.513 Y8.831 Z-2.116 F200
G1 X19.564 Y8.781 Z-2.116 F200
G1 X19.624 Y8.743 Z-2.116 F200
G1 X19.691 Y8.720 Z-2.116 F200
G1 X19.761 Y8.712 Z-2.116 F200
G1 X25.087 Y8.712 Z-2.116 F200
G1 X25.158 Y8.720 Z-2.116 F1500
G1 X25.225 Y8.743 Z-2.116 F1500
G1 X25.285 Y8.781 Z-2.116 F1500
G1 X25.335 Y8.831 Z-2.116 F1500
G1 X25.373 Y8.892 Z-2.116 F1500
G1 X25.397 Y8.959 Z-2.116 F1500
G1 X25.405 Y9.029 Z-2.116 F1500
G1 X25.405 Y9.347 Z-2.116 F1500
G1 X25.405 Y9.418 Z-2.108 F1500
G1 X25.405 Y9.485 Z-2.085 F1500
G1 X25.405 Y9.545 Z-2.047 F1500
G1 X25.405 Y9.595 Z-1.997 F1500
G1 X25.405 Y9.633 Z-1.937 F1500
G1 X25.405 Y9.656 Z-1.870 F1500
G1 X25.405 Y9.664 Z-1.799 F1500
G1 X25.405 Y9.664 Z10.000 F200
G0 X0.000 Y0.000
M5
