;Titan-7 Facing
;Machine
;vendor: Snapmaker
;model: Desktop CNC
;description: Generic Snapmaker Marlin v20180725
M3 S10000
G4 P2
G21
G90
;When using Fusion for Personal Use, the feedrate of rapid
;moves is reduced to match the feedrate of cutting moves,
;which can increase machining time. Unrestricted rapid moves
;are available with a Fusion Subscription.

;Titan-7 Nomad3 Facing
G0 X40.592 Y-1.890 Z13.102
G1 X40.592 Y-1.890 Z13.102 F200
G1 X40.592 Y-1.890 Z1.000 F200
G1 X40.592 Y-1.890 Z0.218 F200
G1 X40.584 Y-1.890 Z0.147 F200
G1 X40.560 Y-1.890 Z0.080 F200
G1 X40.522 Y-1.890 Z0.020 F200
G1 X40.472 Y-1.890 Z-0.031 F200
G1 X40.412 Y-1.890 Z-0.069 F200
G1 X40.345 Y-1.890 Z-0.092 F200
G1 X40.274 Y-1.890 Z-0.100 F200
G1 X40.135 Y-1.890 Z-0.100 F200
G1 X-3.060 Y-1.890 Z-0.100 F200
G1 X-3.130 Y-1.890 Z-0.092 F1500
G1 X-3.197 Y-1.890 Z-0.069 F1500
G1 X-3.257 Y-1.890 Z-0.031 F1500
G1 X-3.308 Y-1.890 Z0.020 F1500
G1 X-3.346 Y-1.890 Z0.080 F1500
G1 X-3.369 Y-1.890 Z0.147 F1500
G1 X-3.377 Y-1.890 Z0.218 F1500
G1 X-3.377 Y-1.890 Z6.080 F200
G1 X40.602 Y-0.458 Z6.080 F200
G1 X40.602 Y-0.458 Z1.000 F200
G1 X40.602 Y-0.458 Z0.218 F200
G1 X40.594 Y-0.458 Z0.147 F200
G1 X40.570 Y-0.458 Z0.080 F200
G1 X40.532 Y-0.458 Z0.020 F200
G1 X40.482 Y-0.458 Z-0.031 F200
G1 X40.422 Y-0.458 Z-0.069 F200
G1 X40.355 Y-0.458 Z-0.092 F200
G1 X40.284 Y-0.458 Z-0.100 F200
G1 X40.135 Y-0.458 Z-0.100 F200
G1 X-3.060 Y-0.458 Z-0.100 F200
G1 X-3.130 Y-0.458 Z-0.092 F1500
G1 X-3.197 Y-0.458 Z-0.069 F1500
G1 X-3.257 Y-0.458 Z-0.031 F1500
G1 X-3.308 Y-0.458 Z0.020 F1500
G1 X-3.346 Y-0.458 Z0.080 F1500
G1 X-3.369 Y-0.458 Z0.147 F1500
G1 X-3.377 Y-0.458 Z0.218 F1500
G1 X-3.377 Y-0.458 Z6.080 F200
G1 X40.602 Y0.974 Z6.080 F200
G1 X40.602 Y0.974 Z1.000 F200
G1 X40.602 Y0.974 Z0.218 F200
G1 X40.594 Y0.974 Z0.147 F200
G1 X40.570 Y0.974 Z0.080 F200
G1 X40.532 Y0.974 Z0.020 F200
G1 X40.482 Y0.974 Z-0.031 F200
G1 X40.422 Y0.974 Z-0.069 F200
G1 X40.355 Y0.974 Z-0.092 F200
G1 X40.284 Y0.974 Z-0.100 F200
G1 X40.135 Y0.974 Z-0.100 F200
G1 X-3.060 Y0.974 Z-0.100 F200
G1 X-3.130 Y0.974 Z-0.092 F1500
G1 X-3.197 Y0.974 Z-0.069 F1500
G1 X-3.257 Y0.974 Z-0.031 F1500
G1 X-3.308 Y0.974 Z0.020 F1500
G1 X-3.346 Y0.974 Z0.080 F1500
G1 X-3.369 Y0.974 Z0.147 F1500
G1 X-3.377 Y0.974 Z0.218 F1500
G1 X-3.377 Y0.974 Z6.080 F200
G1 X40.602 Y2.406 Z6.080 F200
G1 X40.602 Y2.406 Z1.000 F200
G1 X40.602 Y2.406 Z0.218 F200
G1 X40.594 Y2.406 Z0.147 F200
G1 X40.570 Y2.406 Z0.080 F200
G1 X40.532 Y2.406 Z0.020 F200
G1 X40.482 Y2.406 Z-0.031 F200
G1 X40.422 Y2.406 Z-0.069 F200
G1 X40.355 Y2.406 Z-0.092 F200
G1 X40.284 Y2.406 Z-0.100 F200
G1 X40.135 Y2.406 Z-0.100 F200
G1 X-3.060 Y2.406 Z-0.100 F200
G1 X-3.130 Y2.406 Z-0.092 F1500
G1 X-3.197 Y2.406 Z-0.069 F1500
G1 X-3.257 Y2.406 Z-0.031 F1500
G1 X-3.308 Y2.406 Z0.020 F1500
G1 X-3.346 Y2.406 Z0.080 F1500
G1 X-3.369 Y2.406 Z0.147 F1500
G1 X-3.377 Y2.406 Z0.218 F1500
G1 X-3.377 Y2.406 Z6.080 F200
G1 X40.602 Y3.838 Z6.080 F200
G1 X40.602 Y3.838 Z1.000 F200
G1 X40.602 Y3.838 Z0.218 F200
G1 X40.594 Y3.838 Z0.147 F200
G1 X40.570 Y3.838 Z0.080 F200
G1 X40.532 Y3.838 Z0.020 F200
G1 X40.482 Y3.838 Z-0.031 F200
G1 X40.422 Y3.838 Z-0.069 F200
G1 X40.355 Y3.838 Z-0.092 F200
G1 X40.284 Y3.838 Z-0.100 F200
G1 X40.135 Y3.838 Z-0.100 F200
G1 X-3.060 Y3.838 Z-0.100 F200
G1 X-3.130 Y3.838 Z-0.092 F1500
G1 X-3.197 Y3.838 Z-0.069 F1500
G1 X-3.257 Y3.838 Z-0.031 F1500
G1 X-3.308 Y3.838 Z0.020 F1500
G1 X-3.346 Y3.838 Z0.080 F1500
G1 X-3.369 Y3.838 Z0.147 F1500
G1 X-3.377 Y3.838 Z0.218 F1500
G1 X-3.377 Y3.838 Z6.080 F200
G1 X40.602 Y5.270 Z6.080 F200
G1 X40.602 Y5.270 Z1.000 F200
G1 X40.602 Y5.270 Z0.218 F200
G1 X40.594 Y5.270 Z0.147 F200
G1 X40.570 Y5.270 Z0.080 F200
G1 X40.532 Y5.270 Z0.020 F200
G1 X40.482 Y5.270 Z-0.031 F200
G1 X40.422 Y5.270 Z-0.069 F200
G1 X40.355 Y5.270 Z-0.092 F200
G1 X40.284 Y5.270 Z-0.100 F200
G1 X40.135 Y5.270 Z-0.100 F200
G1 X-3.060 Y5.270 Z-0.100 F200
G1 X-3.130 Y5.270 Z-0.092 F1500
G1 X-3.197 Y5.270 Z-0.069 F1500
G1 X-3.257 Y5.270 Z-0.031 F1500
G1 X-3.308 Y5.270 Z0.020 F1500
G1 X-3.346 Y5.270 Z0.080 F1500
G1 X-3.369 Y5.270 Z0.147 F1500
G1 X-3.377 Y5.270 Z0.218 F1500
G1 X-3.377 Y5.270 Z6.080 F200
G1 X40.602 Y6.702 Z6.080 F200
G1 X40.602 Y6.702 Z1.000 F200
G1 X40.602 Y6.702 Z0.218 F200
G1 X40.594 Y6.702 Z0.147 F200
G1 X40.570 Y6.702 Z0.080 F200
G1 X40.532 Y6.702 Z0.020 F200
G1 X40.482 Y6.702 Z-0.031 F200
G1 X40.422 Y6.702 Z-0.069 F200
G1 X40.355 Y6.702 Z-0.092 F200
G1 X40.284 Y6.702 Z-0.100 F200
G1 X40.135 Y6.702 Z-0.100 F200
G1 X-3.060 Y6.702 Z-0.100 F200
G1 X-3.130 Y6.702 Z-0.092 F1500
G1 X-3.197 Y6.702 Z-0.069 F1500
G1 X-3.257 Y6.702 Z-0.031 F1500
G1 X-3.308 Y6.702 Z0.020 F1500
G1 X-3.346 Y6.702 Z0.080 F1500
G1 X-3.369 Y6.702 Z0.147 F1500
G1 X-3.377 Y6.702 Z0.218 F1500
G1 X-3.377 Y6.702 Z6.080 F200
G1 X40.602 Y8.134 Z6.080 F200
G1 X40.602 Y8.134 Z1.000 F200
G1 X40.602 Y8.134 Z0.218 F200
G1 X40.594 Y8.134 Z0.147 F200
G1 X40.570 Y8.134 Z0.080 F200
G1 X40.532 Y8.134 Z0.020 F200
G1 X40.482 Y8.134 Z-0.031 F200
G1 X40.422 Y8.134 Z-0.069 F200
G1 X40.355 Y8.134 Z-0.092 F200
G1 X40.284 Y8.134 Z-0.100 F200
G1 X40.135 Y8.134 Z-0.100 F200
G1 X-3.060 Y8.134 Z-0.100 F200
G1 X-3.130 Y8.134 Z-0.092 F1500
G1 X-3.197 Y8.134 Z-0.069 F1500
G1 X-3.257 Y8.134 Z-0.031 F1500
G1 X-3.308 Y8.134 Z0.020 F1500
G1 X-3.346 Y8.134 Z0.080 F1500
G1 X-3.369 Y8.134 Z0.147 F1500
G1 X-3.377 Y8.134 Z0.218 F1500
G1 X-3.377 Y8.134 Z6.080 F200
G1 X40.602 Y9.566 Z6.080 F200
G1 X40.602 Y9.566 Z1.000 F200
G1 X40.602 Y9.566 Z0.218 F200
G1 X40.594 Y9.566 Z0.147 F200
G1 X40.570 Y9.566 Z0.080 F200
G1 X40.532 Y9.566 Z0.020 F200
G1 X40.482 Y9.566 Z-0.031 F200
G1 X40.422 Y9.566 Z-0.069 F200
G1 X40.355 Y9.566 Z-0.092 F200
G1 X40.284 Y9.566 Z-0.100 F200
G1 X40.135 Y9.566 Z-0.100 F200
G1 X-3.060 Y9.566 Z-0.100 F200
G1 X-3.130 Y9.566 Z-0.092 F1500
G1 X-3.197 Y9.566 Z-0.069 F1500
G1 X-3.257 Y9.566 Z-0.031 F1500
G1 X-3.308 Y9.566 Z0.020 F1500
G1 X-3.346 Y9.566 Z0.080 F1500
G1 X-3.369 Y9.566 Z0.147 F1500
G1 X-3.377 Y9.566 Z0.218 F1500
G1 X-3.377 Y9.566 Z6.080 F200
G1 X40.602 Y10.998 Z6.080 F200
G1 X40.602 Y10.998 Z1.000 F200
G1 X40.602 Y10.998 Z0.218 F200
G1 X40.594 Y10.998 Z0.147 F200
G1 X40.570 Y10.998 Z0.080 F200
G1 X40.532 Y10.998 Z0.020 F200
G1 X40.482 Y10.998 Z-0.031 F200
G1 X40.422 Y10.998 Z-0.069 F200
G1 X40.355 Y10.998 Z-0.092 F200
G1 X40.284 Y10.998 Z-0.100 F200
G1 X40.135 Y10.998 Z-0.100 F200
G1 X-3.060 Y10.998 Z-0.100 F200
G1 X-3.130 Y10.998 Z-0.092 F1500
G1 X-3.197 Y10.998 Z-0.069 F1500
G1 X-3.257 Y10.998 Z-0.031 F1500
G1 X-3.308 Y10.998 Z0.020 F1500
G1 X-3.346 Y10.998 Z0.080 F1500
G1 X-3.369 Y10.998 Z0.147 F1500
G1 X-3.377 Y10.998 Z0.218 F1500
G1 X-3.377 Y10.998 Z6.080 F200
G1 X40.602 Y12.431 Z6.080 F200
G1 X40.602 Y12.431 Z1.000 F200
G1 X40.602 Y12.431 Z0.218 F200
G1 X40.594 Y12.431 Z0.147 F200
G1 X40.570 Y12.431 Z0.080 F200
G1 X40.532 Y12.431 Z0.020 F200
G1 X40.482 Y12.431 Z-0.031 F200
G1 X40.422 Y12.431 Z-0.069 F200
G1 X40.355 Y12.431 Z-0.092 F200
G1 X40.284 Y12.431 Z-0.100 F200
G1 X40.135 Y12.431 Z-0.100 F200
G1 X-3.060 Y12.431 Z-0.100 F200
G1 X-3.130 Y12.431 Z-0.092 F1500
G1 X-3.197 Y12.431 Z-0.069 F1500
G1 X-3.257 Y12.431 Z-0.031 F1500
G1 X-3.308 Y12.431 Z0.020 F1500
G1 X-3.346 Y12.431 Z0.080 F1500
G1 X-3.369 Y12.431 Z0.147 F1500
G1 X-3.377 Y12.431 Z0.218 F1500
G1 X-3.377 Y12.431 Z6.080 F200
G1 X40.602 Y13.863 Z6.080 F200
G1 X40.602 Y13.863 Z1.000 F200
G1 X40.602 Y13.863 Z0.218 F200
G1 X40.594 Y13.863 Z0.147 F200
G1 X40.570 Y13.863 Z0.080 F200
G1 X40.532 Y13.863 Z0.020 F200
G1 X40.482 Y13.863 Z-0.031 F200
G1 X40.422 Y13.863 Z-0.069 F200
G1 X40.355 Y13.863 Z-0.092 F200
G1 X40.284 Y13.863 Z-0.100 F200
G1 X40.135 Y13.863 Z-0.100 F200
G1 X-3.060 Y13.863 Z-0.100 F200
G1 X-3.130 Y13.863 Z-0.092 F1500
G1 X-3.197 Y13.863 Z-0.069 F1500
G1 X-3.257 Y13.863 Z-0.031 F1500
G1 X-3.308 Y13.863 Z0.020 F1500
G1 X-3.346 Y13.863 Z0.080 F1500
G1 X-3.369 Y13.863 Z0.147 F1500
G1 X-3.377 Y13.863 Z0.218 F1500
G1 X-3.377 Y13.863 Z6.080 F200
G1 X40.602 Y15.295 Z6.080 F200
G1 X40.602 Y15.295 Z1.000 F200
G1 X40.602 Y15.295 Z0.218 F200
G1 X40.594 Y15.295 Z0.147 F200
G1 X40.570 Y15.295 Z0.080 F200
G1 X40.532 Y15.295 Z0.020 F200
G1 X40.482 Y15.295 Z-0.031 F200
G1 X40.422 Y15.295 Z-0.069 F200
G1 X40.355 Y15.295 Z-0.092 F200
G1 X40.284 Y15.295 Z-0.100 F200
G1 X40.135 Y15.295 Z-0.100 F200
G1 X-3.060 Y15.295 Z-0.100 F200
G1 X-3.130 Y15.295 Z-0.092 F1500
G1 X-3.197 Y15.295 Z-0.069 F1500
G1 X-3.257 Y15.295 Z-0.031 F1500
G1 X-3.308 Y15.295 Z0.020 F1500
G1 X-3.346 Y15.295 Z0.080 F1500
G1 X-3.369 Y15.295 Z0.147 F1500
G1 X-3.377 Y15.295 Z0.218 F1500
G1 X-3.377 Y15.295 Z6.080 F200
G1 X40.602 Y16.727 Z6.080 F200
G1 X40.602 Y16.727 Z1.000 F200
G1 X40.602 Y16.727 Z0.218 F200
G1 X40.594 Y16.727 Z0.147 F200
G1 X40.570 Y16.727 Z0.080 F200
G1 X40.532 Y16.727 Z0.020 F200
G1 X40.482 Y16.727 Z-0.031 F200
G1 X40.422 Y16.727 Z-0.069 F200
G1 X40.355 Y16.727 Z-0.092 F200
G1 X40.284 Y16.727 Z-0.100 F200
G1 X40.135 Y16.727 Z-0.100 F200
G1 X-3.060 Y16.727 Z-0.100 F200
G1 X-3.130 Y16.727 Z-0.092 F1500
G1 X-3.197 Y16.727 Z-0.069 F1500
G1 X-3.257 Y16.727 Z-0.031 F1500
G1 X-3.308 Y16.727 Z0.020 F1500
G1 X-3.346 Y16.727 Z0.080 F1500
G1 X-3.369 Y16.727 Z0.147 F1500
G1 X-3.377 Y16.727 Z0.218 F1500
G1 X-3.377 Y16.727 Z6.080 F200
G1 X40.592 Y-1.890 Z6.080 F200
G1 X40.592 Y-1.890 Z1.000 F200
G1 X40.592 Y-1.890 Z0.117 F200
G1 X40.584 Y-1.890 Z0.047 F200
G1 X40.560 Y-1.890 Z-0.020 F200
G1 X40.522 Y-1.890 Z-0.080 F200
G1 X40.472 Y-1.890 Z-0.131 F200
G1 X40.412 Y-1.890 Z-0.169 F200
G1 X40.345 Y-1.890 Z-0.192 F200
G1 X40.274 Y-1.890 Z-0.200 F200
G1 X40.135 Y-1.890 Z-0.200 F200
G1 X-3.060 Y-1.890 Z-0.200 F200
G1 X-3.130 Y-1.890 Z-0.192 F1500
G1 X-3.197 Y-1.890 Z-0.169 F1500
G1 X-3.257 Y-1.890 Z-0.131 F1500
G1 X-3.308 Y-1.890 Z-0.080 F1500
G1 X-3.346 Y-1.890 Z-0.020 F1500
G1 X-3.369 Y-1.890 Z0.047 F1500
G1 X-3.377 Y-1.890 Z0.117 F1500
G1 X-3.377 Y-1.890 Z6.080 F200
G1 X40.602 Y-0.458 Z6.080 F200
G1 X40.602 Y-0.458 Z1.000 F200
G1 X40.602 Y-0.458 Z0.117 F200
G1 X40.594 Y-0.458 Z0.047 F200
G1 X40.570 Y-0.458 Z-0.020 F200
G1 X40.532 Y-0.458 Z-0.080 F200
G1 X40.482 Y-0.458 Z-0.131 F200
G1 X40.422 Y-0.458 Z-0.169 F200
G1 X40.355 Y-0.458 Z-0.192 F200
G1 X40.284 Y-0.458 Z-0.200 F200
G1 X40.135 Y-0.458 Z-0.200 F200
G1 X-3.060 Y-0.458 Z-0.200 F200
G1 X-3.130 Y-0.458 Z-0.192 F1500
G1 X-3.197 Y-0.458 Z-0.169 F1500
G1 X-3.257 Y-0.458 Z-0.131 F1500
G1 X-3.308 Y-0.458 Z-0.080 F1500
G1 X-3.346 Y-0.458 Z-0.020 F1500
G1 X-3.369 Y-0.458 Z0.047 F1500
G1 X-3.377 Y-0.458 Z0.117 F1500
G1 X-3.377 Y-0.458 Z6.080 F200
G1 X40.602 Y0.974 Z6.080 F200
G1 X40.602 Y0.974 Z1.000 F200
G1 X40.602 Y0.974 Z0.117 F200
G1 X40.594 Y0.974 Z0.047 F200
G1 X40.570 Y0.974 Z-0.020 F200
G1 X40.532 Y0.974 Z-0.080 F200
G1 X40.482 Y0.974 Z-0.131 F200
G1 X40.422 Y0.974 Z-0.169 F200
G1 X40.355 Y0.974 Z-0.192 F200
G1 X40.284 Y0.974 Z-0.200 F200
G1 X40.135 Y0.974 Z-0.200 F200
G1 X-3.060 Y0.974 Z-0.200 F200
G1 X-3.130 Y0.974 Z-0.192 F1500
G1 X-3.197 Y0.974 Z-0.169 F1500
G1 X-3.257 Y0.974 Z-0.131 F1500
G1 X-3.308 Y0.974 Z-0.080 F1500
G1 X-3.346 Y0.974 Z-0.020 F1500
G1 X-3.369 Y0.974 Z0.047 F1500
G1 X-3.377 Y0.974 Z0.117 F1500
G1 X-3.377 Y0.974 Z6.080 F200
G1 X40.602 Y2.406 Z6.080 F200
G1 X40.602 Y2.406 Z1.000 F200
G1 X40.602 Y2.406 Z0.117 F200
G1 X40.594 Y2.406 Z0.047 F200
G1 X40.570 Y2.406 Z-0.020 F200
G1 X40.532 Y2.406 Z-0.080 F200
G1 X40.482 Y2.406 Z-0.131 F200
G1 X40.422 Y2.406 Z-0.169 F200
G1 X40.355 Y2.406 Z-0.192 F200
G1 X40.284 Y2.406 Z-0.200 F200
G1 X40.135 Y2.406 Z-0.200 F200
G1 X-3.060 Y2.406 Z-0.200 F200
G1 X-3.130 Y2.406 Z-0.192 F1500
G1 X-3.197 Y2.406 Z-0.169 F1500
G1 X-3.257 Y2.406 Z-0.131 F1500
G1 X-3.308 Y2.406 Z-0.080 F1500
G1 X-3.346 Y2.406 Z-0.020 F1500
G1 X-3.369 Y2.406 Z0.047 F1500
G1 X-3.377 Y2.406 Z0.117 F1500
G1 X-3.377 Y2.406 Z6.080 F200
G1 X40.602 Y3.838 Z6.080 F200
G1 X40.602 Y3.838 Z1.000 F200
G1 X40.602 Y3.838 Z0.117 F200
G1 X40.594 Y3.838 Z0.047 F200
G1 X40.570 Y3.838 Z-0.020 F200
G1 X40.532 Y3.838 Z-0.080 F200
G1 X40.482 Y3.838 Z-0.131 F200
G1 X40.422 Y3.838 Z-0.169 F200
G1 X40.355 Y3.838 Z-0.192 F200
G1 X40.284 Y3.838 Z-0.200 F200
G1 X40.135 Y3.838 Z-0.200 F200
G1 X-3.060 Y3.838 Z-0.200 F200
G1 X-3.130 Y3.838 Z-0.192 F1500
G1 X-3.197 Y3.838 Z-0.169 F1500
G1 X-3.257 Y3.838 Z-0.131 F1500
G1 X-3.308 Y3.838 Z-0.080 F1500
G1 X-3.346 Y3.838 Z-0.020 F1500
G1 X-3.369 Y3.838 Z0.047 F1500
G1 X-3.377 Y3.838 Z0.117 F1500
G1 X-3.377 Y3.838 Z6.080 F200
G1 X40.602 Y5.270 Z6.080 F200
G1 X40.602 Y5.270 Z1.000 F200
G1 X40.602 Y5.270 Z0.117 F200
G1 X40.594 Y5.270 Z0.047 F200
G1 X40.570 Y5.270 Z-0.020 F200
G1 X40.532 Y5.270 Z-0.080 F200
G1 X40.482 Y5.270 Z-0.131 F200
G1 X40.422 Y5.270 Z-0.169 F200
G1 X40.355 Y5.270 Z-0.192 F200
G1 X40.284 Y5.270 Z-0.200 F200
G1 X40.135 Y5.270 Z-0.200 F200
G1 X-3.060 Y5.270 Z-0.200 F200
G1 X-3.130 Y5.270 Z-0.192 F1500
G1 X-3.197 Y5.270 Z-0.169 F1500
G1 X-3.257 Y5.270 Z-0.131 F1500
G1 X-3.308 Y5.270 Z-0.080 F1500
G1 X-3.346 Y5.270 Z-0.020 F1500
G1 X-3.369 Y5.270 Z0.047 F1500
G1 X-3.377 Y5.270 Z0.117 F1500
G1 X-3.377 Y5.270 Z6.080 F200
G1 X40.602 Y6.702 Z6.080 F200
G1 X40.602 Y6.702 Z1.000 F200
G1 X40.602 Y6.702 Z0.117 F200
G1 X40.594 Y6.702 Z0.047 F200
G1 X40.570 Y6.702 Z-0.020 F200
G1 X40.532 Y6.702 Z-0.080 F200
G1 X40.482 Y6.702 Z-0.131 F200
G1 X40.422 Y6.702 Z-0.169 F200
G1 X40.355 Y6.702 Z-0.192 F200
G1 X40.284 Y6.702 Z-0.200 F200
G1 X40.135 Y6.702 Z-0.200 F200
G1 X-3.060 Y6.702 Z-0.200 F200
G1 X-3.130 Y6.702 Z-0.192 F1500
G1 X-3.197 Y6.702 Z-0.169 F1500
G1 X-3.257 Y6.702 Z-0.131 F1500
G1 X-3.308 Y6.702 Z-0.080 F1500
G1 X-3.346 Y6.702 Z-0.020 F1500
G1 X-3.369 Y6.702 Z0.047 F1500
G1 X-3.377 Y6.702 Z0.117 F1500
G1 X-3.377 Y6.702 Z6.080 F200
G1 X40.602 Y8.134 Z6.080 F200
G1 X40.602 Y8.134 Z1.000 F200
G1 X40.602 Y8.134 Z0.117 F200
G1 X40.594 Y8.134 Z0.047 F200
G1 X40.570 Y8.134 Z-0.020 F200
G1 X40.532 Y8.134 Z-0.080 F200
G1 X40.482 Y8.134 Z-0.131 F200
G1 X40.422 Y8.134 Z-0.169 F200
G1 X40.355 Y8.134 Z-0.192 F200
G1 X40.284 Y8.134 Z-0.200 F200
G1 X40.135 Y8.134 Z-0.200 F200
G1 X-3.060 Y8.134 Z-0.200 F200
G1 X-3.130 Y8.134 Z-0.192 F1500
G1 X-3.197 Y8.134 Z-0.169 F1500
G1 X-3.257 Y8.134 Z-0.131 F1500
G1 X-3.308 Y8.134 Z-0.080 F1500
G1 X-3.346 Y8.134 Z-0.020 F1500
G1 X-3.369 Y8.134 Z0.047 F1500
G1 X-3.377 Y8.134 Z0.117 F1500
G1 X-3.377 Y8.134 Z6.080 F200
G1 X40.602 Y9.566 Z6.080 F200
G1 X40.602 Y9.566 Z1.000 F200
G1 X40.602 Y9.566 Z0.117 F200
G1 X40.594 Y9.566 Z0.047 F200
G1 X40.570 Y9.566 Z-0.020 F200
G1 X40.532 Y9.566 Z-0.080 F200
G1 X40.482 Y9.566 Z-0.131 F200
G1 X40.422 Y9.566 Z-0.169 F200
G1 X40.355 Y9.566 Z-0.192 F200
G1 X40.284 Y9.566 Z-0.200 F200
G1 X40.135 Y9.566 Z-0.200 F200
G1 X-3.060 Y9.566 Z-0.200 F200
G1 X-3.130 Y9.566 Z-0.192 F1500
G1 X-3.197 Y9.566 Z-0.169 F1500
G1 X-3.257 Y9.566 Z-0.131 F1500
G1 X-3.308 Y9.566 Z-0.080 F1500
G1 X-3.346 Y9.566 Z-0.020 F1500
G1 X-3.369 Y9.566 Z0.047 F1500
G1 X-3.377 Y9.566 Z0.117 F1500
G1 X-3.377 Y9.566 Z6.080 F200
G1 X40.602 Y10.998 Z6.080 F200
G1 X40.602 Y10.998 Z1.000 F200
G1 X40.602 Y10.998 Z0.117 F200
G1 X40.594 Y10.998 Z0.047 F200
G1 X40.570 Y10.998 Z-0.020 F200
G1 X40.532 Y10.998 Z-0.080 F200
G1 X40.482 Y10.998 Z-0.131 F200
G1 X40.422 Y10.998 Z-0.169 F200
G1 X40.355 Y10.998 Z-0.192 F200
G1 X40.284 Y10.998 Z-0.200 F200
G1 X40.135 Y10.998 Z-0.200 F200
G1 X-3.060 Y10.998 Z-0.200 F200
G1 X-3.130 Y10.998 Z-0.192 F1500
G1 X-3.197 Y10.998 Z-0.169 F1500
G1 X-3.257 Y10.998 Z-0.131 F1500
G1 X-3.308 Y10.998 Z-0.080 F1500
G1 X-3.346 Y10.998 Z-0.020 F1500
G1 X-3.369 Y10.998 Z0.047 F1500
G1 X-3.377 Y10.998 Z0.117 F1500
G1 X-3.377 Y10.998 Z6.080 F200
G1 X40.602 Y12.431 Z6.080 F200
G1 X40.602 Y12.431 Z1.000 F200
G1 X40.602 Y12.431 Z0.117 F200
G1 X40.594 Y12.431 Z0.047 F200
G1 X40.570 Y12.431 Z-0.020 F200
G1 X40.532 Y12.431 Z-0.080 F200
G1 X40.482 Y12.431 Z-0.131 F200
G1 X40.422 Y12.431 Z-0.169 F200
G1 X40.355 Y12.431 Z-0.192 F200
G1 X40.284 Y12.431 Z-0.200 F200
G1 X40.135 Y12.431 Z-0.200 F200
G1 X-3.060 Y12.431 Z-0.200 F200
G1 X-3.130 Y12.431 Z-0.192 F1500
G1 X-3.197 Y12.431 Z-0.169 F1500
G1 X-3.257 Y12.431 Z-0.131 F1500
G1 X-3.308 Y12.431 Z-0.080 F1500
G1 X-3.346 Y12.431 Z-0.020 F1500
G1 X-3.369 Y12.431 Z0.047 F1500
G1 X-3.377 Y12.431 Z0.117 F1500
G1 X-3.377 Y12.431 Z6.080 F200
G1 X40.602 Y13.863 Z6.080 F200
G1 X40.602 Y13.863 Z1.000 F200
G1 X40.602 Y13.863 Z0.117 F200
G1 X40.594 Y13.863 Z0.047 F200
G1 X40.570 Y13.863 Z-0.020 F200
G1 X40.532 Y13.863 Z-0.080 F200
G1 X40.482 Y13.863 Z-0.131 F200
G1 X40.422 Y13.863 Z-0.169 F200
G1 X40.355 Y13.863 Z-0.192 F200
G1 X40.284 Y13.863 Z-0.200 F200
G1 X40.135 Y13.863 Z-0.200 F200
G1 X-3.060 Y13.863 Z-0.200 F200
G1 X-3.130 Y13.863 Z-0.192 F1500
G1 X-3.197 Y13.863 Z-0.169 F1500
G1 X-3.257 Y13.863 Z-0.131 F1500
G1 X-3.308 Y13.863 Z-0.080 F1500
G1 X-3.346 Y13.863 Z-0.020 F1500
G1 X-3.369 Y13.863 Z0.047 F1500
G1 X-3.377 Y13.863 Z0.117 F1500
G1 X-3.377 Y13.863 Z6.080 F200
G1 X40.602 Y15.295 Z6.080 F200
G1 X40.602 Y15.295 Z1.000 F200
G1 X40.602 Y15.295 Z0.117 F200
G1 X40.594 Y15.295 Z0.047 F200
G1 X40.570 Y15.295 Z-0.020 F200
G1 X40.532 Y15.295 Z-0.080 F200
G1 X40.482 Y15.295 Z-0.131 F200
G1 X40.422 Y15.295 Z-0.169 F200
G1 X40.355 Y15.295 Z-0.192 F200
G1 X40.284 Y15.295 Z-0.200 F200
G1 X40.135 Y15.295 Z-0.200 F200
G1 X-3.060 Y15.295 Z-0.200 F200
G1 X-3.130 Y15.295 Z-0.192 F1500
G1 X-3.197 Y15.295 Z-0.169 F1500
G1 X-3.257 Y15.295 Z-0.131 F1500
G1 X-3.308 Y15.295 Z-0.080 F1500
G1 X-3.346 Y15.295 Z-0.020 F1500
G1 X-3.369 Y15.295 Z0.047 F1500
G1 X-3.377 Y15.295 Z0.117 F1500
G1 X-3.377 Y15.295 Z6.080 F200
G1 X40.602 Y16.727 Z6.080 F200
G1 X40.602 Y16.727 Z1.000 F200
G1 X40.602 Y16.727 Z0.117 F200
G1 X40.594 Y16.727 Z0.047 F200
G1 X40.570 Y16.727 Z-0.020 F200
G1 X40.532 Y16.727 Z-0.080 F200
G1 X40.482 Y16.727 Z-0.131 F200
G1 X40.422 Y16.727 Z-0.169 F200
G1 X40.355 Y16.727 Z-0.192 F200
G1 X40.284 Y16.727 Z-0.200 F200
G1 X40.135 Y16.727 Z-0.200 F200
G1 X-3.060 Y16.727 Z-0.200 F200
G1 X-3.130 Y16.727 Z-0.192 F1500
G1 X-3.197 Y16.727 Z-0.169 F1500
G1 X-3.257 Y16.727 Z-0.131 F1500
G1 X-3.308 Y16.727 Z-0.080 F1500
G1 X-3.346 Y16.727 Z-0.020 F1500
G1 X-3.369 Y16.727 Z0.047 F1500
G1 X-3.377 Y16.727 Z0.117 F1500
G1 X-3.377 Y16.727 Z6.080 F200
G1 X40.592 Y-1.890 Z6.080 F200
G1 X40.592 Y-1.890 Z1.000 F200
G1 X40.592 Y-1.890 Z0.018 F200
G1 X40.584 Y-1.890 Z-0.053 F200
G1 X40.560 Y-1.890 Z-0.120 F200
G1 X40.522 Y-1.890 Z-0.180 F200
G1 X40.472 Y-1.890 Z-0.231 F200
G1 X40.412 Y-1.890 Z-0.269 F200
G1 X40.345 Y-1.890 Z-0.292 F200
G1 X40.274 Y-1.890 Z-0.300 F200
G1 X40.135 Y-1.890 Z-0.300 F200
G1 X-3.060 Y-1.890 Z-0.300 F200
G1 X-3.130 Y-1.890 Z-0.292 F1500
G1 X-3.197 Y-1.890 Z-0.269 F1500
G1 X-3.257 Y-1.890 Z-0.231 F1500
G1 X-3.308 Y-1.890 Z-0.180 F1500
G1 X-3.346 Y-1.890 Z-0.120 F1500
G1 X-3.369 Y-1.890 Z-0.053 F1500
G1 X-3.377 Y-1.890 Z0.018 F1500
G1 X-3.377 Y-1.890 Z6.080 F200
G1 X40.602 Y-0.458 Z6.080 F200
G1 X40.602 Y-0.458 Z1.000 F200
G1 X40.602 Y-0.458 Z0.018 F200
G1 X40.594 Y-0.458 Z-0.053 F200
G1 X40.570 Y-0.458 Z-0.120 F200
G1 X40.532 Y-0.458 Z-0.180 F200
G1 X40.482 Y-0.458 Z-0.231 F200
G1 X40.422 Y-0.458 Z-0.269 F200
G1 X40.355 Y-0.458 Z-0.292 F200
G1 X40.284 Y-0.458 Z-0.300 F200
G1 X40.135 Y-0.458 Z-0.300 F200
G1 X-3.060 Y-0.458 Z-0.300 F200
G1 X-3.130 Y-0.458 Z-0.292 F1500
G1 X-3.197 Y-0.458 Z-0.269 F1500
G1 X-3.257 Y-0.458 Z-0.231 F1500
G1 X-3.308 Y-0.458 Z-0.180 F1500
G1 X-3.346 Y-0.458 Z-0.120 F1500
G1 X-3.369 Y-0.458 Z-0.053 F1500
G1 X-3.377 Y-0.458 Z0.018 F1500
G1 X-3.377 Y-0.458 Z6.080 F200
G1 X40.602 Y0.974 Z6.080 F200
G1 X40.602 Y0.974 Z1.000 F200
G1 X40.602 Y0.974 Z0.018 F200
G1 X40.594 Y0.974 Z-0.053 F200
G1 X40.570 Y0.974 Z-0.120 F200
G1 X40.532 Y0.974 Z-0.180 F200
G1 X40.482 Y0.974 Z-0.231 F200
G1 X40.422 Y0.974 Z-0.269 F200
G1 X40.355 Y0.974 Z-0.292 F200
G1 X40.284 Y0.974 Z-0.300 F200
G1 X40.135 Y0.974 Z-0.300 F200
G1 X-3.060 Y0.974 Z-0.300 F200
G1 X-3.130 Y0.974 Z-0.292 F1500
G1 X-3.197 Y0.974 Z-0.269 F1500
G1 X-3.257 Y0.974 Z-0.231 F1500
G1 X-3.308 Y0.974 Z-0.180 F1500
G1 X-3.346 Y0.974 Z-0.120 F1500
G1 X-3.369 Y0.974 Z-0.053 F1500
G1 X-3.377 Y0.974 Z0.018 F1500
G1 X-3.377 Y0.974 Z6.080 F200
G1 X40.602 Y2.406 Z6.080 F200
G1 X40.602 Y2.406 Z1.000 F200
G1 X40.602 Y2.406 Z0.018 F200
G1 X40.594 Y2.406 Z-0.053 F200
G1 X40.570 Y2.406 Z-0.120 F200
G1 X40.532 Y2.406 Z-0.180 F200
G1 X40.482 Y2.406 Z-0.231 F200
G1 X40.422 Y2.406 Z-0.269 F200
G1 X40.355 Y2.406 Z-0.292 F200
G1 X40.284 Y2.406 Z-0.300 F200
G1 X40.135 Y2.406 Z-0.300 F200
G1 X-3.060 Y2.406 Z-0.300 F200
G1 X-3.130 Y2.406 Z-0.292 F1500
G1 X-3.197 Y2.406 Z-0.269 F1500
G1 X-3.257 Y2.406 Z-0.231 F1500
G1 X-3.308 Y2.406 Z-0.180 F1500
G1 X-3.346 Y2.406 Z-0.120 F1500
G1 X-3.369 Y2.406 Z-0.053 F1500
G1 X-3.377 Y2.406 Z0.018 F1500
G1 X-3.377 Y2.406 Z6.080 F200
G1 X40.602 Y3.838 Z6.080 F200
G1 X40.602 Y3.838 Z1.000 F200
G1 X40.602 Y3.838 Z0.018 F200
G1 X40.594 Y3.838 Z-0.053 F200
G1 X40.570 Y3.838 Z-0.120 F200
G1 X40.532 Y3.838 Z-0.180 F200
G1 X40.482 Y3.838 Z-0.231 F200
G1 X40.422 Y3.838 Z-0.269 F200
G1 X40.355 Y3.838 Z-0.292 F200
G1 X40.284 Y3.838 Z-0.300 F200
G1 X40.135 Y3.838 Z-0.300 F200
G1 X-3.060 Y3.838 Z-0.300 F200
G1 X-3.130 Y3.838 Z-0.292 F1500
G1 X-3.197 Y3.838 Z-0.269 F1500
G1 X-3.257 Y3.838 Z-0.231 F1500
G1 X-3.308 Y3.838 Z-0.180 F1500
G1 X-3.346 Y3.838 Z-0.120 F1500
G1 X-3.369 Y3.838 Z-0.053 F1500
G1 X-3.377 Y3.838 Z0.018 F1500
G1 X-3.377 Y3.838 Z6.080 F200
G1 X40.602 Y5.270 Z6.080 F200
G1 X40.602 Y5.270 Z1.000 F200
G1 X40.602 Y5.270 Z0.018 F200
G1 X40.594 Y5.270 Z-0.053 F200
G1 X40.570 Y5.270 Z-0.120 F200
G1 X40.532 Y5.270 Z-0.180 F200
G1 X40.482 Y5.270 Z-0.231 F200
G1 X40.422 Y5.270 Z-0.269 F200
G1 X40.355 Y5.270 Z-0.292 F200
G1 X40.284 Y5.270 Z-0.300 F200
G1 X40.135 Y5.270 Z-0.300 F200
G1 X-3.060 Y5.270 Z-0.300 F200
G1 X-3.130 Y5.270 Z-0.292 F1500
G1 X-3.197 Y5.270 Z-0.269 F1500
G1 X-3.257 Y5.270 Z-0.231 F1500
G1 X-3.308 Y5.270 Z-0.180 F1500
G1 X-3.346 Y5.270 Z-0.120 F1500
G1 X-3.369 Y5.270 Z-0.053 F1500
G1 X-3.377 Y5.270 Z0.018 F1500
G1 X-3.377 Y5.270 Z6.080 F200
G1 X40.602 Y6.702 Z6.080 F200
G1 X40.602 Y6.702 Z1.000 F200
G1 X40.602 Y6.702 Z0.018 F200
G1 X40.594 Y6.702 Z-0.053 F200
G1 X40.570 Y6.702 Z-0.120 F200
G1 X40.532 Y6.702 Z-0.180 F200
G1 X40.482 Y6.702 Z-0.231 F200
G1 X40.422 Y6.702 Z-0.269 F200
G1 X40.355 Y6.702 Z-0.292 F200
G1 X40.284 Y6.702 Z-0.300 F200
G1 X40.135 Y6.702 Z-0.300 F200
G1 X-3.060 Y6.702 Z-0.300 F200
G1 X-3.130 Y6.702 Z-0.292 F1500
G1 X-3.197 Y6.702 Z-0.269 F1500
G1 X-3.257 Y6.702 Z-0.231 F1500
G1 X-3.308 Y6.702 Z-0.180 F1500
G1 X-3.346 Y6.702 Z-0.120 F1500
G1 X-3.369 Y6.702 Z-0.053 F1500
G1 X-3.377 Y6.702 Z0.018 F1500
G1 X-3.377 Y6.702 Z6.080 F200
G1 X40.602 Y8.134 Z6.080 F200
G1 X40.602 Y8.134 Z1.000 F200
G1 X40.602 Y8.134 Z0.018 F200
G1 X40.594 Y8.134 Z-0.053 F200
G1 X40.570 Y8.134 Z-0.120 F200
G1 X40.532 Y8.134 Z-0.180 F200
G1 X40.482 Y8.134 Z-0.231 F200
G1 X40.422 Y8.134 Z-0.269 F200
G1 X40.355 Y8.134 Z-0.292 F200
G1 X40.284 Y8.134 Z-0.300 F200
G1 X40.135 Y8.134 Z-0.300 F200
G1 X-3.060 Y8.134 Z-0.300 F200
G1 X-3.130 Y8.134 Z-0.292 F1500
G1 X-3.197 Y8.134 Z-0.269 F1500
G1 X-3.257 Y8.134 Z-0.231 F1500
G1 X-3.308 Y8.134 Z-0.180 F1500
G1 X-3.346 Y8.134 Z-0.120 F1500
G1 X-3.369 Y8.134 Z-0.053 F1500
G1 X-3.377 Y8.134 Z0.018 F1500
G1 X-3.377 Y8.134 Z6.080 F200
G1 X40.602 Y9.566 Z6.080 F200
G1 X40.602 Y9.566 Z1.000 F200
G1 X40.602 Y9.566 Z0.018 F200
G1 X40.594 Y9.566 Z-0.053 F200
G1 X40.570 Y9.566 Z-0.120 F200
G1 X40.532 Y9.566 Z-0.180 F200
G1 X40.482 Y9.566 Z-0.231 F200
G1 X40.422 Y9.566 Z-0.269 F200
G1 X40.355 Y9.566 Z-0.292 F200
G1 X40.284 Y9.566 Z-0.300 F200
G1 X40.135 Y9.566 Z-0.300 F200
G1 X-3.060 Y9.566 Z-0.300 F200
G1 X-3.130 Y9.566 Z-0.292 F1500
G1 X-3.197 Y9.566 Z-0.269 F1500
G1 X-3.257 Y9.566 Z-0.231 F1500
G1 X-3.308 Y9.566 Z-0.180 F1500
G1 X-3.346 Y9.566 Z-0.120 F1500
G1 X-3.369 Y9.566 Z-0.053 F1500
G1 X-3.377 Y9.566 Z0.018 F1500
G1 X-3.377 Y9.566 Z6.080 F200
G1 X40.602 Y10.998 Z6.080 F200
G1 X40.602 Y10.998 Z1.000 F200
G1 X40.602 Y10.998 Z0.018 F200
G1 X40.594 Y10.998 Z-0.053 F200
G1 X40.570 Y10.998 Z-0.120 F200
G1 X40.532 Y10.998 Z-0.180 F200
G1 X40.482 Y10.998 Z-0.231 F200
G1 X40.422 Y10.998 Z-0.269 F200
G1 X40.355 Y10.998 Z-0.292 F200
G1 X40.284 Y10.998 Z-0.300 F200
G1 X40.135 Y10.998 Z-0.300 F200
G1 X-3.060 Y10.998 Z-0.300 F200
G1 X-3.130 Y10.998 Z-0.292 F1500
G1 X-3.197 Y10.998 Z-0.269 F1500
G1 X-3.257 Y10.998 Z-0.231 F1500
G1 X-3.308 Y10.998 Z-0.180 F1500
G1 X-3.346 Y10.998 Z-0.120 F1500
G1 X-3.369 Y10.998 Z-0.053 F1500
G1 X-3.377 Y10.998 Z0.018 F1500
G1 X-3.377 Y10.998 Z6.080 F200
G1 X40.602 Y12.431 Z6.080 F200
G1 X40.602 Y12.431 Z1.000 F200
G1 X40.602 Y12.431 Z0.018 F200
G1 X40.594 Y12.431 Z-0.053 F200
G1 X40.570 Y12.431 Z-0.120 F200
G1 X40.532 Y12.431 Z-0.180 F200
G1 X40.482 Y12.431 Z-0.231 F200
G1 X40.422 Y12.431 Z-0.269 F200
G1 X40.355 Y12.431 Z-0.292 F200
G1 X40.284 Y12.431 Z-0.300 F200
G1 X40.135 Y12.431 Z-0.300 F200
G1 X-3.060 Y12.431 Z-0.300 F200
G1 X-3.130 Y12.431 Z-0.292 F1500
G1 X-3.197 Y12.431 Z-0.269 F1500
G1 X-3.257 Y12.431 Z-0.231 F1500
G1 X-3.308 Y12.431 Z-0.180 F1500
G1 X-3.346 Y12.431 Z-0.120 F1500
G1 X-3.369 Y12.431 Z-0.053 F1500
G1 X-3.377 Y12.431 Z0.018 F1500
G1 X-3.377 Y12.431 Z6.080 F200
G1 X40.602 Y13.863 Z6.080 F200
G1 X40.602 Y13.863 Z1.000 F200
G1 X40.602 Y13.863 Z0.018 F200
G1 X40.594 Y13.863 Z-0.053 F200
G1 X40.570 Y13.863 Z-0.120 F200
G1 X40.532 Y13.863 Z-0.180 F200
G1 X40.482 Y13.863 Z-0.231 F200
G1 X40.422 Y13.863 Z-0.269 F200
G1 X40.355 Y13.863 Z-0.292 F200
G1 X40.284 Y13.863 Z-0.300 F200
G1 X40.135 Y13.863 Z-0.300 F200
G1 X-3.060 Y13.863 Z-0.300 F200
G1 X-3.130 Y13.863 Z-0.292 F1500
G1 X-3.197 Y13.863 Z-0.269 F1500
G1 X-3.257 Y13.863 Z-0.231 F1500
G1 X-3.308 Y13.863 Z-0.180 F1500
G1 X-3.346 Y13.863 Z-0.120 F1500
G1 X-3.369 Y13.863 Z-0.053 F1500
G1 X-3.377 Y13.863 Z0.018 F1500
G1 X-3.377 Y13.863 Z6.080 F200
G1 X40.602 Y15.295 Z6.080 F200
G1 X40.602 Y15.295 Z1.000 F200
G1 X40.602 Y15.295 Z0.018 F200
G1 X40.594 Y15.295 Z-0.053 F200
G1 X40.570 Y15.295 Z-0.120 F200
G1 X40.532 Y15.295 Z-0.180 F200
G1 X40.482 Y15.295 Z-0.231 F200
G1 X40.422 Y15.295 Z-0.269 F200
G1 X40.355 Y15.295 Z-0.292 F200
G1 X40.284 Y15.295 Z-0.300 F200
G1 X40.135 Y15.295 Z-0.300 F200
G1 X-3.060 Y15.295 Z-0.300 F200
G1 X-3.130 Y15.295 Z-0.292 F1500
G1 X-3.197 Y15.295 Z-0.269 F1500
G1 X-3.257 Y15.295 Z-0.231 F1500
G1 X-3.308 Y15.295 Z-0.180 F1500
G1 X-3.346 Y15.295 Z-0.120 F1500
G1 X-3.369 Y15.295 Z-0.053 F1500
G1 X-3.377 Y15.295 Z0.018 F1500
G1 X-3.377 Y15.295 Z6.080 F200
G1 X40.602 Y16.727 Z6.080 F200
G1 X40.602 Y16.727 Z1.000 F200
G1 X40.602 Y16.727 Z0.018 F200
G1 X40.594 Y16.727 Z-0.053 F200
G1 X40.570 Y16.727 Z-0.120 F200
G1 X40.532 Y16.727 Z-0.180 F200
G1 X40.482 Y16.727 Z-0.231 F200
G1 X40.422 Y16.727 Z-0.269 F200
G1 X40.355 Y16.727 Z-0.292 F200
G1 X40.284 Y16.727 Z-0.300 F200
G1 X40.135 Y16.727 Z-0.300 F200
G1 X-3.060 Y16.727 Z-0.300 F200
G1 X-3.130 Y16.727 Z-0.292 F1500
G1 X-3.197 Y16.727 Z-0.269 F1500
G1 X-3.257 Y16.727 Z-0.231 F1500
G1 X-3.308 Y16.727 Z-0.180 F1500
G1 X-3.346 Y16.727 Z-0.120 F1500
G1 X-3.369 Y16.727 Z-0.053 F1500
G1 X-3.377 Y16.727 Z0.018 F1500
G1 X-3.377 Y16.727 Z6.080 F200
G1 X40.592 Y-1.890 Z6.080 F200
G1 X40.592 Y-1.890 Z1.000 F200
G1 X40.592 Y-1.890 Z-0.083 F200
G1 X40.584 Y-1.890 Z-0.153 F200
G1 X40.560 Y-1.890 Z-0.220 F200
G1 X40.522 Y-1.890 Z-0.280 F200
G1 X40.472 Y-1.890 Z-0.331 F200
G1 X40.412 Y-1.890 Z-0.369 F200
G1 X40.345 Y-1.890 Z-0.392 F200
G1 X40.274 Y-1.890 Z-0.400 F200
G1 X40.135 Y-1.890 Z-0.400 F200
G1 X-3.060 Y-1.890 Z-0.400 F200
G1 X-3.130 Y-1.890 Z-0.392 F1500
G1 X-3.197 Y-1.890 Z-0.369 F1500
G1 X-3.257 Y-1.890 Z-0.331 F1500
G1 X-3.308 Y-1.890 Z-0.280 F1500
G1 X-3.346 Y-1.890 Z-0.220 F1500
G1 X-3.369 Y-1.890 Z-0.153 F1500
G1 X-3.377 Y-1.890 Z-0.083 F1500
G1 X-3.377 Y-1.890 Z6.080 F200
G1 X40.602 Y-0.458 Z6.080 F200
G1 X40.602 Y-0.458 Z1.000 F200
G1 X40.602 Y-0.458 Z-0.083 F200
G1 X40.594 Y-0.458 Z-0.153 F200
G1 X40.570 Y-0.458 Z-0.220 F200
G1 X40.532 Y-0.458 Z-0.280 F200
G1 X40.482 Y-0.458 Z-0.331 F200
G1 X40.422 Y-0.458 Z-0.369 F200
G1 X40.355 Y-0.458 Z-0.392 F200
G1 X40.284 Y-0.458 Z-0.400 F200
G1 X40.135 Y-0.458 Z-0.400 F200
G1 X-3.060 Y-0.458 Z-0.400 F200
G1 X-3.130 Y-0.458 Z-0.392 F1500
G1 X-3.197 Y-0.458 Z-0.369 F1500
G1 X-3.257 Y-0.458 Z-0.331 F1500
G1 X-3.308 Y-0.458 Z-0.280 F1500
G1 X-3.346 Y-0.458 Z-0.220 F1500
G1 X-3.369 Y-0.458 Z-0.153 F1500
G1 X-3.377 Y-0.458 Z-0.083 F1500
G1 X-3.377 Y-0.458 Z6.080 F200
G1 X40.602 Y0.974 Z6.080 F200
G1 X40.602 Y0.974 Z1.000 F200
G1 X40.602 Y0.974 Z-0.083 F200
G1 X40.594 Y0.974 Z-0.153 F200
G1 X40.570 Y0.974 Z-0.220 F200
G1 X40.532 Y0.974 Z-0.280 F200
G1 X40.482 Y0.974 Z-0.331 F200
G1 X40.422 Y0.974 Z-0.369 F200
G1 X40.355 Y0.974 Z-0.392 F200
G1 X40.284 Y0.974 Z-0.400 F200
G1 X40.135 Y0.974 Z-0.400 F200
G1 X-3.060 Y0.974 Z-0.400 F200
G1 X-3.130 Y0.974 Z-0.392 F1500
G1 X-3.197 Y0.974 Z-0.369 F1500
G1 X-3.257 Y0.974 Z-0.331 F1500
G1 X-3.308 Y0.974 Z-0.280 F1500
G1 X-3.346 Y0.974 Z-0.220 F1500
G1 X-3.369 Y0.974 Z-0.153 F1500
G1 X-3.377 Y0.974 Z-0.083 F1500
G1 X-3.377 Y0.974 Z6.080 F200
G1 X40.602 Y2.406 Z6.080 F200
G1 X40.602 Y2.406 Z1.000 F200
G1 X40.602 Y2.406 Z-0.083 F200
G1 X40.594 Y2.406 Z-0.153 F200
G1 X40.570 Y2.406 Z-0.220 F200
G1 X40.532 Y2.406 Z-0.280 F200
G1 X40.482 Y2.406 Z-0.331 F200
G1 X40.422 Y2.406 Z-0.369 F200
G1 X40.355 Y2.406 Z-0.392 F200
G1 X40.284 Y2.406 Z-0.400 F200
G1 X40.135 Y2.406 Z-0.400 F200
G1 X-3.060 Y2.406 Z-0.400 F200
G1 X-3.130 Y2.406 Z-0.392 F1500
G1 X-3.197 Y2.406 Z-0.369 F1500
G1 X-3.257 Y2.406 Z-0.331 F1500
G1 X-3.308 Y2.406 Z-0.280 F1500
G1 X-3.346 Y2.406 Z-0.220 F1500
G1 X-3.369 Y2.406 Z-0.153 F1500
G1 X-3.377 Y2.406 Z-0.083 F1500
G1 X-3.377 Y2.406 Z6.080 F200
G1 X40.602 Y3.838 Z6.080 F200
G1 X40.602 Y3.838 Z1.000 F200
G1 X40.602 Y3.838 Z-0.083 F200
G1 X40.594 Y3.838 Z-0.153 F200
G1 X40.570 Y3.838 Z-0.220 F200
G1 X40.532 Y3.838 Z-0.280 F200
G1 X40.482 Y3.838 Z-0.331 F200
G1 X40.422 Y3.838 Z-0.369 F200
G1 X40.355 Y3.838 Z-0.392 F200
G1 X40.284 Y3.838 Z-0.400 F200
G1 X40.135 Y3.838 Z-0.400 F200
G1 X-3.060 Y3.838 Z-0.400 F200
G1 X-3.130 Y3.838 Z-0.392 F1500
G1 X-3.197 Y3.838 Z-0.369 F1500
G1 X-3.257 Y3.838 Z-0.331 F1500
G1 X-3.308 Y3.838 Z-0.280 F1500
G1 X-3.346 Y3.838 Z-0.220 F1500
G1 X-3.369 Y3.838 Z-0.153 F1500
G1 X-3.377 Y3.838 Z-0.083 F1500
G1 X-3.377 Y3.838 Z6.080 F200
G1 X40.602 Y5.270 Z6.080 F200
G1 X40.602 Y5.270 Z1.000 F200
G1 X40.602 Y5.270 Z-0.083 F200
G1 X40.594 Y5.270 Z-0.153 F200
G1 X40.570 Y5.270 Z-0.220 F200
G1 X40.532 Y5.270 Z-0.280 F200
G1 X40.482 Y5.270 Z-0.331 F200
G1 X40.422 Y5.270 Z-0.369 F200
G1 X40.355 Y5.270 Z-0.392 F200
G1 X40.284 Y5.270 Z-0.400 F200
G1 X40.135 Y5.270 Z-0.400 F200
G1 X-3.060 Y5.270 Z-0.400 F200
G1 X-3.130 Y5.270 Z-0.392 F1500
G1 X-3.197 Y5.270 Z-0.369 F1500
G1 X-3.257 Y5.270 Z-0.331 F1500
G1 X-3.308 Y5.270 Z-0.280 F1500
G1 X-3.346 Y5.270 Z-0.220 F1500
G1 X-3.369 Y5.270 Z-0.153 F1500
G1 X-3.377 Y5.270 Z-0.083 F1500
G1 X-3.377 Y5.270 Z6.080 F200
G1 X40.602 Y6.702 Z6.080 F200
G1 X40.602 Y6.702 Z1.000 F200
G1 X40.602 Y6.702 Z-0.083 F200
G1 X40.594 Y6.702 Z-0.153 F200
G1 X40.570 Y6.702 Z-0.220 F200
G1 X40.532 Y6.702 Z-0.280 F200
G1 X40.482 Y6.702 Z-0.331 F200
G1 X40.422 Y6.702 Z-0.369 F200
G1 X40.355 Y6.702 Z-0.392 F200
G1 X40.284 Y6.702 Z-0.400 F200
G1 X40.135 Y6.702 Z-0.400 F200
G1 X-3.060 Y6.702 Z-0.400 F200
G1 X-3.130 Y6.702 Z-0.392 F1500
G1 X-3.197 Y6.702 Z-0.369 F1500
G1 X-3.257 Y6.702 Z-0.331 F1500
G1 X-3.308 Y6.702 Z-0.280 F1500
G1 X-3.346 Y6.702 Z-0.220 F1500
G1 X-3.369 Y6.702 Z-0.153 F1500
G1 X-3.377 Y6.702 Z-0.083 F1500
G1 X-3.377 Y6.702 Z6.080 F200
G1 X40.602 Y8.134 Z6.080 F200
G1 X40.602 Y8.134 Z1.000 F200
G1 X40.602 Y8.134 Z-0.083 F200
G1 X40.594 Y8.134 Z-0.153 F200
G1 X40.570 Y8.134 Z-0.220 F200
G1 X40.532 Y8.134 Z-0.280 F200
G1 X40.482 Y8.134 Z-0.331 F200
G1 X40.422 Y8.134 Z-0.369 F200
G1 X40.355 Y8.134 Z-0.392 F200
G1 X40.284 Y8.134 Z-0.400 F200
G1 X40.135 Y8.134 Z-0.400 F200
G1 X-3.060 Y8.134 Z-0.400 F200
G1 X-3.130 Y8.134 Z-0.392 F1500
G1 X-3.197 Y8.134 Z-0.369 F1500
G1 X-3.257 Y8.134 Z-0.331 F1500
G1 X-3.308 Y8.134 Z-0.280 F1500
G1 X-3.346 Y8.134 Z-0.220 F1500
G1 X-3.369 Y8.134 Z-0.153 F1500
G1 X-3.377 Y8.134 Z-0.083 F1500
G1 X-3.377 Y8.134 Z6.080 F200
G1 X40.602 Y9.566 Z6.080 F200
G1 X40.602 Y9.566 Z1.000 F200
G1 X40.602 Y9.566 Z-0.083 F200
G1 X40.594 Y9.566 Z-0.153 F200
G1 X40.570 Y9.566 Z-0.220 F200
G1 X40.532 Y9.566 Z-0.280 F200
G1 X40.482 Y9.566 Z-0.331 F200
G1 X40.422 Y9.566 Z-0.369 F200
G1 X40.355 Y9.566 Z-0.392 F200
G1 X40.284 Y9.566 Z-0.400 F200
G1 X40.135 Y9.566 Z-0.400 F200
G1 X-3.060 Y9.566 Z-0.400 F200
G1 X-3.130 Y9.566 Z-0.392 F1500
G1 X-3.197 Y9.566 Z-0.369 F1500
G1 X-3.257 Y9.566 Z-0.331 F1500
G1 X-3.308 Y9.566 Z-0.280 F1500
G1 X-3.346 Y9.566 Z-0.220 F1500
G1 X-3.369 Y9.566 Z-0.153 F1500
G1 X-3.377 Y9.566 Z-0.083 F1500
G1 X-3.377 Y9.566 Z6.080 F200
G1 X40.602 Y10.998 Z6.080 F200
G1 X40.602 Y10.998 Z1.000 F200
G1 X40.602 Y10.998 Z-0.083 F200
G1 X40.594 Y10.998 Z-0.153 F200
G1 X40.570 Y10.998 Z-0.220 F200
G1 X40.532 Y10.998 Z-0.280 F200
G1 X40.482 Y10.998 Z-0.331 F200
G1 X40.422 Y10.998 Z-0.369 F200
G1 X40.355 Y10.998 Z-0.392 F200
G1 X40.284 Y10.998 Z-0.400 F200
G1 X40.135 Y10.998 Z-0.400 F200
G1 X-3.060 Y10.998 Z-0.400 F200
G1 X-3.130 Y10.998 Z-0.392 F1500
G1 X-3.197 Y10.998 Z-0.369 F1500
G1 X-3.257 Y10.998 Z-0.331 F1500
G1 X-3.308 Y10.998 Z-0.280 F1500
G1 X-3.346 Y10.998 Z-0.220 F1500
G1 X-3.369 Y10.998 Z-0.153 F1500
G1 X-3.377 Y10.998 Z-0.083 F1500
G1 X-3.377 Y10.998 Z6.080 F200
G1 X40.602 Y12.431 Z6.080 F200
G1 X40.602 Y12.431 Z1.000 F200
G1 X40.602 Y12.431 Z-0.083 F200
G1 X40.594 Y12.431 Z-0.153 F200
G1 X40.570 Y12.431 Z-0.220 F200
G1 X40.532 Y12.431 Z-0.280 F200
G1 X40.482 Y12.431 Z-0.331 F200
G1 X40.422 Y12.431 Z-0.369 F200
G1 X40.355 Y12.431 Z-0.392 F200
G1 X40.284 Y12.431 Z-0.400 F200
G1 X40.135 Y12.431 Z-0.400 F200
G1 X-3.060 Y12.431 Z-0.400 F200
G1 X-3.130 Y12.431 Z-0.392 F1500
G1 X-3.197 Y12.431 Z-0.369 F1500
G1 X-3.257 Y12.431 Z-0.331 F1500
G1 X-3.308 Y12.431 Z-0.280 F1500
G1 X-3.346 Y12.431 Z-0.220 F1500
G1 X-3.369 Y12.431 Z-0.153 F1500
G1 X-3.377 Y12.431 Z-0.083 F1500
G1 X-3.377 Y12.431 Z6.080 F200
G1 X40.602 Y13.863 Z6.080 F200
G1 X40.602 Y13.863 Z1.000 F200
G1 X40.602 Y13.863 Z-0.083 F200
G1 X40.594 Y13.863 Z-0.153 F200
G1 X40.570 Y13.863 Z-0.220 F200
G1 X40.532 Y13.863 Z-0.280 F200
G1 X40.482 Y13.863 Z-0.331 F200
G1 X40.422 Y13.863 Z-0.369 F200
G1 X40.355 Y13.863 Z-0.392 F200
G1 X40.284 Y13.863 Z-0.400 F200
G1 X40.135 Y13.863 Z-0.400 F200
G1 X-3.060 Y13.863 Z-0.400 F200
G1 X-3.130 Y13.863 Z-0.392 F1500
G1 X-3.197 Y13.863 Z-0.369 F1500
G1 X-3.257 Y13.863 Z-0.331 F1500
G1 X-3.308 Y13.863 Z-0.280 F1500
G1 X-3.346 Y13.863 Z-0.220 F1500
G1 X-3.369 Y13.863 Z-0.153 F1500
G1 X-3.377 Y13.863 Z-0.083 F1500
G1 X-3.377 Y13.863 Z6.080 F200
G1 X40.602 Y15.295 Z6.080 F200
G1 X40.602 Y15.295 Z1.000 F200
G1 X40.602 Y15.295 Z-0.083 F200
G1 X40.594 Y15.295 Z-0.153 F200
G1 X40.570 Y15.295 Z-0.220 F200
G1 X40.532 Y15.295 Z-0.280 F200
G1 X40.482 Y15.295 Z-0.331 F200
G1 X40.422 Y15.295 Z-0.369 F200
G1 X40.355 Y15.295 Z-0.392 F200
G1 X40.284 Y15.295 Z-0.400 F200
G1 X40.135 Y15.295 Z-0.400 F200
G1 X-3.060 Y15.295 Z-0.400 F200
G1 X-3.130 Y15.295 Z-0.392 F1500
G1 X-3.197 Y15.295 Z-0.369 F1500
G1 X-3.257 Y15.295 Z-0.331 F1500
G1 X-3.308 Y15.295 Z-0.280 F1500
G1 X-3.346 Y15.295 Z-0.220 F1500
G1 X-3.369 Y15.295 Z-0.153 F1500
G1 X-3.377 Y15.295 Z-0.083 F1500
G1 X-3.377 Y15.295 Z6.080 F200
G1 X40.602 Y16.727 Z6.080 F200
G1 X40.602 Y16.727 Z1.000 F200
G1 X40.602 Y16.727 Z-0.083 F200
G1 X40.594 Y16.727 Z-0.153 F200
G1 X40.570 Y16.727 Z-0.220 F200
G1 X40.532 Y16.727 Z-0.280 F200
G1 X40.482 Y16.727 Z-0.331 F200
G1 X40.422 Y16.727 Z-0.369 F200
G1 X40.355 Y16.727 Z-0.392 F200
G1 X40.284 Y16.727 Z-0.400 F200
G1 X40.135 Y16.727 Z-0.400 F200
G1 X-3.060 Y16.727 Z-0.400 F200
G1 X-3.130 Y16.727 Z-0.392 F1500
G1 X-3.197 Y16.727 Z-0.369 F1500
G1 X-3.257 Y16.727 Z-0.331 F1500
G1 X-3.308 Y16.727 Z-0.280 F1500
G1 X-3.346 Y16.727 Z-0.220 F1500
G1 X-3.369 Y16.727 Z-0.153 F1500
G1 X-3.377 Y16.727 Z-0.083 F1500
G1 X-3.377 Y16.727 Z6.080 F200
G1 X40.592 Y-1.890 Z6.080 F200
G1 X40.592 Y-1.890 Z1.000 F200
G1 X40.592 Y-1.890 Z-0.183 F200
G1 X40.584 Y-1.890 Z-0.253 F200
G1 X40.560 Y-1.890 Z-0.320 F200
G1 X40.522 Y-1.890 Z-0.380 F200
G1 X40.472 Y-1.890 Z-0.431 F200
G1 X40.412 Y-1.890 Z-0.469 F200
G1 X40.345 Y-1.890 Z-0.492 F200
G1 X40.274 Y-1.890 Z-0.500 F200
G1 X40.135 Y-1.890 Z-0.500 F200
G1 X-3.060 Y-1.890 Z-0.500 F200
G1 X-3.130 Y-1.890 Z-0.492 F1500
G1 X-3.197 Y-1.890 Z-0.469 F1500
G1 X-3.257 Y-1.890 Z-0.431 F1500
G1 X-3.308 Y-1.890 Z-0.380 F1500
G1 X-3.346 Y-1.890 Z-0.320 F1500
G1 X-3.369 Y-1.890 Z-0.253 F1500
G1 X-3.377 Y-1.890 Z-0.183 F1500
G1 X-3.377 Y-1.890 Z6.080 F200
G1 X40.602 Y-0.458 Z6.080 F200
G1 X40.602 Y-0.458 Z1.000 F200
G1 X40.602 Y-0.458 Z-0.183 F200
G1 X40.594 Y-0.458 Z-0.253 F200
G1 X40.570 Y-0.458 Z-0.320 F200
G1 X40.532 Y-0.458 Z-0.380 F200
G1 X40.482 Y-0.458 Z-0.431 F200
G1 X40.422 Y-0.458 Z-0.469 F200
G1 X40.355 Y-0.458 Z-0.492 F200
G1 X40.284 Y-0.458 Z-0.500 F200
G1 X40.135 Y-0.458 Z-0.500 F200
G1 X-3.060 Y-0.458 Z-0.500 F200
G1 X-3.130 Y-0.458 Z-0.492 F1500
G1 X-3.197 Y-0.458 Z-0.469 F1500
G1 X-3.257 Y-0.458 Z-0.431 F1500
G1 X-3.308 Y-0.458 Z-0.380 F1500
G1 X-3.346 Y-0.458 Z-0.320 F1500
G1 X-3.369 Y-0.458 Z-0.253 F1500
G1 X-3.377 Y-0.458 Z-0.183 F1500
G1 X-3.377 Y-0.458 Z6.080 F200
G1 X40.602 Y0.974 Z6.080 F200
G1 X40.602 Y0.974 Z1.000 F200
G1 X40.602 Y0.974 Z-0.183 F200
G1 X40.594 Y0.974 Z-0.253 F200
G1 X40.570 Y0.974 Z-0.320 F200
G1 X40.532 Y0.974 Z-0.380 F200
G1 X40.482 Y0.974 Z-0.431 F200
G1 X40.422 Y0.974 Z-0.469 F200
G1 X40.355 Y0.974 Z-0.492 F200
G1 X40.284 Y0.974 Z-0.500 F200
G1 X40.135 Y0.974 Z-0.500 F200
G1 X-3.060 Y0.974 Z-0.500 F200
G1 X-3.130 Y0.974 Z-0.492 F1500
G1 X-3.197 Y0.974 Z-0.469 F1500
G1 X-3.257 Y0.974 Z-0.431 F1500
G1 X-3.308 Y0.974 Z-0.380 F1500
G1 X-3.346 Y0.974 Z-0.320 F1500
G1 X-3.369 Y0.974 Z-0.253 F1500
G1 X-3.377 Y0.974 Z-0.183 F1500
G1 X-3.377 Y0.974 Z6.080 F200
G1 X40.602 Y2.406 Z6.080 F200
G1 X40.602 Y2.406 Z1.000 F200
G1 X40.602 Y2.406 Z-0.183 F200
G1 X40.594 Y2.406 Z-0.253 F200
G1 X40.570 Y2.406 Z-0.320 F200
G1 X40.532 Y2.406 Z-0.380 F200
G1 X40.482 Y2.406 Z-0.431 F200
G1 X40.422 Y2.406 Z-0.469 F200
G1 X40.355 Y2.406 Z-0.492 F200
G1 X40.284 Y2.406 Z-0.500 F200
G1 X40.135 Y2.406 Z-0.500 F200
G1 X-3.060 Y2.406 Z-0.500 F200
G1 X-3.130 Y2.406 Z-0.492 F1500
G1 X-3.197 Y2.406 Z-0.469 F1500
G1 X-3.257 Y2.406 Z-0.431 F1500
G1 X-3.308 Y2.406 Z-0.380 F1500
G1 X-3.346 Y2.406 Z-0.320 F1500
G1 X-3.369 Y2.406 Z-0.253 F1500
G1 X-3.377 Y2.406 Z-0.183 F1500
G1 X-3.377 Y2.406 Z6.080 F200
G1 X40.602 Y3.838 Z6.080 F200
G1 X40.602 Y3.838 Z1.000 F200
G1 X40.602 Y3.838 Z-0.183 F200
G1 X40.594 Y3.838 Z-0.253 F200
G1 X40.570 Y3.838 Z-0.320 F200
G1 X40.532 Y3.838 Z-0.380 F200
G1 X40.482 Y3.838 Z-0.431 F200
G1 X40.422 Y3.838 Z-0.469 F200
G1 X40.355 Y3.838 Z-0.492 F200
G1 X40.284 Y3.838 Z-0.500 F200
G1 X40.135 Y3.838 Z-0.500 F200
G1 X-3.060 Y3.838 Z-0.500 F200
G1 X-3.130 Y3.838 Z-0.492 F1500
G1 X-3.197 Y3.838 Z-0.469 F1500
G1 X-3.257 Y3.838 Z-0.431 F1500
G1 X-3.308 Y3.838 Z-0.380 F1500
G1 X-3.346 Y3.838 Z-0.320 F1500
G1 X-3.369 Y3.838 Z-0.253 F1500
G1 X-3.377 Y3.838 Z-0.183 F1500
G1 X-3.377 Y3.838 Z6.080 F200
G1 X40.602 Y5.270 Z6.080 F200
G1 X40.602 Y5.270 Z1.000 F200
G1 X40.602 Y5.270 Z-0.183 F200
G1 X40.594 Y5.270 Z-0.253 F200
G1 X40.570 Y5.270 Z-0.320 F200
G1 X40.532 Y5.270 Z-0.380 F200
G1 X40.482 Y5.270 Z-0.431 F200
G1 X40.422 Y5.270 Z-0.469 F200
G1 X40.355 Y5.270 Z-0.492 F200
G1 X40.284 Y5.270 Z-0.500 F200
G1 X40.135 Y5.270 Z-0.500 F200
G1 X-3.060 Y5.270 Z-0.500 F200
G1 X-3.130 Y5.270 Z-0.492 F1500
G1 X-3.197 Y5.270 Z-0.469 F1500
G1 X-3.257 Y5.270 Z-0.431 F1500
G1 X-3.308 Y5.270 Z-0.380 F1500
G1 X-3.346 Y5.270 Z-0.320 F1500
G1 X-3.369 Y5.270 Z-0.253 F1500
G1 X-3.377 Y5.270 Z-0.183 F1500
G1 X-3.377 Y5.270 Z6.080 F200
G1 X40.602 Y6.702 Z6.080 F200
G1 X40.602 Y6.702 Z1.000 F200
G1 X40.602 Y6.702 Z-0.183 F200
G1 X40.594 Y6.702 Z-0.253 F200
G1 X40.570 Y6.702 Z-0.320 F200
G1 X40.532 Y6.702 Z-0.380 F200
G1 X40.482 Y6.702 Z-0.431 F200
G1 X40.422 Y6.702 Z-0.469 F200
G1 X40.355 Y6.702 Z-0.492 F200
G1 X40.284 Y6.702 Z-0.500 F200
G1 X40.135 Y6.702 Z-0.500 F200
G1 X-3.060 Y6.702 Z-0.500 F200
G1 X-3.130 Y6.702 Z-0.492 F1500
G1 X-3.197 Y6.702 Z-0.469 F1500
G1 X-3.257 Y6.702 Z-0.431 F1500
G1 X-3.308 Y6.702 Z-0.380 F1500
G1 X-3.346 Y6.702 Z-0.320 F1500
G1 X-3.369 Y6.702 Z-0.253 F1500
G1 X-3.377 Y6.702 Z-0.183 F1500
G1 X-3.377 Y6.702 Z6.080 F200
G1 X40.602 Y8.134 Z6.080 F200
G1 X40.602 Y8.134 Z1.000 F200
G1 X40.602 Y8.134 Z-0.183 F200
G1 X40.594 Y8.134 Z-0.253 F200
G1 X40.570 Y8.134 Z-0.320 F200
G1 X40.532 Y8.134 Z-0.380 F200
G1 X40.482 Y8.134 Z-0.431 F200
G1 X40.422 Y8.134 Z-0.469 F200
G1 X40.355 Y8.134 Z-0.492 F200
G1 X40.284 Y8.134 Z-0.500 F200
G1 X40.135 Y8.134 Z-0.500 F200
G1 X-3.060 Y8.134 Z-0.500 F200
G1 X-3.130 Y8.134 Z-0.492 F1500
G1 X-3.197 Y8.134 Z-0.469 F1500
G1 X-3.257 Y8.134 Z-0.431 F1500
G1 X-3.308 Y8.134 Z-0.380 F1500
G1 X-3.346 Y8.134 Z-0.320 F1500
G1 X-3.369 Y8.134 Z-0.253 F1500
G1 X-3.377 Y8.134 Z-0.183 F1500
G1 X-3.377 Y8.134 Z6.080 F200
G1 X40.602 Y9.566 Z6.080 F200
G1 X40.602 Y9.566 Z1.000 F200
G1 X40.602 Y9.566 Z-0.183 F200
G1 X40.594 Y9.566 Z-0.253 F200
G1 X40.570 Y9.566 Z-0.320 F200
G1 X40.532 Y9.566 Z-0.380 F200
G1 X40.482 Y9.566 Z-0.431 F200
G1 X40.422 Y9.566 Z-0.469 F200
G1 X40.355 Y9.566 Z-0.492 F200
G1 X40.284 Y9.566 Z-0.500 F200
G1 X40.135 Y9.566 Z-0.500 F200
G1 X-3.060 Y9.566 Z-0.500 F200
G1 X-3.130 Y9.566 Z-0.492 F1500
G1 X-3.197 Y9.566 Z-0.469 F1500
G1 X-3.257 Y9.566 Z-0.431 F1500
G1 X-3.308 Y9.566 Z-0.380 F1500
G1 X-3.346 Y9.566 Z-0.320 F1500
G1 X-3.369 Y9.566 Z-0.253 F1500
G1 X-3.377 Y9.566 Z-0.183 F1500
G1 X-3.377 Y9.566 Z6.080 F200
G1 X40.602 Y10.998 Z6.080 F200
G1 X40.602 Y10.998 Z1.000 F200
G1 X40.602 Y10.998 Z-0.183 F200
G1 X40.594 Y10.998 Z-0.253 F200
G1 X40.570 Y10.998 Z-0.320 F200
G1 X40.532 Y10.998 Z-0.380 F200
G1 X40.482 Y10.998 Z-0.431 F200
G1 X40.422 Y10.998 Z-0.469 F200
G1 X40.355 Y10.998 Z-0.492 F200
G1 X40.284 Y10.998 Z-0.500 F200
G1 X40.135 Y10.998 Z-0.500 F200
G1 X-3.060 Y10.998 Z-0.500 F200
G1 X-3.130 Y10.998 Z-0.492 F1500
G1 X-3.197 Y10.998 Z-0.469 F1500
G1 X-3.257 Y10.998 Z-0.431 F1500
G1 X-3.308 Y10.998 Z-0.380 F1500
G1 X-3.346 Y10.998 Z-0.320 F1500
G1 X-3.369 Y10.998 Z-0.253 F1500
G1 X-3.377 Y10.998 Z-0.183 F1500
G1 X-3.377 Y10.998 Z6.080 F200
G1 X40.602 Y12.431 Z6.080 F200
G1 X40.602 Y12.431 Z1.000 F200
G1 X40.602 Y12.431 Z-0.183 F200
G1 X40.594 Y12.431 Z-0.253 F200
G1 X40.570 Y12.431 Z-0.320 F200
G1 X40.532 Y12.431 Z-0.380 F200
G1 X40.482 Y12.431 Z-0.431 F200
G1 X40.422 Y12.431 Z-0.469 F200
G1 X40.355 Y12.431 Z-0.492 F200
G1 X40.284 Y12.431 Z-0.500 F200
G1 X40.135 Y12.431 Z-0.500 F200
G1 X-3.060 Y12.431 Z-0.500 F200
G1 X-3.130 Y12.431 Z-0.492 F1500
G1 X-3.197 Y12.431 Z-0.469 F1500
G1 X-3.257 Y12.431 Z-0.431 F1500
G1 X-3.308 Y12.431 Z-0.380 F1500
G1 X-3.346 Y12.431 Z-0.320 F1500
G1 X-3.369 Y12.431 Z-0.253 F1500
G1 X-3.377 Y12.431 Z-0.183 F1500
G1 X-3.377 Y12.431 Z6.080 F200
G1 X40.602 Y13.863 Z6.080 F200
G1 X40.602 Y13.863 Z1.000 F200
G1 X40.602 Y13.863 Z-0.183 F200
G1 X40.594 Y13.863 Z-0.253 F200
G1 X40.570 Y13.863 Z-0.320 F200
G1 X40.532 Y13.863 Z-0.380 F200
G1 X40.482 Y13.863 Z-0.431 F200
G1 X40.422 Y13.863 Z-0.469 F200
G1 X40.355 Y13.863 Z-0.492 F200
G1 X40.284 Y13.863 Z-0.500 F200
G1 X40.135 Y13.863 Z-0.500 F200
G1 X-3.060 Y13.863 Z-0.500 F200
G1 X-3.130 Y13.863 Z-0.492 F1500
G1 X-3.197 Y13.863 Z-0.469 F1500
G1 X-3.257 Y13.863 Z-0.431 F1500
G1 X-3.308 Y13.863 Z-0.380 F1500
G1 X-3.346 Y13.863 Z-0.320 F1500
G1 X-3.369 Y13.863 Z-0.253 F1500
G1 X-3.377 Y13.863 Z-0.183 F1500
G1 X-3.377 Y13.863 Z6.080 F200
G1 X40.602 Y15.295 Z6.080 F200
G1 X40.602 Y15.295 Z1.000 F200
G1 X40.602 Y15.295 Z-0.183 F200
G1 X40.594 Y15.295 Z-0.253 F200
G1 X40.570 Y15.295 Z-0.320 F200
G1 X40.532 Y15.295 Z-0.380 F200
G1 X40.482 Y15.295 Z-0.431 F200
G1 X40.422 Y15.295 Z-0.469 F200
G1 X40.355 Y15.295 Z-0.492 F200
G1 X40.284 Y15.295 Z-0.500 F200
G1 X40.135 Y15.295 Z-0.500 F200
G1 X-3.060 Y15.295 Z-0.500 F200
G1 X-3.130 Y15.295 Z-0.492 F1500
G1 X-3.197 Y15.295 Z-0.469 F1500
G1 X-3.257 Y15.295 Z-0.431 F1500
G1 X-3.308 Y15.295 Z-0.380 F1500
G1 X-3.346 Y15.295 Z-0.320 F1500
G1 X-3.369 Y15.295 Z-0.253 F1500
G1 X-3.377 Y15.295 Z-0.183 F1500
G1 X-3.377 Y15.295 Z6.080 F200
G1 X40.602 Y16.727 Z6.080 F200
G1 X40.602 Y16.727 Z1.000 F200
G1 X40.602 Y16.727 Z-0.183 F200
G1 X40.594 Y16.727 Z-0.253 F200
G1 X40.570 Y16.727 Z-0.320 F200
G1 X40.532 Y16.727 Z-0.380 F200
G1 X40.482 Y16.727 Z-0.431 F200
G1 X40.422 Y16.727 Z-0.469 F200
G1 X40.355 Y16.727 Z-0.492 F200
G1 X40.284 Y16.727 Z-0.500 F200
G1 X40.135 Y16.727 Z-0.500 F200
G1 X-3.060 Y16.727 Z-0.500 F200
G1 X-3.130 Y16.727 Z-0.492 F1500
G1 X-3.197 Y16.727 Z-0.469 F1500
G1 X-3.257 Y16.727 Z-0.431 F1500
G1 X-3.308 Y16.727 Z-0.380 F1500
G1 X-3.346 Y16.727 Z-0.320 F1500
G1 X-3.369 Y16.727 Z-0.253 F1500
G1 X-3.377 Y16.727 Z-0.183 F1500
G1 X-3.377 Y16.727 Z6.080 F200
G1 X40.592 Y-1.890 Z6.080 F200
G1 X40.592 Y-1.890 Z1.000 F200
G1 X40.592 Y-1.890 Z-0.282 F200
G1 X40.584 Y-1.890 Z-0.353 F200
G1 X40.560 Y-1.890 Z-0.420 F200
G1 X40.522 Y-1.890 Z-0.480 F200
G1 X40.472 Y-1.890 Z-0.531 F200
G1 X40.412 Y-1.890 Z-0.569 F200
G1 X40.345 Y-1.890 Z-0.592 F200
G1 X40.274 Y-1.890 Z-0.600 F200
G1 X40.135 Y-1.890 Z-0.600 F200
G1 X-3.060 Y-1.890 Z-0.600 F200
G1 X-3.130 Y-1.890 Z-0.592 F1500
G1 X-3.197 Y-1.890 Z-0.569 F1500
G1 X-3.257 Y-1.890 Z-0.531 F1500
G1 X-3.308 Y-1.890 Z-0.480 F1500
G1 X-3.346 Y-1.890 Z-0.420 F1500
G1 X-3.369 Y-1.890 Z-0.353 F1500
G1 X-3.377 Y-1.890 Z-0.282 F1500
G1 X-3.377 Y-1.890 Z6.080 F200
G1 X40.602 Y-0.458 Z6.080 F200
G1 X40.602 Y-0.458 Z1.000 F200
G1 X40.602 Y-0.458 Z-0.282 F200
G1 X40.594 Y-0.458 Z-0.353 F200
G1 X40.570 Y-0.458 Z-0.420 F200
G1 X40.532 Y-0.458 Z-0.480 F200
G1 X40.482 Y-0.458 Z-0.531 F200
G1 X40.422 Y-0.458 Z-0.569 F200
G1 X40.355 Y-0.458 Z-0.592 F200
G1 X40.284 Y-0.458 Z-0.600 F200
G1 X40.135 Y-0.458 Z-0.600 F200
G1 X-3.060 Y-0.458 Z-0.600 F200
G1 X-3.130 Y-0.458 Z-0.592 F1500
G1 X-3.197 Y-0.458 Z-0.569 F1500
G1 X-3.257 Y-0.458 Z-0.531 F1500
G1 X-3.308 Y-0.458 Z-0.480 F1500
G1 X-3.346 Y-0.458 Z-0.420 F1500
G1 X-3.369 Y-0.458 Z-0.353 F1500
G1 X-3.377 Y-0.458 Z-0.282 F1500
G1 X-3.377 Y-0.458 Z6.080 F200
G1 X40.602 Y0.974 Z6.080 F200
G1 X40.602 Y0.974 Z1.000 F200
G1 X40.602 Y0.974 Z-0.282 F200
G1 X40.594 Y0.974 Z-0.353 F200
G1 X40.570 Y0.974 Z-0.420 F200
G1 X40.532 Y0.974 Z-0.480 F200
G1 X40.482 Y0.974 Z-0.531 F200
G1 X40.422 Y0.974 Z-0.569 F200
G1 X40.355 Y0.974 Z-0.592 F200
G1 X40.284 Y0.974 Z-0.600 F200
G1 X40.135 Y0.974 Z-0.600 F200
G1 X-3.060 Y0.974 Z-0.600 F200
G1 X-3.130 Y0.974 Z-0.592 F1500
G1 X-3.197 Y0.974 Z-0.569 F1500
G1 X-3.257 Y0.974 Z-0.531 F1500
G1 X-3.308 Y0.974 Z-0.480 F1500
G1 X-3.346 Y0.974 Z-0.420 F1500
G1 X-3.369 Y0.974 Z-0.353 F1500
G1 X-3.377 Y0.974 Z-0.282 F1500
G1 X-3.377 Y0.974 Z6.080 F200
G1 X40.602 Y2.406 Z6.080 F200
G1 X40.602 Y2.406 Z1.000 F200
G1 X40.602 Y2.406 Z-0.282 F200
G1 X40.594 Y2.406 Z-0.353 F200
G1 X40.570 Y2.406 Z-0.420 F200
G1 X40.532 Y2.406 Z-0.480 F200
G1 X40.482 Y2.406 Z-0.531 F200
G1 X40.422 Y2.406 Z-0.569 F200
G1 X40.355 Y2.406 Z-0.592 F200
G1 X40.284 Y2.406 Z-0.600 F200
G1 X40.135 Y2.406 Z-0.600 F200
G1 X-3.060 Y2.406 Z-0.600 F200
G1 X-3.130 Y2.406 Z-0.592 F1500
G1 X-3.197 Y2.406 Z-0.569 F1500
G1 X-3.257 Y2.406 Z-0.531 F1500
G1 X-3.308 Y2.406 Z-0.480 F1500
G1 X-3.346 Y2.406 Z-0.420 F1500
G1 X-3.369 Y2.406 Z-0.353 F1500
G1 X-3.377 Y2.406 Z-0.282 F1500
G1 X-3.377 Y2.406 Z6.080 F200
G1 X40.602 Y3.838 Z6.080 F200
G1 X40.602 Y3.838 Z1.000 F200
G1 X40.602 Y3.838 Z-0.282 F200
G1 X40.594 Y3.838 Z-0.353 F200
G1 X40.570 Y3.838 Z-0.420 F200
G1 X40.532 Y3.838 Z-0.480 F200
G1 X40.482 Y3.838 Z-0.531 F200
G1 X40.422 Y3.838 Z-0.569 F200
G1 X40.355 Y3.838 Z-0.592 F200
G1 X40.284 Y3.838 Z-0.600 F200
G1 X40.135 Y3.838 Z-0.600 F200
G1 X-3.060 Y3.838 Z-0.600 F200
G1 X-3.130 Y3.838 Z-0.592 F1500
G1 X-3.197 Y3.838 Z-0.569 F1500
G1 X-3.257 Y3.838 Z-0.531 F1500
G1 X-3.308 Y3.838 Z-0.480 F1500
G1 X-3.346 Y3.838 Z-0.420 F1500
G1 X-3.369 Y3.838 Z-0.353 F1500
G1 X-3.377 Y3.838 Z-0.282 F1500
G1 X-3.377 Y3.838 Z6.080 F200
G1 X40.602 Y5.270 Z6.080 F200
G1 X40.602 Y5.270 Z1.000 F200
G1 X40.602 Y5.270 Z-0.282 F200
G1 X40.594 Y5.270 Z-0.353 F200
G1 X40.570 Y5.270 Z-0.420 F200
G1 X40.532 Y5.270 Z-0.480 F200
G1 X40.482 Y5.270 Z-0.531 F200
G1 X40.422 Y5.270 Z-0.569 F200
G1 X40.355 Y5.270 Z-0.592 F200
G1 X40.284 Y5.270 Z-0.600 F200
G1 X40.135 Y5.270 Z-0.600 F200
G1 X-3.060 Y5.270 Z-0.600 F200
G1 X-3.130 Y5.270 Z-0.592 F1500
G1 X-3.197 Y5.270 Z-0.569 F1500
G1 X-3.257 Y5.270 Z-0.531 F1500
G1 X-3.308 Y5.270 Z-0.480 F1500
G1 X-3.346 Y5.270 Z-0.420 F1500
G1 X-3.369 Y5.270 Z-0.353 F1500
G1 X-3.377 Y5.270 Z-0.282 F1500
G1 X-3.377 Y5.270 Z6.080 F200
G1 X40.602 Y6.702 Z6.080 F200
G1 X40.602 Y6.702 Z1.000 F200
G1 X40.602 Y6.702 Z-0.282 F200
G1 X40.594 Y6.702 Z-0.353 F200
G1 X40.570 Y6.702 Z-0.420 F200
G1 X40.532 Y6.702 Z-0.480 F200
G1 X40.482 Y6.702 Z-0.531 F200
G1 X40.422 Y6.702 Z-0.569 F200
G1 X40.355 Y6.702 Z-0.592 F200
G1 X40.284 Y6.702 Z-0.600 F200
G1 X40.135 Y6.702 Z-0.600 F200
G1 X-3.060 Y6.702 Z-0.600 F200
G1 X-3.130 Y6.702 Z-0.592 F1500
G1 X-3.197 Y6.702 Z-0.569 F1500
G1 X-3.257 Y6.702 Z-0.531 F1500
G1 X-3.308 Y6.702 Z-0.480 F1500
G1 X-3.346 Y6.702 Z-0.420 F1500
G1 X-3.369 Y6.702 Z-0.353 F1500
G1 X-3.377 Y6.702 Z-0.282 F1500
G1 X-3.377 Y6.702 Z6.080 F200
G1 X40.602 Y8.134 Z6.080 F200
G1 X40.602 Y8.134 Z1.000 F200
G1 X40.602 Y8.134 Z-0.282 F200
G1 X40.594 Y8.134 Z-0.353 F200
G1 X40.570 Y8.134 Z-0.420 F200
G1 X40.532 Y8.134 Z-0.480 F200
G1 X40.482 Y8.134 Z-0.531 F200
G1 X40.422 Y8.134 Z-0.569 F200
G1 X40.355 Y8.134 Z-0.592 F200
G1 X40.284 Y8.134 Z-0.600 F200
G1 X40.135 Y8.134 Z-0.600 F200
G1 X-3.060 Y8.134 Z-0.600 F200
G1 X-3.130 Y8.134 Z-0.592 F1500
G1 X-3.197 Y8.134 Z-0.569 F1500
G1 X-3.257 Y8.134 Z-0.531 F1500
G1 X-3.308 Y8.134 Z-0.480 F1500
G1 X-3.346 Y8.134 Z-0.420 F1500
G1 X-3.369 Y8.134 Z-0.353 F1500
G1 X-3.377 Y8.134 Z-0.282 F1500
G1 X-3.377 Y8.134 Z6.080 F200
G1 X40.602 Y9.566 Z6.080 F200
G1 X40.602 Y9.566 Z1.000 F200
G1 X40.602 Y9.566 Z-0.282 F200
G1 X40.594 Y9.566 Z-0.353 F200
G1 X40.570 Y9.566 Z-0.420 F200
G1 X40.532 Y9.566 Z-0.480 F200
G1 X40.482 Y9.566 Z-0.531 F200
G1 X40.422 Y9.566 Z-0.569 F200
G1 X40.355 Y9.566 Z-0.592 F200
G1 X40.284 Y9.566 Z-0.600 F200
G1 X40.135 Y9.566 Z-0.600 F200
G1 X-3.060 Y9.566 Z-0.600 F200
G1 X-3.130 Y9.566 Z-0.592 F1500
G1 X-3.197 Y9.566 Z-0.569 F1500
G1 X-3.257 Y9.566 Z-0.531 F1500
G1 X-3.308 Y9.566 Z-0.480 F1500
G1 X-3.346 Y9.566 Z-0.420 F1500
G1 X-3.369 Y9.566 Z-0.353 F1500
G1 X-3.377 Y9.566 Z-0.282 F1500
G1 X-3.377 Y9.566 Z6.080 F200
G1 X40.602 Y10.998 Z6.080 F200
G1 X40.602 Y10.998 Z1.000 F200
G1 X40.602 Y10.998 Z-0.282 F200
G1 X40.594 Y10.998 Z-0.353 F200
G1 X40.570 Y10.998 Z-0.420 F200
G1 X40.532 Y10.998 Z-0.480 F200
G1 X40.482 Y10.998 Z-0.531 F200
G1 X40.422 Y10.998 Z-0.569 F200
G1 X40.355 Y10.998 Z-0.592 F200
G1 X40.284 Y10.998 Z-0.600 F200
G1 X40.135 Y10.998 Z-0.600 F200
G1 X-3.060 Y10.998 Z-0.600 F200
G1 X-3.130 Y10.998 Z-0.592 F1500
G1 X-3.197 Y10.998 Z-0.569 F1500
G1 X-3.257 Y10.998 Z-0.531 F1500
G1 X-3.308 Y10.998 Z-0.480 F1500
G1 X-3.346 Y10.998 Z-0.420 F1500
G1 X-3.369 Y10.998 Z-0.353 F1500
G1 X-3.377 Y10.998 Z-0.282 F1500
G1 X-3.377 Y10.998 Z6.080 F200
G1 X40.602 Y12.431 Z6.080 F200
G1 X40.602 Y12.431 Z1.000 F200
G1 X40.602 Y12.431 Z-0.282 F200
G1 X40.594 Y12.431 Z-0.353 F200
G1 X40.570 Y12.431 Z-0.420 F200
G1 X40.532 Y12.431 Z-0.480 F200
G1 X40.482 Y12.431 Z-0.531 F200
G1 X40.422 Y12.431 Z-0.569 F200
G1 X40.355 Y12.431 Z-0.592 F200
G1 X40.284 Y12.431 Z-0.600 F200
G1 X40.135 Y12.431 Z-0.600 F200
G1 X-3.060 Y12.431 Z-0.600 F200
G1 X-3.130 Y12.431 Z-0.592 F1500
G1 X-3.197 Y12.431 Z-0.569 F1500
G1 X-3.257 Y12.431 Z-0.531 F1500
G1 X-3.308 Y12.431 Z-0.480 F1500
G1 X-3.346 Y12.431 Z-0.420 F1500
G1 X-3.369 Y12.431 Z-0.353 F1500
G1 X-3.377 Y12.431 Z-0.282 F1500
G1 X-3.377 Y12.431 Z6.080 F200
G1 X40.602 Y13.863 Z6.080 F200
G1 X40.602 Y13.863 Z1.000 F200
G1 X40.602 Y13.863 Z-0.282 F200
G1 X40.594 Y13.863 Z-0.353 F200
G1 X40.570 Y13.863 Z-0.420 F200
G1 X40.532 Y13.863 Z-0.480 F200
G1 X40.482 Y13.863 Z-0.531 F200
G1 X40.422 Y13.863 Z-0.569 F200
G1 X40.355 Y13.863 Z-0.592 F200
G1 X40.284 Y13.863 Z-0.600 F200
G1 X40.135 Y13.863 Z-0.600 F200
G1 X-3.060 Y13.863 Z-0.600 F200
G1 X-3.130 Y13.863 Z-0.592 F1500
G1 X-3.197 Y13.863 Z-0.569 F1500
G1 X-3.257 Y13.863 Z-0.531 F1500
G1 X-3.308 Y13.863 Z-0.480 F1500
G1 X-3.346 Y13.863 Z-0.420 F1500
G1 X-3.369 Y13.863 Z-0.353 F1500
G1 X-3.377 Y13.863 Z-0.282 F1500
G1 X-3.377 Y13.863 Z6.080 F200
G1 X40.602 Y15.295 Z6.080 F200
G1 X40.602 Y15.295 Z1.000 F200
G1 X40.602 Y15.295 Z-0.282 F200
G1 X40.594 Y15.295 Z-0.353 F200
G1 X40.570 Y15.295 Z-0.420 F200
G1 X40.532 Y15.295 Z-0.480 F200
G1 X40.482 Y15.295 Z-0.531 F200
G1 X40.422 Y15.295 Z-0.569 F200
G1 X40.355 Y15.295 Z-0.592 F200
G1 X40.284 Y15.295 Z-0.600 F200
G1 X40.135 Y15.295 Z-0.600 F200
G1 X-3.060 Y15.295 Z-0.600 F200
G1 X-3.130 Y15.295 Z-0.592 F1500
G1 X-3.197 Y15.295 Z-0.569 F1500
G1 X-3.257 Y15.295 Z-0.531 F1500
G1 X-3.308 Y15.295 Z-0.480 F1500
G1 X-3.346 Y15.295 Z-0.420 F1500
G1 X-3.369 Y15.295 Z-0.353 F1500
G1 X-3.377 Y15.295 Z-0.282 F1500
G1 X-3.377 Y15.295 Z6.080 F200
G1 X40.602 Y16.727 Z6.080 F200
G1 X40.602 Y16.727 Z1.000 F200
G1 X40.602 Y16.727 Z-0.282 F200
G1 X40.594 Y16.727 Z-0.353 F200
G1 X40.570 Y16.727 Z-0.420 F200
G1 X40.532 Y16.727 Z-0.480 F200
G1 X40.482 Y16.727 Z-0.531 F200
G1 X40.422 Y16.727 Z-0.569 F200
G1 X40.355 Y16.727 Z-0.592 F200
G1 X40.284 Y16.727 Z-0.600 F200
G1 X40.135 Y16.727 Z-0.600 F200
G1 X-3.060 Y16.727 Z-0.600 F200
G1 X-3.130 Y16.727 Z-0.592 F1500
G1 X-3.197 Y16.727 Z-0.569 F1500
G1 X-3.257 Y16.727 Z-0.531 F1500
G1 X-3.308 Y16.727 Z-0.480 F1500
G1 X-3.346 Y16.727 Z-0.420 F1500
G1 X-3.369 Y16.727 Z-0.353 F1500
G1 X-3.377 Y16.727 Z-0.282 F1500
G1 X-3.377 Y16.727 Z6.080 F200
G1 X40.592 Y-1.890 Z6.080 F200
G1 X40.592 Y-1.890 Z1.000 F200
G1 X40.592 Y-1.890 Z-0.382 F200
G1 X40.584 Y-1.890 Z-0.453 F200
G1 X40.560 Y-1.890 Z-0.520 F200
G1 X40.522 Y-1.890 Z-0.580 F200
G1 X40.472 Y-1.890 Z-0.631 F200
G1 X40.412 Y-1.890 Z-0.669 F200
G1 X40.345 Y-1.890 Z-0.692 F200
G1 X40.274 Y-1.890 Z-0.700 F200
G1 X40.135 Y-1.890 Z-0.700 F200
G1 X-3.060 Y-1.890 Z-0.700 F200
G1 X-3.130 Y-1.890 Z-0.692 F1500
G1 X-3.197 Y-1.890 Z-0.669 F1500
G1 X-3.257 Y-1.890 Z-0.631 F1500
G1 X-3.308 Y-1.890 Z-0.580 F1500
G1 X-3.346 Y-1.890 Z-0.520 F1500
G1 X-3.369 Y-1.890 Z-0.453 F1500
G1 X-3.377 Y-1.890 Z-0.382 F1500
G1 X-3.377 Y-1.890 Z6.080 F200
G1 X40.602 Y-0.458 Z6.080 F200
G1 X40.602 Y-0.458 Z1.000 F200
G1 X40.602 Y-0.458 Z-0.382 F200
G1 X40.594 Y-0.458 Z-0.453 F200
G1 X40.570 Y-0.458 Z-0.520 F200
G1 X40.532 Y-0.458 Z-0.580 F200
G1 X40.482 Y-0.458 Z-0.631 F200
G1 X40.422 Y-0.458 Z-0.669 F200
G1 X40.355 Y-0.458 Z-0.692 F200
G1 X40.284 Y-0.458 Z-0.700 F200
G1 X40.135 Y-0.458 Z-0.700 F200
G1 X-3.060 Y-0.458 Z-0.700 F200
G1 X-3.130 Y-0.458 Z-0.692 F1500
G1 X-3.197 Y-0.458 Z-0.669 F1500
G1 X-3.257 Y-0.458 Z-0.631 F1500
G1 X-3.308 Y-0.458 Z-0.580 F1500
G1 X-3.346 Y-0.458 Z-0.520 F1500
G1 X-3.369 Y-0.458 Z-0.453 F1500
G1 X-3.377 Y-0.458 Z-0.382 F1500
G1 X-3.377 Y-0.458 Z6.080 F200
G1 X40.602 Y0.974 Z6.080 F200
G1 X40.602 Y0.974 Z1.000 F200
G1 X40.602 Y0.974 Z-0.382 F200
G1 X40.594 Y0.974 Z-0.453 F200
G1 X40.570 Y0.974 Z-0.520 F200
G1 X40.532 Y0.974 Z-0.580 F200
G1 X40.482 Y0.974 Z-0.631 F200
G1 X40.422 Y0.974 Z-0.669 F200
G1 X40.355 Y0.974 Z-0.692 F200
G1 X40.284 Y0.974 Z-0.700 F200
G1 X40.135 Y0.974 Z-0.700 F200
G1 X-3.060 Y0.974 Z-0.700 F200
G1 X-3.130 Y0.974 Z-0.692 F1500
G1 X-3.197 Y0.974 Z-0.669 F1500
G1 X-3.257 Y0.974 Z-0.631 F1500
G1 X-3.308 Y0.974 Z-0.580 F1500
G1 X-3.346 Y0.974 Z-0.520 F1500
G1 X-3.369 Y0.974 Z-0.453 F1500
G1 X-3.377 Y0.974 Z-0.382 F1500
G1 X-3.377 Y0.974 Z6.080 F200
G1 X40.602 Y2.406 Z6.080 F200
G1 X40.602 Y2.406 Z1.000 F200
G1 X40.602 Y2.406 Z-0.382 F200
G1 X40.594 Y2.406 Z-0.453 F200
G1 X40.570 Y2.406 Z-0.520 F200
G1 X40.532 Y2.406 Z-0.580 F200
G1 X40.482 Y2.406 Z-0.631 F200
G1 X40.422 Y2.406 Z-0.669 F200
G1 X40.355 Y2.406 Z-0.692 F200
G1 X40.284 Y2.406 Z-0.700 F200
G1 X40.135 Y2.406 Z-0.700 F200
G1 X-3.060 Y2.406 Z-0.700 F200
G1 X-3.130 Y2.406 Z-0.692 F1500
G1 X-3.197 Y2.406 Z-0.669 F1500
G1 X-3.257 Y2.406 Z-0.631 F1500
G1 X-3.308 Y2.406 Z-0.580 F1500
G1 X-3.346 Y2.406 Z-0.520 F1500
G1 X-3.369 Y2.406 Z-0.453 F1500
G1 X-3.377 Y2.406 Z-0.382 F1500
G1 X-3.377 Y2.406 Z6.080 F200
G1 X40.602 Y3.838 Z6.080 F200
G1 X40.602 Y3.838 Z1.000 F200
G1 X40.602 Y3.838 Z-0.382 F200
G1 X40.594 Y3.838 Z-0.453 F200
G1 X40.570 Y3.838 Z-0.520 F200
G1 X40.532 Y3.838 Z-0.580 F200
G1 X40.482 Y3.838 Z-0.631 F200
G1 X40.422 Y3.838 Z-0.669 F200
G1 X40.355 Y3.838 Z-0.692 F200
G1 X40.284 Y3.838 Z-0.700 F200
G1 X40.135 Y3.838 Z-0.700 F200
G1 X-3.060 Y3.838 Z-0.700 F200
G1 X-3.130 Y3.838 Z-0.692 F1500
G1 X-3.197 Y3.838 Z-0.669 F1500
G1 X-3.257 Y3.838 Z-0.631 F1500
G1 X-3.308 Y3.838 Z-0.580 F1500
G1 X-3.346 Y3.838 Z-0.520 F1500
G1 X-3.369 Y3.838 Z-0.453 F1500
G1 X-3.377 Y3.838 Z-0.382 F1500
G1 X-3.377 Y3.838 Z6.080 F200
G1 X40.602 Y5.270 Z6.080 F200
G1 X40.602 Y5.270 Z1.000 F200
G1 X40.602 Y5.270 Z-0.382 F200
G1 X40.594 Y5.270 Z-0.453 F200
G1 X40.570 Y5.270 Z-0.520 F200
G1 X40.532 Y5.270 Z-0.580 F200
G1 X40.482 Y5.270 Z-0.631 F200
G1 X40.422 Y5.270 Z-0.669 F200
G1 X40.355 Y5.270 Z-0.692 F200
G1 X40.284 Y5.270 Z-0.700 F200
G1 X40.135 Y5.270 Z-0.700 F200
G1 X-3.060 Y5.270 Z-0.700 F200
G1 X-3.130 Y5.270 Z-0.692 F1500
G1 X-3.197 Y5.270 Z-0.669 F1500
G1 X-3.257 Y5.270 Z-0.631 F1500
G1 X-3.308 Y5.270 Z-0.580 F1500
G1 X-3.346 Y5.270 Z-0.520 F1500
G1 X-3.369 Y5.270 Z-0.453 F1500
G1 X-3.377 Y5.270 Z-0.382 F1500
G1 X-3.377 Y5.270 Z6.080 F200
G1 X40.602 Y6.702 Z6.080 F200
G1 X40.602 Y6.702 Z1.000 F200
G1 X40.602 Y6.702 Z-0.382 F200
G1 X40.594 Y6.702 Z-0.453 F200
G1 X40.570 Y6.702 Z-0.520 F200
G1 X40.532 Y6.702 Z-0.580 F200
G1 X40.482 Y6.702 Z-0.631 F200
G1 X40.422 Y6.702 Z-0.669 F200
G1 X40.355 Y6.702 Z-0.692 F200
G1 X40.284 Y6.702 Z-0.700 F200
G1 X40.135 Y6.702 Z-0.700 F200
G1 X-3.060 Y6.702 Z-0.700 F200
G1 X-3.130 Y6.702 Z-0.692 F1500
G1 X-3.197 Y6.702 Z-0.669 F1500
G1 X-3.257 Y6.702 Z-0.631 F1500
G1 X-3.308 Y6.702 Z-0.580 F1500
G1 X-3.346 Y6.702 Z-0.520 F1500
G1 X-3.369 Y6.702 Z-0.453 F1500
G1 X-3.377 Y6.702 Z-0.382 F1500
G1 X-3.377 Y6.702 Z6.080 F200
G1 X40.602 Y8.134 Z6.080 F200
G1 X40.602 Y8.134 Z1.000 F200
G1 X40.602 Y8.134 Z-0.382 F200
G1 X40.594 Y8.134 Z-0.453 F200
G1 X40.570 Y8.134 Z-0.520 F200
G1 X40.532 Y8.134 Z-0.580 F200
G1 X40.482 Y8.134 Z-0.631 F200
G1 X40.422 Y8.134 Z-0.669 F200
G1 X40.355 Y8.134 Z-0.692 F200
G1 X40.284 Y8.134 Z-0.700 F200
G1 X40.135 Y8.134 Z-0.700 F200
G1 X-3.060 Y8.134 Z-0.700 F200
G1 X-3.130 Y8.134 Z-0.692 F1500
G1 X-3.197 Y8.134 Z-0.669 F1500
G1 X-3.257 Y8.134 Z-0.631 F1500
G1 X-3.308 Y8.134 Z-0.580 F1500
G1 X-3.346 Y8.134 Z-0.520 F1500
G1 X-3.369 Y8.134 Z-0.453 F1500
G1 X-3.377 Y8.134 Z-0.382 F1500
G1 X-3.377 Y8.134 Z6.080 F200
G1 X40.602 Y9.566 Z6.080 F200
G1 X40.602 Y9.566 Z1.000 F200
G1 X40.602 Y9.566 Z-0.382 F200
G1 X40.594 Y9.566 Z-0.453 F200
G1 X40.570 Y9.566 Z-0.520 F200
G1 X40.532 Y9.566 Z-0.580 F200
G1 X40.482 Y9.566 Z-0.631 F200
G1 X40.422 Y9.566 Z-0.669 F200
G1 X40.355 Y9.566 Z-0.692 F200
G1 X40.284 Y9.566 Z-0.700 F200
G1 X40.135 Y9.566 Z-0.700 F200
G1 X-3.060 Y9.566 Z-0.700 F200
G1 X-3.130 Y9.566 Z-0.692 F1500
G1 X-3.197 Y9.566 Z-0.669 F1500
G1 X-3.257 Y9.566 Z-0.631 F1500
G1 X-3.308 Y9.566 Z-0.580 F1500
G1 X-3.346 Y9.566 Z-0.520 F1500
G1 X-3.369 Y9.566 Z-0.453 F1500
G1 X-3.377 Y9.566 Z-0.382 F1500
G1 X-3.377 Y9.566 Z6.080 F200
G1 X40.602 Y10.998 Z6.080 F200
G1 X40.602 Y10.998 Z1.000 F200
G1 X40.602 Y10.998 Z-0.382 F200
G1 X40.594 Y10.998 Z-0.453 F200
G1 X40.570 Y10.998 Z-0.520 F200
G1 X40.532 Y10.998 Z-0.580 F200
G1 X40.482 Y10.998 Z-0.631 F200
G1 X40.422 Y10.998 Z-0.669 F200
G1 X40.355 Y10.998 Z-0.692 F200
G1 X40.284 Y10.998 Z-0.700 F200
G1 X40.135 Y10.998 Z-0.700 F200
G1 X-3.060 Y10.998 Z-0.700 F200
G1 X-3.130 Y10.998 Z-0.692 F1500
G1 X-3.197 Y10.998 Z-0.669 F1500
G1 X-3.257 Y10.998 Z-0.631 F1500
G1 X-3.308 Y10.998 Z-0.580 F1500
G1 X-3.346 Y10.998 Z-0.520 F1500
G1 X-3.369 Y10.998 Z-0.453 F1500
G1 X-3.377 Y10.998 Z-0.382 F1500
G1 X-3.377 Y10.998 Z6.080 F200
G1 X40.602 Y12.431 Z6.080 F200
G1 X40.602 Y12.431 Z1.000 F200
G1 X40.602 Y12.431 Z-0.382 F200
G1 X40.594 Y12.431 Z-0.453 F200
G1 X40.570 Y12.431 Z-0.520 F200
G1 X40.532 Y12.431 Z-0.580 F200
G1 X40.482 Y12.431 Z-0.631 F200
G1 X40.422 Y12.431 Z-0.669 F200
G1 X40.355 Y12.431 Z-0.692 F200
G1 X40.284 Y12.431 Z-0.700 F200
G1 X40.135 Y12.431 Z-0.700 F200
G1 X-3.060 Y12.431 Z-0.700 F200
G1 X-3.130 Y12.431 Z-0.692 F1500
G1 X-3.197 Y12.431 Z-0.669 F1500
G1 X-3.257 Y12.431 Z-0.631 F1500
G1 X-3.308 Y12.431 Z-0.580 F1500
G1 X-3.346 Y12.431 Z-0.520 F1500
G1 X-3.369 Y12.431 Z-0.453 F1500
G1 X-3.377 Y12.431 Z-0.382 F1500
G1 X-3.377 Y12.431 Z6.080 F200
G1 X40.602 Y13.863 Z6.080 F200
G1 X40.602 Y13.863 Z1.000 F200
G1 X40.602 Y13.863 Z-0.382 F200
G1 X40.594 Y13.863 Z-0.453 F200
G1 X40.570 Y13.863 Z-0.520 F200
G1 X40.532 Y13.863 Z-0.580 F200
G1 X40.482 Y13.863 Z-0.631 F200
G1 X40.422 Y13.863 Z-0.669 F200
G1 X40.355 Y13.863 Z-0.692 F200
G1 X40.284 Y13.863 Z-0.700 F200
G1 X40.135 Y13.863 Z-0.700 F200
G1 X-3.060 Y13.863 Z-0.700 F200
G1 X-3.130 Y13.863 Z-0.692 F1500
G1 X-3.197 Y13.863 Z-0.669 F1500
G1 X-3.257 Y13.863 Z-0.631 F1500
G1 X-3.308 Y13.863 Z-0.580 F1500
G1 X-3.346 Y13.863 Z-0.520 F1500
G1 X-3.369 Y13.863 Z-0.453 F1500
G1 X-3.377 Y13.863 Z-0.382 F1500
G1 X-3.377 Y13.863 Z6.080 F200
G1 X40.602 Y15.295 Z6.080 F200
G1 X40.602 Y15.295 Z1.000 F200
G1 X40.602 Y15.295 Z-0.382 F200
G1 X40.594 Y15.295 Z-0.453 F200
G1 X40.570 Y15.295 Z-0.520 F200
G1 X40.532 Y15.295 Z-0.580 F200
G1 X40.482 Y15.295 Z-0.631 F200
G1 X40.422 Y15.295 Z-0.669 F200
G1 X40.355 Y15.295 Z-0.692 F200
G1 X40.284 Y15.295 Z-0.700 F200
G1 X40.135 Y15.295 Z-0.700 F200
G1 X-3.060 Y15.295 Z-0.700 F200
G1 X-3.130 Y15.295 Z-0.692 F1500
G1 X-3.197 Y15.295 Z-0.669 F1500
G1 X-3.257 Y15.295 Z-0.631 F1500
G1 X-3.308 Y15.295 Z-0.580 F1500
G1 X-3.346 Y15.295 Z-0.520 F1500
G1 X-3.369 Y15.295 Z-0.453 F1500
G1 X-3.377 Y15.295 Z-0.382 F1500
G1 X-3.377 Y15.295 Z6.080 F200
G1 X40.602 Y16.727 Z6.080 F200
G1 X40.602 Y16.727 Z1.000 F200
G1 X40.602 Y16.727 Z-0.382 F200
G1 X40.594 Y16.727 Z-0.453 F200
G1 X40.570 Y16.727 Z-0.520 F200
G1 X40.532 Y16.727 Z-0.580 F200
G1 X40.482 Y16.727 Z-0.631 F200
G1 X40.422 Y16.727 Z-0.669 F200
G1 X40.355 Y16.727 Z-0.692 F200
G1 X40.284 Y16.727 Z-0.700 F200
G1 X40.135 Y16.727 Z-0.700 F200
G1 X-3.060 Y16.727 Z-0.700 F200
G1 X-3.130 Y16.727 Z-0.692 F1500
G1 X-3.197 Y16.727 Z-0.669 F1500
G1 X-3.257 Y16.727 Z-0.631 F1500
G1 X-3.308 Y16.727 Z-0.580 F1500
G1 X-3.346 Y16.727 Z-0.520 F1500
G1 X-3.369 Y16.727 Z-0.453 F1500
G1 X-3.377 Y16.727 Z-0.382 F1500
G1 X-3.377 Y16.727 Z6.080 F200
G1 X40.592 Y-1.890 Z6.080 F200
G1 X40.592 Y-1.890 Z1.000 F200
G1 X40.592 Y-1.890 Z-0.482 F200
G1 X40.584 Y-1.890 Z-0.553 F200
G1 X40.560 Y-1.890 Z-0.620 F200
G1 X40.522 Y-1.890 Z-0.680 F200
G1 X40.472 Y-1.890 Z-0.731 F200
G1 X40.412 Y-1.890 Z-0.769 F200
G1 X40.345 Y-1.890 Z-0.792 F200
G1 X40.274 Y-1.890 Z-0.800 F200
G1 X40.135 Y-1.890 Z-0.800 F200
G1 X-3.060 Y-1.890 Z-0.800 F200
G1 X-3.130 Y-1.890 Z-0.792 F1500
G1 X-3.197 Y-1.890 Z-0.769 F1500
G1 X-3.257 Y-1.890 Z-0.731 F1500
G1 X-3.308 Y-1.890 Z-0.680 F1500
G1 X-3.346 Y-1.890 Z-0.620 F1500
G1 X-3.369 Y-1.890 Z-0.553 F1500
G1 X-3.377 Y-1.890 Z-0.482 F1500
G1 X-3.377 Y-1.890 Z6.080 F200
G1 X40.602 Y-0.458 Z6.080 F200
G1 X40.602 Y-0.458 Z1.000 F200
G1 X40.602 Y-0.458 Z-0.482 F200
G1 X40.594 Y-0.458 Z-0.553 F200
G1 X40.570 Y-0.458 Z-0.620 F200
G1 X40.532 Y-0.458 Z-0.680 F200
G1 X40.482 Y-0.458 Z-0.731 F200
G1 X40.422 Y-0.458 Z-0.769 F200
G1 X40.355 Y-0.458 Z-0.792 F200
G1 X40.284 Y-0.458 Z-0.800 F200
G1 X40.135 Y-0.458 Z-0.800 F200
G1 X-3.060 Y-0.458 Z-0.800 F200
G1 X-3.130 Y-0.458 Z-0.792 F1500
G1 X-3.197 Y-0.458 Z-0.769 F1500
G1 X-3.257 Y-0.458 Z-0.731 F1500
G1 X-3.308 Y-0.458 Z-0.680 F1500
G1 X-3.346 Y-0.458 Z-0.620 F1500
G1 X-3.369 Y-0.458 Z-0.553 F1500
G1 X-3.377 Y-0.458 Z-0.482 F1500
G1 X-3.377 Y-0.458 Z6.080 F200
G1 X40.602 Y0.974 Z6.080 F200
G1 X40.602 Y0.974 Z1.000 F200
G1 X40.602 Y0.974 Z-0.482 F200
G1 X40.594 Y0.974 Z-0.553 F200
G1 X40.570 Y0.974 Z-0.620 F200
G1 X40.532 Y0.974 Z-0.680 F200
G1 X40.482 Y0.974 Z-0.731 F200
G1 X40.422 Y0.974 Z-0.769 F200
G1 X40.355 Y0.974 Z-0.792 F200
G1 X40.284 Y0.974 Z-0.800 F200
G1 X40.135 Y0.974 Z-0.800 F200
G1 X-3.060 Y0.974 Z-0.800 F200
G1 X-3.130 Y0.974 Z-0.792 F1500
G1 X-3.197 Y0.974 Z-0.769 F1500
G1 X-3.257 Y0.974 Z-0.731 F1500
G1 X-3.308 Y0.974 Z-0.680 F1500
G1 X-3.346 Y0.974 Z-0.620 F1500
G1 X-3.369 Y0.974 Z-0.553 F1500
G1 X-3.377 Y0.974 Z-0.482 F1500
G1 X-3.377 Y0.974 Z6.080 F200
G1 X40.602 Y2.406 Z6.080 F200
G1 X40.602 Y2.406 Z1.000 F200
G1 X40.602 Y2.406 Z-0.482 F200
G1 X40.594 Y2.406 Z-0.553 F200
G1 X40.570 Y2.406 Z-0.620 F200
G1 X40.532 Y2.406 Z-0.680 F200
G1 X40.482 Y2.406 Z-0.731 F200
G1 X40.422 Y2.406 Z-0.769 F200
G1 X40.355 Y2.406 Z-0.792 F200
G1 X40.284 Y2.406 Z-0.800 F200
G1 X40.135 Y2.406 Z-0.800 F200
G1 X-3.060 Y2.406 Z-0.800 F200
G1 X-3.130 Y2.406 Z-0.792 F1500
G1 X-3.197 Y2.406 Z-0.769 F1500
G1 X-3.257 Y2.406 Z-0.731 F1500
G1 X-3.308 Y2.406 Z-0.680 F1500
G1 X-3.346 Y2.406 Z-0.620 F1500
G1 X-3.369 Y2.406 Z-0.553 F1500
G1 X-3.377 Y2.406 Z-0.482 F1500
G1 X-3.377 Y2.406 Z6.080 F200
G1 X40.602 Y3.838 Z6.080 F200
G1 X40.602 Y3.838 Z1.000 F200
G1 X40.602 Y3.838 Z-0.482 F200
G1 X40.594 Y3.838 Z-0.553 F200
G1 X40.570 Y3.838 Z-0.620 F200
G1 X40.532 Y3.838 Z-0.680 F200
G1 X40.482 Y3.838 Z-0.731 F200
G1 X40.422 Y3.838 Z-0.769 F200
G1 X40.355 Y3.838 Z-0.792 F200
G1 X40.284 Y3.838 Z-0.800 F200
G1 X40.135 Y3.838 Z-0.800 F200
G1 X-3.060 Y3.838 Z-0.800 F200
G1 X-3.130 Y3.838 Z-0.792 F1500
G1 X-3.197 Y3.838 Z-0.769 F1500
G1 X-3.257 Y3.838 Z-0.731 F1500
G1 X-3.308 Y3.838 Z-0.680 F1500
G1 X-3.346 Y3.838 Z-0.620 F1500
G1 X-3.369 Y3.838 Z-0.553 F1500
G1 X-3.377 Y3.838 Z-0.482 F1500
G1 X-3.377 Y3.838 Z6.080 F200
G1 X40.602 Y5.270 Z6.080 F200
G1 X40.602 Y5.270 Z1.000 F200
G1 X40.602 Y5.270 Z-0.482 F200
G1 X40.594 Y5.270 Z-0.553 F200
G1 X40.570 Y5.270 Z-0.620 F200
G1 X40.532 Y5.270 Z-0.680 F200
G1 X40.482 Y5.270 Z-0.731 F200
G1 X40.422 Y5.270 Z-0.769 F200
G1 X40.355 Y5.270 Z-0.792 F200
G1 X40.284 Y5.270 Z-0.800 F200
G1 X40.135 Y5.270 Z-0.800 F200
G1 X-3.060 Y5.270 Z-0.800 F200
G1 X-3.130 Y5.270 Z-0.792 F1500
G1 X-3.197 Y5.270 Z-0.769 F1500
G1 X-3.257 Y5.270 Z-0.731 F1500
G1 X-3.308 Y5.270 Z-0.680 F1500
G1 X-3.346 Y5.270 Z-0.620 F1500
G1 X-3.369 Y5.270 Z-0.553 F1500
G1 X-3.377 Y5.270 Z-0.482 F1500
G1 X-3.377 Y5.270 Z6.080 F200
G1 X40.602 Y6.702 Z6.080 F200
G1 X40.602 Y6.702 Z1.000 F200
G1 X40.602 Y6.702 Z-0.482 F200
G1 X40.594 Y6.702 Z-0.553 F200
G1 X40.570 Y6.702 Z-0.620 F200
G1 X40.532 Y6.702 Z-0.680 F200
G1 X40.482 Y6.702 Z-0.731 F200
G1 X40.422 Y6.702 Z-0.769 F200
G1 X40.355 Y6.702 Z-0.792 F200
G1 X40.284 Y6.702 Z-0.800 F200
G1 X40.135 Y6.702 Z-0.800 F200
G1 X-3.060 Y6.702 Z-0.800 F200
G1 X-3.130 Y6.702 Z-0.792 F1500
G1 X-3.197 Y6.702 Z-0.769 F1500
G1 X-3.257 Y6.702 Z-0.731 F1500
G1 X-3.308 Y6.702 Z-0.680 F1500
G1 X-3.346 Y6.702 Z-0.620 F1500
G1 X-3.369 Y6.702 Z-0.553 F1500
G1 X-3.377 Y6.702 Z-0.482 F1500
G1 X-3.377 Y6.702 Z6.080 F200
G1 X40.602 Y8.134 Z6.080 F200
G1 X40.602 Y8.134 Z1.000 F200
G1 X40.602 Y8.134 Z-0.482 F200
G1 X40.594 Y8.134 Z-0.553 F200
G1 X40.570 Y8.134 Z-0.620 F200
G1 X40.532 Y8.134 Z-0.680 F200
G1 X40.482 Y8.134 Z-0.731 F200
G1 X40.422 Y8.134 Z-0.769 F200
G1 X40.355 Y8.134 Z-0.792 F200
G1 X40.284 Y8.134 Z-0.800 F200
G1 X40.135 Y8.134 Z-0.800 F200
G1 X-3.060 Y8.134 Z-0.800 F200
G1 X-3.130 Y8.134 Z-0.792 F1500
G1 X-3.197 Y8.134 Z-0.769 F1500
G1 X-3.257 Y8.134 Z-0.731 F1500
G1 X-3.308 Y8.134 Z-0.680 F1500
G1 X-3.346 Y8.134 Z-0.620 F1500
G1 X-3.369 Y8.134 Z-0.553 F1500
G1 X-3.377 Y8.134 Z-0.482 F1500
G1 X-3.377 Y8.134 Z6.080 F200
G1 X40.602 Y9.566 Z6.080 F200
G1 X40.602 Y9.566 Z1.000 F200
G1 X40.602 Y9.566 Z-0.482 F200
G1 X40.594 Y9.566 Z-0.553 F200
G1 X40.570 Y9.566 Z-0.620 F200
G1 X40.532 Y9.566 Z-0.680 F200
G1 X40.482 Y9.566 Z-0.731 F200
G1 X40.422 Y9.566 Z-0.769 F200
G1 X40.355 Y9.566 Z-0.792 F200
G1 X40.284 Y9.566 Z-0.800 F200
G1 X40.135 Y9.566 Z-0.800 F200
G1 X-3.060 Y9.566 Z-0.800 F200
G1 X-3.130 Y9.566 Z-0.792 F1500
G1 X-3.197 Y9.566 Z-0.769 F1500
G1 X-3.257 Y9.566 Z-0.731 F1500
G1 X-3.308 Y9.566 Z-0.680 F1500
G1 X-3.346 Y9.566 Z-0.620 F1500
G1 X-3.369 Y9.566 Z-0.553 F1500
G1 X-3.377 Y9.566 Z-0.482 F1500
G1 X-3.377 Y9.566 Z6.080 F200
G1 X40.602 Y10.998 Z6.080 F200
G1 X40.602 Y10.998 Z1.000 F200
G1 X40.602 Y10.998 Z-0.482 F200
G1 X40.594 Y10.998 Z-0.553 F200
G1 X40.570 Y10.998 Z-0.620 F200
G1 X40.532 Y10.998 Z-0.680 F200
G1 X40.482 Y10.998 Z-0.731 F200
G1 X40.422 Y10.998 Z-0.769 F200
G1 X40.355 Y10.998 Z-0.792 F200
G1 X40.284 Y10.998 Z-0.800 F200
G1 X40.135 Y10.998 Z-0.800 F200
G1 X-3.060 Y10.998 Z-0.800 F200
G1 X-3.130 Y10.998 Z-0.792 F1500
G1 X-3.197 Y10.998 Z-0.769 F1500
G1 X-3.257 Y10.998 Z-0.731 F1500
G1 X-3.308 Y10.998 Z-0.680 F1500
G1 X-3.346 Y10.998 Z-0.620 F1500
G1 X-3.369 Y10.998 Z-0.553 F1500
G1 X-3.377 Y10.998 Z-0.482 F1500
G1 X-3.377 Y10.998 Z6.080 F200
G1 X40.602 Y12.431 Z6.080 F200
G1 X40.602 Y12.431 Z1.000 F200
G1 X40.602 Y12.431 Z-0.482 F200
G1 X40.594 Y12.431 Z-0.553 F200
G1 X40.570 Y12.431 Z-0.620 F200
G1 X40.532 Y12.431 Z-0.680 F200
G1 X40.482 Y12.431 Z-0.731 F200
G1 X40.422 Y12.431 Z-0.769 F200
G1 X40.355 Y12.431 Z-0.792 F200
G1 X40.284 Y12.431 Z-0.800 F200
G1 X40.135 Y12.431 Z-0.800 F200
G1 X-3.060 Y12.431 Z-0.800 F200
G1 X-3.130 Y12.431 Z-0.792 F1500
G1 X-3.197 Y12.431 Z-0.769 F1500
G1 X-3.257 Y12.431 Z-0.731 F1500
G1 X-3.308 Y12.431 Z-0.680 F1500
G1 X-3.346 Y12.431 Z-0.620 F1500
G1 X-3.369 Y12.431 Z-0.553 F1500
G1 X-3.377 Y12.431 Z-0.482 F1500
G1 X-3.377 Y12.431 Z6.080 F200
G1 X40.602 Y13.863 Z6.080 F200
G1 X40.602 Y13.863 Z1.000 F200
G1 X40.602 Y13.863 Z-0.482 F200
G1 X40.594 Y13.863 Z-0.553 F200
G1 X40.570 Y13.863 Z-0.620 F200
G1 X40.532 Y13.863 Z-0.680 F200
G1 X40.482 Y13.863 Z-0.731 F200
G1 X40.422 Y13.863 Z-0.769 F200
G1 X40.355 Y13.863 Z-0.792 F200
G1 X40.284 Y13.863 Z-0.800 F200
G1 X40.135 Y13.863 Z-0.800 F200
G1 X-3.060 Y13.863 Z-0.800 F200
G1 X-3.130 Y13.863 Z-0.792 F1500
G1 X-3.197 Y13.863 Z-0.769 F1500
G1 X-3.257 Y13.863 Z-0.731 F1500
G1 X-3.308 Y13.863 Z-0.680 F1500
G1 X-3.346 Y13.863 Z-0.620 F1500
G1 X-3.369 Y13.863 Z-0.553 F1500
G1 X-3.377 Y13.863 Z-0.482 F1500
G1 X-3.377 Y13.863 Z6.080 F200
G1 X40.602 Y15.295 Z6.080 F200
G1 X40.602 Y15.295 Z1.000 F200
G1 X40.602 Y15.295 Z-0.482 F200
G1 X40.594 Y15.295 Z-0.553 F200
G1 X40.570 Y15.295 Z-0.620 F200
G1 X40.532 Y15.295 Z-0.680 F200
G1 X40.482 Y15.295 Z-0.731 F200
G1 X40.422 Y15.295 Z-0.769 F200
G1 X40.355 Y15.295 Z-0.792 F200
G1 X40.284 Y15.295 Z-0.800 F200
G1 X40.135 Y15.295 Z-0.800 F200
G1 X-3.060 Y15.295 Z-0.800 F200
G1 X-3.130 Y15.295 Z-0.792 F1500
G1 X-3.197 Y15.295 Z-0.769 F1500
G1 X-3.257 Y15.295 Z-0.731 F1500
G1 X-3.308 Y15.295 Z-0.680 F1500
G1 X-3.346 Y15.295 Z-0.620 F1500
G1 X-3.369 Y15.295 Z-0.553 F1500
G1 X-3.377 Y15.295 Z-0.482 F1500
G1 X-3.377 Y15.295 Z6.080 F200
G1 X40.602 Y16.727 Z6.080 F200
G1 X40.602 Y16.727 Z1.000 F200
G1 X40.602 Y16.727 Z-0.482 F200
G1 X40.594 Y16.727 Z-0.553 F200
G1 X40.570 Y16.727 Z-0.620 F200
G1 X40.532 Y16.727 Z-0.680 F200
G1 X40.482 Y16.727 Z-0.731 F200
G1 X40.422 Y16.727 Z-0.769 F200
G1 X40.355 Y16.727 Z-0.792 F200
G1 X40.284 Y16.727 Z-0.800 F200
G1 X40.135 Y16.727 Z-0.800 F200
G1 X-3.060 Y16.727 Z-0.800 F200
G1 X-3.130 Y16.727 Z-0.792 F1500
G1 X-3.197 Y16.727 Z-0.769 F1500
G1 X-3.257 Y16.727 Z-0.731 F1500
G1 X-3.308 Y16.727 Z-0.680 F1500
G1 X-3.346 Y16.727 Z-0.620 F1500
G1 X-3.369 Y16.727 Z-0.553 F1500
G1 X-3.377 Y16.727 Z-0.482 F1500
G1 X-3.377 Y16.727 Z6.080 F200
G1 X40.592 Y-1.890 Z6.080 F200
G1 X40.592 Y-1.890 Z1.000 F200
G1 X40.592 Y-1.890 Z-0.582 F200
G1 X40.584 Y-1.890 Z-0.653 F200
G1 X40.560 Y-1.890 Z-0.720 F200
G1 X40.522 Y-1.890 Z-0.780 F200
G1 X40.472 Y-1.890 Z-0.831 F200
G1 X40.412 Y-1.890 Z-0.869 F200
G1 X40.345 Y-1.890 Z-0.892 F200
G1 X40.274 Y-1.890 Z-0.900 F200
G1 X40.135 Y-1.890 Z-0.900 F200
G1 X-3.060 Y-1.890 Z-0.900 F200
G1 X-3.130 Y-1.890 Z-0.892 F1500
G1 X-3.197 Y-1.890 Z-0.869 F1500
G1 X-3.257 Y-1.890 Z-0.831 F1500
G1 X-3.308 Y-1.890 Z-0.780 F1500
G1 X-3.346 Y-1.890 Z-0.720 F1500
G1 X-3.369 Y-1.890 Z-0.653 F1500
G1 X-3.377 Y-1.890 Z-0.582 F1500
G1 X-3.377 Y-1.890 Z6.080 F200
G1 X40.602 Y-0.458 Z6.080 F200
G1 X40.602 Y-0.458 Z1.000 F200
G1 X40.602 Y-0.458 Z-0.582 F200
G1 X40.594 Y-0.458 Z-0.653 F200
G1 X40.570 Y-0.458 Z-0.720 F200
G1 X40.532 Y-0.458 Z-0.780 F200
G1 X40.482 Y-0.458 Z-0.831 F200
G1 X40.422 Y-0.458 Z-0.869 F200
G1 X40.355 Y-0.458 Z-0.892 F200
G1 X40.284 Y-0.458 Z-0.900 F200
G1 X40.135 Y-0.458 Z-0.900 F200
G1 X-3.060 Y-0.458 Z-0.900 F200
G1 X-3.130 Y-0.458 Z-0.892 F1500
G1 X-3.197 Y-0.458 Z-0.869 F1500
G1 X-3.257 Y-0.458 Z-0.831 F1500
G1 X-3.308 Y-0.458 Z-0.780 F1500
G1 X-3.346 Y-0.458 Z-0.720 F1500
G1 X-3.369 Y-0.458 Z-0.653 F1500
G1 X-3.377 Y-0.458 Z-0.582 F1500
G1 X-3.377 Y-0.458 Z6.080 F200
G1 X40.602 Y0.974 Z6.080 F200
G1 X40.602 Y0.974 Z1.000 F200
G1 X40.602 Y0.974 Z-0.582 F200
G1 X40.594 Y0.974 Z-0.653 F200
G1 X40.570 Y0.974 Z-0.720 F200
G1 X40.532 Y0.974 Z-0.780 F200
G1 X40.482 Y0.974 Z-0.831 F200
G1 X40.422 Y0.974 Z-0.869 F200
G1 X40.355 Y0.974 Z-0.892 F200
G1 X40.284 Y0.974 Z-0.900 F200
G1 X40.135 Y0.974 Z-0.900 F200
G1 X-3.060 Y0.974 Z-0.900 F200
G1 X-3.130 Y0.974 Z-0.892 F1500
G1 X-3.197 Y0.974 Z-0.869 F1500
G1 X-3.257 Y0.974 Z-0.831 F1500
G1 X-3.308 Y0.974 Z-0.780 F1500
G1 X-3.346 Y0.974 Z-0.720 F1500
G1 X-3.369 Y0.974 Z-0.653 F1500
G1 X-3.377 Y0.974 Z-0.582 F1500
G1 X-3.377 Y0.974 Z6.080 F200
G1 X40.602 Y2.406 Z6.080 F200
G1 X40.602 Y2.406 Z1.000 F200
G1 X40.602 Y2.406 Z-0.582 F200
G1 X40.594 Y2.406 Z-0.653 F200
G1 X40.570 Y2.406 Z-0.720 F200
G1 X40.532 Y2.406 Z-0.780 F200
G1 X40.482 Y2.406 Z-0.831 F200
G1 X40.422 Y2.406 Z-0.869 F200
G1 X40.355 Y2.406 Z-0.892 F200
G1 X40.284 Y2.406 Z-0.900 F200
G1 X40.135 Y2.406 Z-0.900 F200
G1 X-3.060 Y2.406 Z-0.900 F200
G1 X-3.130 Y2.406 Z-0.892 F1500
G1 X-3.197 Y2.406 Z-0.869 F1500
G1 X-3.257 Y2.406 Z-0.831 F1500
G1 X-3.308 Y2.406 Z-0.780 F1500
G1 X-3.346 Y2.406 Z-0.720 F1500
G1 X-3.369 Y2.406 Z-0.653 F1500
G1 X-3.377 Y2.406 Z-0.582 F1500
G1 X-3.377 Y2.406 Z6.080 F200
G1 X40.602 Y3.838 Z6.080 F200
G1 X40.602 Y3.838 Z1.000 F200
G1 X40.602 Y3.838 Z-0.582 F200
G1 X40.594 Y3.838 Z-0.653 F200
G1 X40.570 Y3.838 Z-0.720 F200
G1 X40.532 Y3.838 Z-0.780 F200
G1 X40.482 Y3.838 Z-0.831 F200
G1 X40.422 Y3.838 Z-0.869 F200
G1 X40.355 Y3.838 Z-0.892 F200
G1 X40.284 Y3.838 Z-0.900 F200
G1 X40.135 Y3.838 Z-0.900 F200
G1 X-3.060 Y3.838 Z-0.900 F200
G1 X-3.130 Y3.838 Z-0.892 F1500
G1 X-3.197 Y3.838 Z-0.869 F1500
G1 X-3.257 Y3.838 Z-0.831 F1500
G1 X-3.308 Y3.838 Z-0.780 F1500
G1 X-3.346 Y3.838 Z-0.720 F1500
G1 X-3.369 Y3.838 Z-0.653 F1500
G1 X-3.377 Y3.838 Z-0.582 F1500
G1 X-3.377 Y3.838 Z6.080 F200
G1 X40.602 Y5.270 Z6.080 F200
G1 X40.602 Y5.270 Z1.000 F200
G1 X40.602 Y5.270 Z-0.582 F200
G1 X40.594 Y5.270 Z-0.653 F200
G1 X40.570 Y5.270 Z-0.720 F200
G1 X40.532 Y5.270 Z-0.780 F200
G1 X40.482 Y5.270 Z-0.831 F200
G1 X40.422 Y5.270 Z-0.869 F200
G1 X40.355 Y5.270 Z-0.892 F200
G1 X40.284 Y5.270 Z-0.900 F200
G1 X40.135 Y5.270 Z-0.900 F200
G1 X-3.060 Y5.270 Z-0.900 F200
G1 X-3.130 Y5.270 Z-0.892 F1500
G1 X-3.197 Y5.270 Z-0.869 F1500
G1 X-3.257 Y5.270 Z-0.831 F1500
G1 X-3.308 Y5.270 Z-0.780 F1500
G1 X-3.346 Y5.270 Z-0.720 F1500
G1 X-3.369 Y5.270 Z-0.653 F1500
G1 X-3.377 Y5.270 Z-0.582 F1500
G1 X-3.377 Y5.270 Z6.080 F200
G1 X40.602 Y6.702 Z6.080 F200
G1 X40.602 Y6.702 Z1.000 F200
G1 X40.602 Y6.702 Z-0.582 F200
G1 X40.594 Y6.702 Z-0.653 F200
G1 X40.570 Y6.702 Z-0.720 F200
G1 X40.532 Y6.702 Z-0.780 F200
G1 X40.482 Y6.702 Z-0.831 F200
G1 X40.422 Y6.702 Z-0.869 F200
G1 X40.355 Y6.702 Z-0.892 F200
G1 X40.284 Y6.702 Z-0.900 F200
G1 X40.135 Y6.702 Z-0.900 F200
G1 X-3.060 Y6.702 Z-0.900 F200
G1 X-3.130 Y6.702 Z-0.892 F1500
G1 X-3.197 Y6.702 Z-0.869 F1500
G1 X-3.257 Y6.702 Z-0.831 F1500
G1 X-3.308 Y6.702 Z-0.780 F1500
G1 X-3.346 Y6.702 Z-0.720 F1500
G1 X-3.369 Y6.702 Z-0.653 F1500
G1 X-3.377 Y6.702 Z-0.582 F1500
G1 X-3.377 Y6.702 Z6.080 F200
G1 X40.602 Y8.134 Z6.080 F200
G1 X40.602 Y8.134 Z1.000 F200
G1 X40.602 Y8.134 Z-0.582 F200
G1 X40.594 Y8.134 Z-0.653 F200
G1 X40.570 Y8.134 Z-0.720 F200
G1 X40.532 Y8.134 Z-0.780 F200
G1 X40.482 Y8.134 Z-0.831 F200
G1 X40.422 Y8.134 Z-0.869 F200
G1 X40.355 Y8.134 Z-0.892 F200
G1 X40.284 Y8.134 Z-0.900 F200
G1 X40.135 Y8.134 Z-0.900 F200
G1 X-3.060 Y8.134 Z-0.900 F200
G1 X-3.130 Y8.134 Z-0.892 F1500
G1 X-3.197 Y8.134 Z-0.869 F1500
G1 X-3.257 Y8.134 Z-0.831 F1500
G1 X-3.308 Y8.134 Z-0.780 F1500
G1 X-3.346 Y8.134 Z-0.720 F1500
G1 X-3.369 Y8.134 Z-0.653 F1500
G1 X-3.377 Y8.134 Z-0.582 F1500
G1 X-3.377 Y8.134 Z6.080 F200
G1 X40.602 Y9.566 Z6.080 F200
G1 X40.602 Y9.566 Z1.000 F200
G1 X40.602 Y9.566 Z-0.582 F200
G1 X40.594 Y9.566 Z-0.653 F200
G1 X40.570 Y9.566 Z-0.720 F200
G1 X40.532 Y9.566 Z-0.780 F200
G1 X40.482 Y9.566 Z-0.831 F200
G1 X40.422 Y9.566 Z-0.869 F200
G1 X40.355 Y9.566 Z-0.892 F200
G1 X40.284 Y9.566 Z-0.900 F200
G1 X40.135 Y9.566 Z-0.900 F200
G1 X-3.060 Y9.566 Z-0.900 F200
G1 X-3.130 Y9.566 Z-0.892 F1500
G1 X-3.197 Y9.566 Z-0.869 F1500
G1 X-3.257 Y9.566 Z-0.831 F1500
G1 X-3.308 Y9.566 Z-0.780 F1500
G1 X-3.346 Y9.566 Z-0.720 F1500
G1 X-3.369 Y9.566 Z-0.653 F1500
G1 X-3.377 Y9.566 Z-0.582 F1500
G1 X-3.377 Y9.566 Z6.080 F200
G1 X40.602 Y10.998 Z6.080 F200
G1 X40.602 Y10.998 Z1.000 F200
G1 X40.602 Y10.998 Z-0.582 F200
G1 X40.594 Y10.998 Z-0.653 F200
G1 X40.570 Y10.998 Z-0.720 F200
G1 X40.532 Y10.998 Z-0.780 F200
G1 X40.482 Y10.998 Z-0.831 F200
G1 X40.422 Y10.998 Z-0.869 F200
G1 X40.355 Y10.998 Z-0.892 F200
G1 X40.284 Y10.998 Z-0.900 F200
G1 X40.135 Y10.998 Z-0.900 F200
G1 X-3.060 Y10.998 Z-0.900 F200
G1 X-3.130 Y10.998 Z-0.892 F1500
G1 X-3.197 Y10.998 Z-0.869 F1500
G1 X-3.257 Y10.998 Z-0.831 F1500
G1 X-3.308 Y10.998 Z-0.780 F1500
G1 X-3.346 Y10.998 Z-0.720 F1500
G1 X-3.369 Y10.998 Z-0.653 F1500
G1 X-3.377 Y10.998 Z-0.582 F1500
G1 X-3.377 Y10.998 Z6.080 F200
G1 X40.602 Y12.431 Z6.080 F200
G1 X40.602 Y12.431 Z1.000 F200
G1 X40.602 Y12.431 Z-0.582 F200
G1 X40.594 Y12.431 Z-0.653 F200
G1 X40.570 Y12.431 Z-0.720 F200
G1 X40.532 Y12.431 Z-0.780 F200
G1 X40.482 Y12.431 Z-0.831 F200
G1 X40.422 Y12.431 Z-0.869 F200
G1 X40.355 Y12.431 Z-0.892 F200
G1 X40.284 Y12.431 Z-0.900 F200
G1 X40.135 Y12.431 Z-0.900 F200
G1 X-3.060 Y12.431 Z-0.900 F200
G1 X-3.130 Y12.431 Z-0.892 F1500
G1 X-3.197 Y12.431 Z-0.869 F1500
G1 X-3.257 Y12.431 Z-0.831 F1500
G1 X-3.308 Y12.431 Z-0.780 F1500
G1 X-3.346 Y12.431 Z-0.720 F1500
G1 X-3.369 Y12.431 Z-0.653 F1500
G1 X-3.377 Y12.431 Z-0.582 F1500
G1 X-3.377 Y12.431 Z6.080 F200
G1 X40.602 Y13.863 Z6.080 F200
G1 X40.602 Y13.863 Z1.000 F200
G1 X40.602 Y13.863 Z-0.582 F200
G1 X40.594 Y13.863 Z-0.653 F200
G1 X40.570 Y13.863 Z-0.720 F200
G1 X40.532 Y13.863 Z-0.780 F200
G1 X40.482 Y13.863 Z-0.831 F200
G1 X40.422 Y13.863 Z-0.869 F200
G1 X40.355 Y13.863 Z-0.892 F200
G1 X40.284 Y13.863 Z-0.900 F200
G1 X40.135 Y13.863 Z-0.900 F200
G1 X-3.060 Y13.863 Z-0.900 F200
G1 X-3.130 Y13.863 Z-0.892 F1500
G1 X-3.197 Y13.863 Z-0.869 F1500
G1 X-3.257 Y13.863 Z-0.831 F1500
G1 X-3.308 Y13.863 Z-0.780 F1500
G1 X-3.346 Y13.863 Z-0.720 F1500
G1 X-3.369 Y13.863 Z-0.653 F1500
G1 X-3.377 Y13.863 Z-0.582 F1500
G1 X-3.377 Y13.863 Z6.080 F200
G1 X40.602 Y15.295 Z6.080 F200
G1 X40.602 Y15.295 Z1.000 F200
G1 X40.602 Y15.295 Z-0.582 F200
G1 X40.594 Y15.295 Z-0.653 F200
G1 X40.570 Y15.295 Z-0.720 F200
G1 X40.532 Y15.295 Z-0.780 F200
G1 X40.482 Y15.295 Z-0.831 F200
G1 X40.422 Y15.295 Z-0.869 F200
G1 X40.355 Y15.295 Z-0.892 F200
G1 X40.284 Y15.295 Z-0.900 F200
G1 X40.135 Y15.295 Z-0.900 F200
G1 X-3.060 Y15.295 Z-0.900 F200
G1 X-3.130 Y15.295 Z-0.892 F1500
G1 X-3.197 Y15.295 Z-0.869 F1500
G1 X-3.257 Y15.295 Z-0.831 F1500
G1 X-3.308 Y15.295 Z-0.780 F1500
G1 X-3.346 Y15.295 Z-0.720 F1500
G1 X-3.369 Y15.295 Z-0.653 F1500
G1 X-3.377 Y15.295 Z-0.582 F1500
G1 X-3.377 Y15.295 Z6.080 F200
G1 X40.602 Y16.727 Z6.080 F200
G1 X40.602 Y16.727 Z1.000 F200
G1 X40.602 Y16.727 Z-0.582 F200
G1 X40.594 Y16.727 Z-0.653 F200
G1 X40.570 Y16.727 Z-0.720 F200
G1 X40.532 Y16.727 Z-0.780 F200
G1 X40.482 Y16.727 Z-0.831 F200
G1 X40.422 Y16.727 Z-0.869 F200
G1 X40.355 Y16.727 Z-0.892 F200
G1 X40.284 Y16.727 Z-0.900 F200
G1 X40.135 Y16.727 Z-0.900 F200
G1 X-3.060 Y16.727 Z-0.900 F200
G1 X-3.130 Y16.727 Z-0.892 F1500
G1 X-3.197 Y16.727 Z-0.869 F1500
G1 X-3.257 Y16.727 Z-0.831 F1500
G1 X-3.308 Y16.727 Z-0.780 F1500
G1 X-3.346 Y16.727 Z-0.720 F1500
G1 X-3.369 Y16.727 Z-0.653 F1500
G1 X-3.377 Y16.727 Z-0.582 F1500
G1 X-3.377 Y16.727 Z6.080 F200
G1 X40.592 Y-1.890 Z6.080 F200
G1 X40.592 Y-1.890 Z1.000 F200
G1 X40.592 Y-1.890 Z-0.683 F200
G1 X40.584 Y-1.890 Z-0.753 F200
G1 X40.560 Y-1.890 Z-0.820 F200
G1 X40.522 Y-1.890 Z-0.880 F200
G1 X40.472 Y-1.890 Z-0.931 F200
G1 X40.412 Y-1.890 Z-0.969 F200
G1 X40.345 Y-1.890 Z-0.992 F200
G1 X40.274 Y-1.890 Z-1.000 F200
G1 X40.135 Y-1.890 Z-1.000 F200
G1 X-3.060 Y-1.890 Z-1.000 F200
G1 X-3.130 Y-1.890 Z-0.992 F1500
G1 X-3.197 Y-1.890 Z-0.969 F1500
G1 X-3.257 Y-1.890 Z-0.931 F1500
G1 X-3.308 Y-1.890 Z-0.880 F1500
G1 X-3.346 Y-1.890 Z-0.820 F1500
G1 X-3.369 Y-1.890 Z-0.753 F1500
G1 X-3.377 Y-1.890 Z-0.683 F1500
G1 X-3.377 Y-1.890 Z6.080 F200
G1 X40.602 Y-0.458 Z6.080 F200
G1 X40.602 Y-0.458 Z1.000 F200
G1 X40.602 Y-0.458 Z-0.683 F200
G1 X40.594 Y-0.458 Z-0.753 F200
G1 X40.570 Y-0.458 Z-0.820 F200
G1 X40.532 Y-0.458 Z-0.880 F200
G1 X40.482 Y-0.458 Z-0.931 F200
G1 X40.422 Y-0.458 Z-0.969 F200
G1 X40.355 Y-0.458 Z-0.992 F200
G1 X40.284 Y-0.458 Z-1.000 F200
G1 X40.135 Y-0.458 Z-1.000 F200
G1 X-3.060 Y-0.458 Z-1.000 F200
G1 X-3.130 Y-0.458 Z-0.992 F1500
G1 X-3.197 Y-0.458 Z-0.969 F1500
G1 X-3.257 Y-0.458 Z-0.931 F1500
G1 X-3.308 Y-0.458 Z-0.880 F1500
G1 X-3.346 Y-0.458 Z-0.820 F1500
G1 X-3.369 Y-0.458 Z-0.753 F1500
G1 X-3.377 Y-0.458 Z-0.683 F1500
G1 X-3.377 Y-0.458 Z6.080 F200
G1 X40.602 Y0.974 Z6.080 F200
G1 X40.602 Y0.974 Z1.000 F200
G1 X40.602 Y0.974 Z-0.683 F200
G1 X40.594 Y0.974 Z-0.753 F200
G1 X40.570 Y0.974 Z-0.820 F200
G1 X40.532 Y0.974 Z-0.880 F200
G1 X40.482 Y0.974 Z-0.931 F200
G1 X40.422 Y0.974 Z-0.969 F200
G1 X40.355 Y0.974 Z-0.992 F200
G1 X40.284 Y0.974 Z-1.000 F200
G1 X40.135 Y0.974 Z-1.000 F200
G1 X-3.060 Y0.974 Z-1.000 F200
G1 X-3.130 Y0.974 Z-0.992 F1500
G1 X-3.197 Y0.974 Z-0.969 F1500
G1 X-3.257 Y0.974 Z-0.931 F1500
G1 X-3.308 Y0.974 Z-0.880 F1500
G1 X-3.346 Y0.974 Z-0.820 F1500
G1 X-3.369 Y0.974 Z-0.753 F1500
G1 X-3.377 Y0.974 Z-0.683 F1500
G1 X-3.377 Y0.974 Z6.080 F200
G1 X40.602 Y2.406 Z6.080 F200
G1 X40.602 Y2.406 Z1.000 F200
G1 X40.602 Y2.406 Z-0.683 F200
G1 X40.594 Y2.406 Z-0.753 F200
G1 X40.570 Y2.406 Z-0.820 F200
G1 X40.532 Y2.406 Z-0.880 F200
G1 X40.482 Y2.406 Z-0.931 F200
G1 X40.422 Y2.406 Z-0.969 F200
G1 X40.355 Y2.406 Z-0.992 F200
G1 X40.284 Y2.406 Z-1.000 F200
G1 X40.135 Y2.406 Z-1.000 F200
G1 X-3.060 Y2.406 Z-1.000 F200
G1 X-3.130 Y2.406 Z-0.992 F1500
G1 X-3.197 Y2.406 Z-0.969 F1500
G1 X-3.257 Y2.406 Z-0.931 F1500
G1 X-3.308 Y2.406 Z-0.880 F1500
G1 X-3.346 Y2.406 Z-0.820 F1500
G1 X-3.369 Y2.406 Z-0.753 F1500
G1 X-3.377 Y2.406 Z-0.683 F1500
G1 X-3.377 Y2.406 Z6.080 F200
G1 X40.602 Y3.838 Z6.080 F200
G1 X40.602 Y3.838 Z1.000 F200
G1 X40.602 Y3.838 Z-0.683 F200
G1 X40.594 Y3.838 Z-0.753 F200
G1 X40.570 Y3.838 Z-0.820 F200
G1 X40.532 Y3.838 Z-0.880 F200
G1 X40.482 Y3.838 Z-0.931 F200
G1 X40.422 Y3.838 Z-0.969 F200
G1 X40.355 Y3.838 Z-0.992 F200
G1 X40.284 Y3.838 Z-1.000 F200
G1 X40.135 Y3.838 Z-1.000 F200
G1 X-3.060 Y3.838 Z-1.000 F200
G1 X-3.130 Y3.838 Z-0.992 F1500
G1 X-3.197 Y3.838 Z-0.969 F1500
G1 X-3.257 Y3.838 Z-0.931 F1500
G1 X-3.308 Y3.838 Z-0.880 F1500
G1 X-3.346 Y3.838 Z-0.820 F1500
G1 X-3.369 Y3.838 Z-0.753 F1500
G1 X-3.377 Y3.838 Z-0.683 F1500
G1 X-3.377 Y3.838 Z6.080 F200
G1 X40.602 Y5.270 Z6.080 F200
G1 X40.602 Y5.270 Z1.000 F200
G1 X40.602 Y5.270 Z-0.683 F200
G1 X40.594 Y5.270 Z-0.753 F200
G1 X40.570 Y5.270 Z-0.820 F200
G1 X40.532 Y5.270 Z-0.880 F200
G1 X40.482 Y5.270 Z-0.931 F200
G1 X40.422 Y5.270 Z-0.969 F200
G1 X40.355 Y5.270 Z-0.992 F200
G1 X40.284 Y5.270 Z-1.000 F200
G1 X40.135 Y5.270 Z-1.000 F200
G1 X-3.060 Y5.270 Z-1.000 F200
G1 X-3.130 Y5.270 Z-0.992 F1500
G1 X-3.197 Y5.270 Z-0.969 F1500
G1 X-3.257 Y5.270 Z-0.931 F1500
G1 X-3.308 Y5.270 Z-0.880 F1500
G1 X-3.346 Y5.270 Z-0.820 F1500
G1 X-3.369 Y5.270 Z-0.753 F1500
G1 X-3.377 Y5.270 Z-0.683 F1500
G1 X-3.377 Y5.270 Z6.080 F200
G1 X40.602 Y6.702 Z6.080 F200
G1 X40.602 Y6.702 Z1.000 F200
G1 X40.602 Y6.702 Z-0.683 F200
G1 X40.594 Y6.702 Z-0.753 F200
G1 X40.570 Y6.702 Z-0.820 F200
G1 X40.532 Y6.702 Z-0.880 F200
G1 X40.482 Y6.702 Z-0.931 F200
G1 X40.422 Y6.702 Z-0.969 F200
G1 X40.355 Y6.702 Z-0.992 F200
G1 X40.284 Y6.702 Z-1.000 F200
G1 X40.135 Y6.702 Z-1.000 F200
G1 X-3.060 Y6.702 Z-1.000 F200
G1 X-3.130 Y6.702 Z-0.992 F1500
G1 X-3.197 Y6.702 Z-0.969 F1500
G1 X-3.257 Y6.702 Z-0.931 F1500
G1 X-3.308 Y6.702 Z-0.880 F1500
G1 X-3.346 Y6.702 Z-0.820 F1500
G1 X-3.369 Y6.702 Z-0.753 F1500
G1 X-3.377 Y6.702 Z-0.683 F1500
G1 X-3.377 Y6.702 Z6.080 F200
G1 X40.602 Y8.134 Z6.080 F200
G1 X40.602 Y8.134 Z1.000 F200
G1 X40.602 Y8.134 Z-0.683 F200
G1 X40.594 Y8.134 Z-0.753 F200
G1 X40.570 Y8.134 Z-0.820 F200
G1 X40.532 Y8.134 Z-0.880 F200
G1 X40.482 Y8.134 Z-0.931 F200
G1 X40.422 Y8.134 Z-0.969 F200
G1 X40.355 Y8.134 Z-0.992 F200
G1 X40.284 Y8.134 Z-1.000 F200
G1 X40.135 Y8.134 Z-1.000 F200
G1 X-3.060 Y8.134 Z-1.000 F200
G1 X-3.130 Y8.134 Z-0.992 F1500
G1 X-3.197 Y8.134 Z-0.969 F1500
G1 X-3.257 Y8.134 Z-0.931 F1500
G1 X-3.308 Y8.134 Z-0.880 F1500
G1 X-3.346 Y8.134 Z-0.820 F1500
G1 X-3.369 Y8.134 Z-0.753 F1500
G1 X-3.377 Y8.134 Z-0.683 F1500
G1 X-3.377 Y8.134 Z6.080 F200
G1 X40.602 Y9.566 Z6.080 F200
G1 X40.602 Y9.566 Z1.000 F200
G1 X40.602 Y9.566 Z-0.683 F200
G1 X40.594 Y9.566 Z-0.753 F200
G1 X40.570 Y9.566 Z-0.820 F200
G1 X40.532 Y9.566 Z-0.880 F200
G1 X40.482 Y9.566 Z-0.931 F200
G1 X40.422 Y9.566 Z-0.969 F200
G1 X40.355 Y9.566 Z-0.992 F200
G1 X40.284 Y9.566 Z-1.000 F200
G1 X40.135 Y9.566 Z-1.000 F200
G1 X-3.060 Y9.566 Z-1.000 F200
G1 X-3.130 Y9.566 Z-0.992 F1500
G1 X-3.197 Y9.566 Z-0.969 F1500
G1 X-3.257 Y9.566 Z-0.931 F1500
G1 X-3.308 Y9.566 Z-0.880 F1500
G1 X-3.346 Y9.566 Z-0.820 F1500
G1 X-3.369 Y9.566 Z-0.753 F1500
G1 X-3.377 Y9.566 Z-0.683 F1500
G1 X-3.377 Y9.566 Z6.080 F200
G1 X40.602 Y10.998 Z6.080 F200
G1 X40.602 Y10.998 Z1.000 F200
G1 X40.602 Y10.998 Z-0.683 F200
G1 X40.594 Y10.998 Z-0.753 F200
G1 X40.570 Y10.998 Z-0.820 F200
G1 X40.532 Y10.998 Z-0.880 F200
G1 X40.482 Y10.998 Z-0.931 F200
G1 X40.422 Y10.998 Z-0.969 F200
G1 X40.355 Y10.998 Z-0.992 F200
G1 X40.284 Y10.998 Z-1.000 F200
G1 X40.135 Y10.998 Z-1.000 F200
G1 X-3.060 Y10.998 Z-1.000 F200
G1 X-3.130 Y10.998 Z-0.992 F1500
G1 X-3.197 Y10.998 Z-0.969 F1500
G1 X-3.257 Y10.998 Z-0.931 F1500
G1 X-3.308 Y10.998 Z-0.880 F1500
G1 X-3.346 Y10.998 Z-0.820 F1500
G1 X-3.369 Y10.998 Z-0.753 F1500
G1 X-3.377 Y10.998 Z-0.683 F1500
G1 X-3.377 Y10.998 Z6.080 F200
G1 X40.602 Y12.431 Z6.080 F200
G1 X40.602 Y12.431 Z1.000 F200
G1 X40.602 Y12.431 Z-0.683 F200
G1 X40.594 Y12.431 Z-0.753 F200
G1 X40.570 Y12.431 Z-0.820 F200
G1 X40.532 Y12.431 Z-0.880 F200
G1 X40.482 Y12.431 Z-0.931 F200
G1 X40.422 Y12.431 Z-0.969 F200
G1 X40.355 Y12.431 Z-0.992 F200
G1 X40.284 Y12.431 Z-1.000 F200
G1 X40.135 Y12.431 Z-1.000 F200
G1 X-3.060 Y12.431 Z-1.000 F200
G1 X-3.130 Y12.431 Z-0.992 F1500
G1 X-3.197 Y12.431 Z-0.969 F1500
G1 X-3.257 Y12.431 Z-0.931 F1500
G1 X-3.308 Y12.431 Z-0.880 F1500
G1 X-3.346 Y12.431 Z-0.820 F1500
G1 X-3.369 Y12.431 Z-0.753 F1500
G1 X-3.377 Y12.431 Z-0.683 F1500
G1 X-3.377 Y12.431 Z6.080 F200
G1 X40.602 Y13.863 Z6.080 F200
G1 X40.602 Y13.863 Z1.000 F200
G1 X40.602 Y13.863 Z-0.683 F200
G1 X40.594 Y13.863 Z-0.753 F200
G1 X40.570 Y13.863 Z-0.820 F200
G1 X40.532 Y13.863 Z-0.880 F200
G1 X40.482 Y13.863 Z-0.931 F200
G1 X40.422 Y13.863 Z-0.969 F200
G1 X40.355 Y13.863 Z-0.992 F200
G1 X40.284 Y13.863 Z-1.000 F200
G1 X40.135 Y13.863 Z-1.000 F200
G1 X-3.060 Y13.863 Z-1.000 F200
G1 X-3.130 Y13.863 Z-0.992 F1500
G1 X-3.197 Y13.863 Z-0.969 F1500
G1 X-3.257 Y13.863 Z-0.931 F1500
G1 X-3.308 Y13.863 Z-0.880 F1500
G1 X-3.346 Y13.863 Z-0.820 F1500
G1 X-3.369 Y13.863 Z-0.753 F1500
G1 X-3.377 Y13.863 Z-0.683 F1500
G1 X-3.377 Y13.863 Z6.080 F200
G1 X40.602 Y15.295 Z6.080 F200
G1 X40.602 Y15.295 Z1.000 F200
G1 X40.602 Y15.295 Z-0.683 F200
G1 X40.594 Y15.295 Z-0.753 F200
G1 X40.570 Y15.295 Z-0.820 F200
G1 X40.532 Y15.295 Z-0.880 F200
G1 X40.482 Y15.295 Z-0.931 F200
G1 X40.422 Y15.295 Z-0.969 F200
G1 X40.355 Y15.295 Z-0.992 F200
G1 X40.284 Y15.295 Z-1.000 F200
G1 X40.135 Y15.295 Z-1.000 F200
G1 X-3.060 Y15.295 Z-1.000 F200
G1 X-3.130 Y15.295 Z-0.992 F1500
G1 X-3.197 Y15.295 Z-0.969 F1500
G1 X-3.257 Y15.295 Z-0.931 F1500
G1 X-3.308 Y15.295 Z-0.880 F1500
G1 X-3.346 Y15.295 Z-0.820 F1500
G1 X-3.369 Y15.295 Z-0.753 F1500
G1 X-3.377 Y15.295 Z-0.683 F1500
G1 X-3.377 Y15.295 Z6.080 F200
G1 X40.602 Y16.727 Z6.080 F200
G1 X40.602 Y16.727 Z1.000 F200
G1 X40.602 Y16.727 Z-0.683 F200
G1 X40.594 Y16.727 Z-0.753 F200
G1 X40.570 Y16.727 Z-0.820 F200
G1 X40.532 Y16.727 Z-0.880 F200
G1 X40.482 Y16.727 Z-0.931 F200
G1 X40.422 Y16.727 Z-0.969 F200
G1 X40.355 Y16.727 Z-0.992 F200
G1 X40.284 Y16.727 Z-1.000 F200
G1 X40.135 Y16.727 Z-1.000 F200
G1 X-3.060 Y16.727 Z-1.000 F200
G1 X-3.130 Y16.727 Z-0.992 F1500
G1 X-3.197 Y16.727 Z-0.969 F1500
G1 X-3.257 Y16.727 Z-0.931 F1500
G1 X-3.308 Y16.727 Z-0.880 F1500
G1 X-3.346 Y16.727 Z-0.820 F1500
G1 X-3.369 Y16.727 Z-0.753 F1500
G1 X-3.377 Y16.727 Z-0.683 F1500
G1 X-3.377 Y16.727 Z6.080 F200
G1 X40.592 Y-1.890 Z6.080 F200
G1 X40.592 Y-1.890 Z1.000 F200
G1 X40.592 Y-1.890 Z-0.783 F200
G1 X40.584 Y-1.890 Z-0.853 F200
G1 X40.560 Y-1.890 Z-0.920 F200
G1 X40.522 Y-1.890 Z-0.980 F200
G1 X40.472 Y-1.890 Z-1.031 F200
G1 X40.412 Y-1.890 Z-1.069 F200
G1 X40.345 Y-1.890 Z-1.092 F200
G1 X40.274 Y-1.890 Z-1.100 F200
G1 X40.135 Y-1.890 Z-1.100 F200
G1 X-3.060 Y-1.890 Z-1.100 F200
G1 X-3.130 Y-1.890 Z-1.092 F1500
G1 X-3.197 Y-1.890 Z-1.069 F1500
G1 X-3.257 Y-1.890 Z-1.031 F1500
G1 X-3.308 Y-1.890 Z-0.980 F1500
G1 X-3.346 Y-1.890 Z-0.920 F1500
G1 X-3.369 Y-1.890 Z-0.853 F1500
G1 X-3.377 Y-1.890 Z-0.783 F1500
G1 X-3.377 Y-1.890 Z6.080 F200
G1 X40.602 Y-0.458 Z6.080 F200
G1 X40.602 Y-0.458 Z1.000 F200
G1 X40.602 Y-0.458 Z-0.783 F200
G1 X40.594 Y-0.458 Z-0.853 F200
G1 X40.570 Y-0.458 Z-0.920 F200
G1 X40.532 Y-0.458 Z-0.980 F200
G1 X40.482 Y-0.458 Z-1.031 F200
G1 X40.422 Y-0.458 Z-1.069 F200
G1 X40.355 Y-0.458 Z-1.092 F200
G1 X40.284 Y-0.458 Z-1.100 F200
G1 X40.135 Y-0.458 Z-1.100 F200
G1 X-3.060 Y-0.458 Z-1.100 F200
G1 X-3.130 Y-0.458 Z-1.092 F1500
G1 X-3.197 Y-0.458 Z-1.069 F1500
G1 X-3.257 Y-0.458 Z-1.031 F1500
G1 X-3.308 Y-0.458 Z-0.980 F1500
G1 X-3.346 Y-0.458 Z-0.920 F1500
G1 X-3.369 Y-0.458 Z-0.853 F1500
G1 X-3.377 Y-0.458 Z-0.783 F1500
G1 X-3.377 Y-0.458 Z6.080 F200
G1 X40.602 Y0.974 Z6.080 F200
G1 X40.602 Y0.974 Z1.000 F200
G1 X40.602 Y0.974 Z-0.783 F200
G1 X40.594 Y0.974 Z-0.853 F200
G1 X40.570 Y0.974 Z-0.920 F200
G1 X40.532 Y0.974 Z-0.980 F200
G1 X40.482 Y0.974 Z-1.031 F200
G1 X40.422 Y0.974 Z-1.069 F200
G1 X40.355 Y0.974 Z-1.092 F200
G1 X40.284 Y0.974 Z-1.100 F200
G1 X40.135 Y0.974 Z-1.100 F200
G1 X-3.060 Y0.974 Z-1.100 F200
G1 X-3.130 Y0.974 Z-1.092 F1500
G1 X-3.197 Y0.974 Z-1.069 F1500
G1 X-3.257 Y0.974 Z-1.031 F1500
G1 X-3.308 Y0.974 Z-0.980 F1500
G1 X-3.346 Y0.974 Z-0.920 F1500
G1 X-3.369 Y0.974 Z-0.853 F1500
G1 X-3.377 Y0.974 Z-0.783 F1500
G1 X-3.377 Y0.974 Z6.080 F200
G1 X40.602 Y2.406 Z6.080 F200
G1 X40.602 Y2.406 Z1.000 F200
G1 X40.602 Y2.406 Z-0.783 F200
G1 X40.594 Y2.406 Z-0.853 F200
G1 X40.570 Y2.406 Z-0.920 F200
G1 X40.532 Y2.406 Z-0.980 F200
G1 X40.482 Y2.406 Z-1.031 F200
G1 X40.422 Y2.406 Z-1.069 F200
G1 X40.355 Y2.406 Z-1.092 F200
G1 X40.284 Y2.406 Z-1.100 F200
G1 X40.135 Y2.406 Z-1.100 F200
G1 X-3.060 Y2.406 Z-1.100 F200
G1 X-3.130 Y2.406 Z-1.092 F1500
G1 X-3.197 Y2.406 Z-1.069 F1500
G1 X-3.257 Y2.406 Z-1.031 F1500
G1 X-3.308 Y2.406 Z-0.980 F1500
G1 X-3.346 Y2.406 Z-0.920 F1500
G1 X-3.369 Y2.406 Z-0.853 F1500
G1 X-3.377 Y2.406 Z-0.783 F1500
G1 X-3.377 Y2.406 Z6.080 F200
G1 X40.602 Y3.838 Z6.080 F200
G1 X40.602 Y3.838 Z1.000 F200
G1 X40.602 Y3.838 Z-0.783 F200
G1 X40.594 Y3.838 Z-0.853 F200
G1 X40.570 Y3.838 Z-0.920 F200
G1 X40.532 Y3.838 Z-0.980 F200
G1 X40.482 Y3.838 Z-1.031 F200
G1 X40.422 Y3.838 Z-1.069 F200
G1 X40.355 Y3.838 Z-1.092 F200
G1 X40.284 Y3.838 Z-1.100 F200
G1 X40.135 Y3.838 Z-1.100 F200
G1 X-3.060 Y3.838 Z-1.100 F200
G1 X-3.130 Y3.838 Z-1.092 F1500
G1 X-3.197 Y3.838 Z-1.069 F1500
G1 X-3.257 Y3.838 Z-1.031 F1500
G1 X-3.308 Y3.838 Z-0.980 F1500
G1 X-3.346 Y3.838 Z-0.920 F1500
G1 X-3.369 Y3.838 Z-0.853 F1500
G1 X-3.377 Y3.838 Z-0.783 F1500
G1 X-3.377 Y3.838 Z6.080 F200
G1 X40.602 Y5.270 Z6.080 F200
G1 X40.602 Y5.270 Z1.000 F200
G1 X40.602 Y5.270 Z-0.783 F200
G1 X40.594 Y5.270 Z-0.853 F200
G1 X40.570 Y5.270 Z-0.920 F200
G1 X40.532 Y5.270 Z-0.980 F200
G1 X40.482 Y5.270 Z-1.031 F200
G1 X40.422 Y5.270 Z-1.069 F200
G1 X40.355 Y5.270 Z-1.092 F200
G1 X40.284 Y5.270 Z-1.100 F200
G1 X40.135 Y5.270 Z-1.100 F200
G1 X-3.060 Y5.270 Z-1.100 F200
G1 X-3.130 Y5.270 Z-1.092 F1500
G1 X-3.197 Y5.270 Z-1.069 F1500
G1 X-3.257 Y5.270 Z-1.031 F1500
G1 X-3.308 Y5.270 Z-0.980 F1500
G1 X-3.346 Y5.270 Z-0.920 F1500
G1 X-3.369 Y5.270 Z-0.853 F1500
G1 X-3.377 Y5.270 Z-0.783 F1500
G1 X-3.377 Y5.270 Z6.080 F200
G1 X40.602 Y6.702 Z6.080 F200
G1 X40.602 Y6.702 Z1.000 F200
G1 X40.602 Y6.702 Z-0.783 F200
G1 X40.594 Y6.702 Z-0.853 F200
G1 X40.570 Y6.702 Z-0.920 F200
G1 X40.532 Y6.702 Z-0.980 F200
G1 X40.482 Y6.702 Z-1.031 F200
G1 X40.422 Y6.702 Z-1.069 F200
G1 X40.355 Y6.702 Z-1.092 F200
G1 X40.284 Y6.702 Z-1.100 F200
G1 X40.135 Y6.702 Z-1.100 F200
G1 X-3.060 Y6.702 Z-1.100 F200
G1 X-3.130 Y6.702 Z-1.092 F1500
G1 X-3.197 Y6.702 Z-1.069 F1500
G1 X-3.257 Y6.702 Z-1.031 F1500
G1 X-3.308 Y6.702 Z-0.980 F1500
G1 X-3.346 Y6.702 Z-0.920 F1500
G1 X-3.369 Y6.702 Z-0.853 F1500
G1 X-3.377 Y6.702 Z-0.783 F1500
G1 X-3.377 Y6.702 Z6.080 F200
G1 X40.602 Y8.134 Z6.080 F200
G1 X40.602 Y8.134 Z1.000 F200
G1 X40.602 Y8.134 Z-0.783 F200
G1 X40.594 Y8.134 Z-0.853 F200
G1 X40.570 Y8.134 Z-0.920 F200
G1 X40.532 Y8.134 Z-0.980 F200
G1 X40.482 Y8.134 Z-1.031 F200
G1 X40.422 Y8.134 Z-1.069 F200
G1 X40.355 Y8.134 Z-1.092 F200
G1 X40.284 Y8.134 Z-1.100 F200
G1 X40.135 Y8.134 Z-1.100 F200
G1 X-3.060 Y8.134 Z-1.100 F200
G1 X-3.130 Y8.134 Z-1.092 F1500
G1 X-3.197 Y8.134 Z-1.069 F1500
G1 X-3.257 Y8.134 Z-1.031 F1500
G1 X-3.308 Y8.134 Z-0.980 F1500
G1 X-3.346 Y8.134 Z-0.920 F1500
G1 X-3.369 Y8.134 Z-0.853 F1500
G1 X-3.377 Y8.134 Z-0.783 F1500
G1 X-3.377 Y8.134 Z6.080 F200
G1 X40.602 Y9.566 Z6.080 F200
G1 X40.602 Y9.566 Z1.000 F200
G1 X40.602 Y9.566 Z-0.783 F200
G1 X40.594 Y9.566 Z-0.853 F200
G1 X40.570 Y9.566 Z-0.920 F200
G1 X40.532 Y9.566 Z-0.980 F200
G1 X40.482 Y9.566 Z-1.031 F200
G1 X40.422 Y9.566 Z-1.069 F200
G1 X40.355 Y9.566 Z-1.092 F200
G1 X40.284 Y9.566 Z-1.100 F200
G1 X40.135 Y9.566 Z-1.100 F200
G1 X-3.060 Y9.566 Z-1.100 F200
G1 X-3.130 Y9.566 Z-1.092 F1500
G1 X-3.197 Y9.566 Z-1.069 F1500
G1 X-3.257 Y9.566 Z-1.031 F1500
G1 X-3.308 Y9.566 Z-0.980 F1500
G1 X-3.346 Y9.566 Z-0.920 F1500
G1 X-3.369 Y9.566 Z-0.853 F1500
G1 X-3.377 Y9.566 Z-0.783 F1500
G1 X-3.377 Y9.566 Z6.080 F200
G1 X40.602 Y10.998 Z6.080 F200
G1 X40.602 Y10.998 Z1.000 F200
G1 X40.602 Y10.998 Z-0.783 F200
G1 X40.594 Y10.998 Z-0.853 F200
G1 X40.570 Y10.998 Z-0.920 F200
G1 X40.532 Y10.998 Z-0.980 F200
G1 X40.482 Y10.998 Z-1.031 F200
G1 X40.422 Y10.998 Z-1.069 F200
G1 X40.355 Y10.998 Z-1.092 F200
G1 X40.284 Y10.998 Z-1.100 F200
G1 X40.135 Y10.998 Z-1.100 F200
G1 X-3.060 Y10.998 Z-1.100 F200
G1 X-3.130 Y10.998 Z-1.092 F1500
G1 X-3.197 Y10.998 Z-1.069 F1500
G1 X-3.257 Y10.998 Z-1.031 F1500
G1 X-3.308 Y10.998 Z-0.980 F1500
G1 X-3.346 Y10.998 Z-0.920 F1500
G1 X-3.369 Y10.998 Z-0.853 F1500
G1 X-3.377 Y10.998 Z-0.783 F1500
G1 X-3.377 Y10.998 Z6.080 F200
G1 X40.602 Y12.431 Z6.080 F200
G1 X40.602 Y12.431 Z1.000 F200
G1 X40.602 Y12.431 Z-0.783 F200
G1 X40.594 Y12.431 Z-0.853 F200
G1 X40.570 Y12.431 Z-0.920 F200
G1 X40.532 Y12.431 Z-0.980 F200
G1 X40.482 Y12.431 Z-1.031 F200
G1 X40.422 Y12.431 Z-1.069 F200
G1 X40.355 Y12.431 Z-1.092 F200
G1 X40.284 Y12.431 Z-1.100 F200
G1 X40.135 Y12.431 Z-1.100 F200
G1 X-3.060 Y12.431 Z-1.100 F200
G1 X-3.130 Y12.431 Z-1.092 F1500
G1 X-3.197 Y12.431 Z-1.069 F1500
G1 X-3.257 Y12.431 Z-1.031 F1500
G1 X-3.308 Y12.431 Z-0.980 F1500
G1 X-3.346 Y12.431 Z-0.920 F1500
G1 X-3.369 Y12.431 Z-0.853 F1500
G1 X-3.377 Y12.431 Z-0.783 F1500
G1 X-3.377 Y12.431 Z6.080 F200
G1 X40.602 Y13.863 Z6.080 F200
G1 X40.602 Y13.863 Z1.000 F200
G1 X40.602 Y13.863 Z-0.783 F200
G1 X40.594 Y13.863 Z-0.853 F200
G1 X40.570 Y13.863 Z-0.920 F200
G1 X40.532 Y13.863 Z-0.980 F200
G1 X40.482 Y13.863 Z-1.031 F200
G1 X40.422 Y13.863 Z-1.069 F200
G1 X40.355 Y13.863 Z-1.092 F200
G1 X40.284 Y13.863 Z-1.100 F200
G1 X40.135 Y13.863 Z-1.100 F200
G1 X-3.060 Y13.863 Z-1.100 F200
G1 X-3.130 Y13.863 Z-1.092 F1500
G1 X-3.197 Y13.863 Z-1.069 F1500
G1 X-3.257 Y13.863 Z-1.031 F1500
G1 X-3.308 Y13.863 Z-0.980 F1500
G1 X-3.346 Y13.863 Z-0.920 F1500
G1 X-3.369 Y13.863 Z-0.853 F1500
G1 X-3.377 Y13.863 Z-0.783 F1500
G1 X-3.377 Y13.863 Z6.080 F200
G1 X40.602 Y15.295 Z6.080 F200
G1 X40.602 Y15.295 Z1.000 F200
G1 X40.602 Y15.295 Z-0.783 F200
G1 X40.594 Y15.295 Z-0.853 F200
G1 X40.570 Y15.295 Z-0.920 F200
G1 X40.532 Y15.295 Z-0.980 F200
G1 X40.482 Y15.295 Z-1.031 F200
G1 X40.422 Y15.295 Z-1.069 F200
G1 X40.355 Y15.295 Z-1.092 F200
G1 X40.284 Y15.295 Z-1.100 F200
G1 X40.135 Y15.295 Z-1.100 F200
