;Titan-7 Top Inner Contour
;Machine
;vendor: Snapmaker
;model: Desktop CNC
;description: Generic Snapmaker Marlin v20180725
M3 S10000
G4 P2
G21
G90
;When using Fusion for Personal Use, the feedrate of rapid
;moves is reduced to match the feedrate of cutting moves,
;which can increase machining time. Unrestricted rapid moves
;are available with a Fusion Subscription.

;Titan-7 Inner Top Inner Contour
G0 X26.701 Y7.831 Z5.000
G1 X26.701 Y7.831 Z5.000 F200
G1 X26.701 Y7.831 Z1.000 F200
G1 X26.701 Y7.831 Z0.635 F200
G1 X26.701 Y7.831 Z0.217 F200
G1 X26.701 Y7.823 Z0.147 F200
G1 X26.701 Y7.800 Z0.080 F200
G1 X26.701 Y7.762 Z0.020 F200
G1 X26.701 Y7.712 Z-0.031 F200
G1 X26.701 Y7.651 Z-0.069 F200
G1 X26.701 Y7.584 Z-0.092 F200
G1 X26.701 Y7.514 Z-0.100 F200
G1 X26.701 Y7.196 Z-0.100 F200
G1 X26.709 Y7.125 Z-0.100 F200
G1 X26.733 Y7.058 Z-0.100 F200
G1 X26.770 Y6.998 Z-0.100 F200
G1 X26.821 Y6.948 Z-0.100 F200
G1 X26.881 Y6.910 Z-0.100 F200
G1 X26.948 Y6.887 Z-0.100 F200
G1 X27.019 Y6.879 Z-0.100 F200
G1 X29.419 Y6.879 Z-0.100 F200
G1 X29.524 Y6.886 Z-0.100 F200
G1 X29.627 Y6.909 Z-0.100 F200
G1 X29.726 Y6.946 Z-0.100 F200
G1 X29.819 Y6.996 Z-0.100 F200
G1 X29.904 Y7.060 Z-0.100 F200
G1 X29.978 Y7.134 Z-0.100 F200
G1 X30.042 Y7.219 Z-0.100 F200
G1 X30.092 Y7.312 Z-0.100 F200
G1 X30.129 Y7.411 Z-0.100 F200
G1 X30.152 Y7.514 Z-0.100 F200
G1 X30.159 Y7.619 Z-0.100 F200
G1 X30.159 Y8.889 Z-0.100 F200
G1 X30.152 Y8.995 Z-0.100 F200
G1 X30.129 Y9.098 Z-0.100 F200
G1 X30.092 Y9.197 Z-0.100 F200
G1 X30.042 Y9.290 Z-0.100 F200
G1 X29.978 Y9.374 Z-0.100 F200
G1 X29.904 Y9.449 Z-0.100 F200
G1 X29.819 Y9.512 Z-0.100 F200
G1 X29.726 Y9.563 Z-0.100 F200
G1 X29.627 Y9.600 Z-0.100 F200
G1 X29.524 Y9.622 Z-0.100 F200
G1 X29.419 Y9.630 Z-0.100 F200
G1 X27.019 Y9.630 Z-0.100 F200
G1 X26.851 Y9.638 Z-0.100 F200
G1 X26.686 Y9.661 Z-0.100 F200
G1 X26.523 Y9.700 Z-0.100 F200
G1 X26.364 Y9.753 Z-0.100 F200
G1 X26.211 Y9.821 Z-0.100 F200
G1 X26.065 Y9.903 Z-0.100 F200
G1 X25.927 Y9.999 Z-0.100 F200
G1 X25.799 Y10.107 Z-0.100 F200
G1 X25.681 Y10.226 Z-0.100 F200
G1 X25.575 Y10.355 Z-0.100 F200
G1 X25.481 Y10.494 Z-0.100 F200
G1 X25.401 Y10.641 Z-0.100 F200
G1 X25.335 Y10.795 Z-0.100 F200
G1 X25.283 Y10.955 Z-0.100 F200
G1 X25.247 Y11.118 Z-0.100 F200
G1 X25.225 Y11.284 Z-0.100 F200
G1 X25.220 Y11.452 Z-0.100 F200
G1 X25.230 Y11.619 Z-0.100 F200
G1 X25.255 Y11.785 Z-0.100 F200
G1 X25.296 Y11.947 Z-0.100 F200
G1 X25.352 Y12.105 Z-0.100 F200
G1 X25.422 Y12.257 Z-0.100 F200
G1 X25.506 Y12.402 Z-0.100 F200
G1 X25.602 Y12.565 Z-0.100 F200
G1 X25.687 Y12.734 Z-0.100 F200
G1 X25.759 Y12.908 Z-0.100 F200
G1 X25.819 Y13.088 Z-0.100 F200
G1 X25.866 Y13.271 Z-0.100 F200
G1 X25.899 Y13.457 Z-0.100 F200
G1 X25.920 Y13.645 Z-0.100 F200
G1 X25.926 Y13.834 Z-0.100 F200
G1 X25.926 Y14.604 Z-0.100 F200
G1 X25.934 Y14.794 Z-0.100 F200
G1 X25.956 Y14.984 Z-0.100 F200
G1 X25.994 Y15.172 Z-0.100 F200
G1 X26.046 Y15.356 Z-0.100 F200
G1 X26.112 Y15.535 Z-0.100 F200
G1 X26.192 Y15.709 Z-0.100 F200
G1 X26.285 Y15.875 Z-0.100 F200
G1 X26.391 Y16.034 Z-0.100 F200
G1 X26.510 Y16.184 Z-0.100 F200
G1 X26.639 Y16.325 Z-0.100 F200
G1 X26.780 Y16.454 Z-0.100 F200
G1 X26.930 Y16.573 Z-0.100 F200
G1 X27.089 Y16.679 Z-0.100 F200
G1 X27.255 Y16.772 Z-0.100 F200
G1 X27.429 Y16.852 Z-0.100 F200
G1 X27.608 Y16.918 Z-0.100 F200
G1 X27.792 Y16.970 Z-0.100 F200
G1 X27.980 Y17.008 Z-0.100 F200
G1 X28.170 Y17.030 Z-0.100 F200
G1 X28.361 Y17.038 Z-0.100 F200
G1 X35.133 Y17.038 Z-0.100 F200
G1 X35.324 Y17.030 Z-0.100 F200
G1 X35.514 Y17.008 Z-0.100 F200
G1 X35.701 Y16.970 Z-0.100 F200
G1 X35.885 Y16.918 Z-0.100 F200
G1 X36.065 Y16.852 Z-0.100 F200
G1 X36.238 Y16.772 Z-0.100 F200
G1 X36.405 Y16.679 Z-0.100 F200
G1 X36.564 Y16.573 Z-0.100 F200
G1 X36.714 Y16.454 Z-0.100 F200
G1 X36.854 Y16.325 Z-0.100 F200
G1 X36.984 Y16.184 Z-0.100 F200
G1 X37.102 Y16.034 Z-0.100 F200
G1 X37.209 Y15.875 Z-0.100 F200
G1 X37.302 Y15.709 Z-0.100 F200
G1 X37.382 Y15.535 Z-0.100 F200
G1 X37.448 Y15.356 Z-0.100 F200
G1 X37.500 Y15.172 Z-0.100 F200
G1 X37.537 Y14.984 Z-0.100 F200
G1 X37.560 Y14.794 Z-0.100 F200
G1 X37.567 Y14.603 Z-0.100 F200
G1 X37.567 Y1.905 Z-0.100 F200
G1 X37.560 Y1.714 Z-0.100 F200
G1 X37.537 Y1.524 Z-0.100 F200
G1 X37.500 Y1.337 Z-0.100 F200
G1 X37.448 Y1.153 Z-0.100 F200
G1 X37.382 Y0.973 Z-0.100 F200
G1 X37.302 Y0.800 Z-0.100 F200
G1 X37.209 Y0.633 Z-0.100 F200
G1 X37.102 Y0.474 Z-0.100 F200
G1 X36.984 Y0.324 Z-0.100 F200
G1 X36.854 Y0.184 Z-0.100 F200
G1 X36.714 Y0.054 Z-0.100 F200
G1 X36.564 Y-0.064 Z-0.100 F200
G1 X36.405 Y-0.171 Z-0.100 F200
G1 X36.238 Y-0.264 Z-0.100 F200
G1 X36.065 Y-0.344 Z-0.100 F200
G1 X35.885 Y-0.410 Z-0.100 F200
G1 X35.701 Y-0.462 Z-0.100 F200
G1 X35.514 Y-0.499 Z-0.100 F200
G1 X35.324 Y-0.522 Z-0.100 F200
G1 X35.133 Y-0.529 Z-0.100 F200
G1 X1.905 Y-0.529 Z-0.100 F200
G1 X1.714 Y-0.522 Z-0.100 F200
G1 X1.524 Y-0.499 Z-0.100 F200
G1 X1.337 Y-0.462 Z-0.100 F200
G1 X1.153 Y-0.410 Z-0.100 F200
G1 X0.973 Y-0.344 Z-0.100 F200
G1 X0.800 Y-0.264 Z-0.100 F200
G1 X0.633 Y-0.171 Z-0.100 F200
G1 X0.474 Y-0.064 Z-0.100 F200
G1 X0.324 Y0.054 Z-0.100 F200
G1 X0.184 Y0.184 Z-0.100 F200
G1 X0.054 Y0.324 Z-0.100 F200
G1 X-0.064 Y0.474 Z-0.100 F200
G1 X-0.171 Y0.633 Z-0.100 F200
G1 X-0.264 Y0.800 Z-0.100 F200
G1 X-0.344 Y0.973 Z-0.100 F200
G1 X-0.410 Y1.153 Z-0.100 F200
G1 X-0.462 Y1.337 Z-0.100 F200
G1 X-0.499 Y1.524 Z-0.100 F200
G1 X-0.522 Y1.714 Z-0.100 F200
G1 X-0.529 Y1.905 Z-0.100 F200
G1 X-0.529 Y4.445 Z-0.100 F200
G1 X-0.522 Y4.636 Z-0.100 F200
G1 X-0.499 Y4.825 Z-0.100 F200
G1 X-0.462 Y5.013 Z-0.100 F200
G1 X-0.410 Y5.197 Z-0.100 F200
G1 X-0.344 Y5.376 Z-0.100 F200
G1 X-0.264 Y5.550 Z-0.100 F200
G1 X-0.171 Y5.716 Z-0.100 F200
G1 X-0.064 Y5.875 Z-0.100 F200
G1 X0.054 Y6.025 Z-0.100 F200
G1 X0.184 Y6.166 Z-0.100 F200
G1 X0.324 Y6.295 Z-0.100 F200
G1 X0.474 Y6.414 Z-0.100 F200
G1 X0.633 Y6.520 Z-0.100 F200
G1 X0.800 Y6.613 Z-0.100 F200
G1 X0.973 Y6.693 Z-0.100 F200
G1 X1.153 Y6.760 Z-0.100 F200
G1 X1.337 Y6.811 Z-0.100 F200
G1 X1.524 Y6.849 Z-0.100 F200
G1 X1.714 Y6.871 Z-0.100 F200
G1 X1.905 Y6.879 Z-0.100 F200
G1 X27.019 Y6.879 Z-0.100 F200
G1 X27.089 Y6.887 Z-0.100 F1500
G1 X27.156 Y6.910 Z-0.100 F1500
G1 X27.217 Y6.948 Z-0.100 F1500
G1 X27.267 Y6.998 Z-0.100 F1500
G1 X27.305 Y7.058 Z-0.100 F1500
G1 X27.328 Y7.125 Z-0.100 F1500
G1 X27.336 Y7.196 Z-0.100 F1500
G1 X27.336 Y7.514 Z-0.100 F1500
G1 X27.336 Y7.584 Z-0.092 F1500
G1 X27.336 Y7.651 Z-0.069 F1500
G1 X27.336 Y7.712 Z-0.031 F1500
G1 X27.336 Y7.762 Z0.020 F1500
G1 X27.336 Y7.800 Z0.080 F1500
G1 X27.336 Y7.823 Z0.147 F1500
G1 X27.336 Y7.831 Z0.217 F1500
G1 X27.336 Y7.831 Z2.000 F200
G1 X26.701 Y7.831 Z2.000 F200
G1 X26.701 Y7.831 Z1.000 F200
G1 X26.701 Y7.831 Z0.535 F200
G1 X26.701 Y7.831 Z0.117 F200
G1 X26.701 Y7.823 Z0.047 F200
G1 X26.701 Y7.800 Z-0.020 F200
G1 X26.701 Y7.762 Z-0.080 F200
G1 X26.701 Y7.712 Z-0.131 F200
G1 X26.701 Y7.651 Z-0.169 F200
G1 X26.701 Y7.584 Z-0.192 F200
G1 X26.701 Y7.514 Z-0.200 F200
G1 X26.701 Y7.196 Z-0.200 F200
G1 X26.709 Y7.125 Z-0.200 F200
G1 X26.733 Y7.058 Z-0.200 F200
G1 X26.770 Y6.998 Z-0.200 F200
G1 X26.821 Y6.948 Z-0.200 F200
G1 X26.881 Y6.910 Z-0.200 F200
G1 X26.948 Y6.887 Z-0.200 F200
G1 X27.019 Y6.879 Z-0.200 F200
G1 X29.419 Y6.879 Z-0.200 F200
G1 X29.524 Y6.886 Z-0.200 F200
G1 X29.627 Y6.909 Z-0.200 F200
G1 X29.726 Y6.946 Z-0.200 F200
G1 X29.819 Y6.996 Z-0.200 F200
G1 X29.904 Y7.060 Z-0.200 F200
G1 X29.978 Y7.134 Z-0.200 F200
G1 X30.042 Y7.219 Z-0.200 F200
G1 X30.092 Y7.312 Z-0.200 F200
G1 X30.129 Y7.411 Z-0.200 F200
G1 X30.152 Y7.514 Z-0.200 F200
G1 X30.159 Y7.619 Z-0.200 F200
G1 X30.159 Y8.889 Z-0.200 F200
G1 X30.152 Y8.995 Z-0.200 F200
G1 X30.129 Y9.098 Z-0.200 F200
G1 X30.092 Y9.197 Z-0.200 F200
G1 X30.042 Y9.290 Z-0.200 F200
G1 X29.978 Y9.374 Z-0.200 F200
G1 X29.904 Y9.449 Z-0.200 F200
G1 X29.819 Y9.512 Z-0.200 F200
G1 X29.726 Y9.563 Z-0.200 F200
G1 X29.627 Y9.600 Z-0.200 F200
G1 X29.524 Y9.622 Z-0.200 F200
G1 X29.419 Y9.630 Z-0.200 F200
G1 X27.019 Y9.630 Z-0.200 F200
G1 X26.851 Y9.638 Z-0.200 F200
G1 X26.686 Y9.661 Z-0.200 F200
G1 X26.523 Y9.700 Z-0.200 F200
G1 X26.364 Y9.753 Z-0.200 F200
G1 X26.211 Y9.821 Z-0.200 F200
G1 X26.065 Y9.903 Z-0.200 F200
G1 X25.927 Y9.999 Z-0.200 F200
G1 X25.799 Y10.107 Z-0.200 F200
G1 X25.681 Y10.226 Z-0.200 F200
G1 X25.575 Y10.355 Z-0.200 F200
G1 X25.481 Y10.494 Z-0.200 F200
G1 X25.401 Y10.641 Z-0.200 F200
G1 X25.335 Y10.795 Z-0.200 F200
G1 X25.283 Y10.955 Z-0.200 F200
G1 X25.247 Y11.118 Z-0.200 F200
G1 X25.225 Y11.284 Z-0.200 F200
G1 X25.220 Y11.452 Z-0.200 F200
G1 X25.230 Y11.619 Z-0.200 F200
G1 X25.255 Y11.785 Z-0.200 F200
G1 X25.296 Y11.947 Z-0.200 F200
G1 X25.352 Y12.105 Z-0.200 F200
G1 X25.422 Y12.257 Z-0.200 F200
G1 X25.506 Y12.402 Z-0.200 F200
G1 X25.602 Y12.565 Z-0.200 F200
G1 X25.687 Y12.734 Z-0.200 F200
G1 X25.759 Y12.908 Z-0.200 F200
G1 X25.819 Y13.088 Z-0.200 F200
G1 X25.866 Y13.271 Z-0.200 F200
G1 X25.899 Y13.457 Z-0.200 F200
G1 X25.920 Y13.645 Z-0.200 F200
G1 X25.926 Y13.834 Z-0.200 F200
G1 X25.926 Y14.604 Z-0.200 F200
G1 X25.934 Y14.794 Z-0.200 F200
G1 X25.956 Y14.984 Z-0.200 F200
G1 X25.994 Y15.172 Z-0.200 F200
G1 X26.046 Y15.356 Z-0.200 F200
G1 X26.112 Y15.535 Z-0.200 F200
G1 X26.192 Y15.709 Z-0.200 F200
G1 X26.285 Y15.875 Z-0.200 F200
G1 X26.391 Y16.034 Z-0.200 F200
G1 X26.510 Y16.184 Z-0.200 F200
G1 X26.639 Y16.325 Z-0.200 F200
G1 X26.780 Y16.454 Z-0.200 F200
G1 X26.930 Y16.573 Z-0.200 F200
G1 X27.089 Y16.679 Z-0.200 F200
G1 X27.255 Y16.772 Z-0.200 F200
G1 X27.429 Y16.852 Z-0.200 F200
G1 X27.608 Y16.918 Z-0.200 F200
G1 X27.792 Y16.970 Z-0.200 F200
G1 X27.980 Y17.008 Z-0.200 F200
G1 X28.170 Y17.030 Z-0.200 F200
G1 X28.361 Y17.038 Z-0.200 F200
G1 X35.133 Y17.038 Z-0.200 F200
G1 X35.324 Y17.030 Z-0.200 F200
G1 X35.514 Y17.008 Z-0.200 F200
G1 X35.701 Y16.970 Z-0.200 F200
G1 X35.885 Y16.918 Z-0.200 F200
G1 X36.065 Y16.852 Z-0.200 F200
G1 X36.238 Y16.772 Z-0.200 F200
G1 X36.405 Y16.679 Z-0.200 F200
G1 X36.564 Y16.573 Z-0.200 F200
G1 X36.714 Y16.454 Z-0.200 F200
G1 X36.854 Y16.325 Z-0.200 F200
G1 X36.984 Y16.184 Z-0.200 F200
G1 X37.102 Y16.034 Z-0.200 F200
G1 X37.209 Y15.875 Z-0.200 F200
G1 X37.302 Y15.709 Z-0.200 F200
G1 X37.382 Y15.535 Z-0.200 F200
G1 X37.448 Y15.356 Z-0.200 F200
G1 X37.500 Y15.172 Z-0.200 F200
G1 X37.537 Y14.984 Z-0.200 F200
G1 X37.560 Y14.794 Z-0.200 F200
G1 X37.567 Y14.603 Z-0.200 F200
G1 X37.567 Y1.905 Z-0.200 F200
G1 X37.560 Y1.714 Z-0.200 F200
G1 X37.537 Y1.524 Z-0.200 F200
G1 X37.500 Y1.337 Z-0.200 F200
G1 X37.448 Y1.153 Z-0.200 F200
G1 X37.382 Y0.973 Z-0.200 F200
G1 X37.302 Y0.800 Z-0.200 F200
G1 X37.209 Y0.633 Z-0.200 F200
G1 X37.102 Y0.474 Z-0.200 F200
G1 X36.984 Y0.324 Z-0.200 F200
G1 X36.854 Y0.184 Z-0.200 F200
G1 X36.714 Y0.054 Z-0.200 F200
G1 X36.564 Y-0.064 Z-0.200 F200
G1 X36.405 Y-0.171 Z-0.200 F200
G1 X36.238 Y-0.264 Z-0.200 F200
G1 X36.065 Y-0.344 Z-0.200 F200
G1 X35.885 Y-0.410 Z-0.200 F200
G1 X35.701 Y-0.462 Z-0.200 F200
G1 X35.514 Y-0.499 Z-0.200 F200
G1 X35.324 Y-0.522 Z-0.200 F200
G1 X35.133 Y-0.529 Z-0.200 F200
G1 X1.905 Y-0.529 Z-0.200 F200
G1 X1.714 Y-0.522 Z-0.200 F200
G1 X1.524 Y-0.499 Z-0.200 F200
G1 X1.337 Y-0.462 Z-0.200 F200
G1 X1.153 Y-0.410 Z-0.200 F200
G1 X0.973 Y-0.344 Z-0.200 F200
G1 X0.800 Y-0.264 Z-0.200 F200
G1 X0.633 Y-0.171 Z-0.200 F200
G1 X0.474 Y-0.064 Z-0.200 F200
G1 X0.324 Y0.054 Z-0.200 F200
G1 X0.184 Y0.184 Z-0.200 F200
G1 X0.054 Y0.324 Z-0.200 F200
G1 X-0.064 Y0.474 Z-0.200 F200
G1 X-0.171 Y0.633 Z-0.200 F200
G1 X-0.264 Y0.800 Z-0.200 F200
G1 X-0.344 Y0.973 Z-0.200 F200
G1 X-0.410 Y1.153 Z-0.200 F200
G1 X-0.462 Y1.337 Z-0.200 F200
G1 X-0.499 Y1.524 Z-0.200 F200
G1 X-0.522 Y1.714 Z-0.200 F200
G1 X-0.529 Y1.905 Z-0.200 F200
G1 X-0.529 Y4.445 Z-0.200 F200
G1 X-0.522 Y4.636 Z-0.200 F200
G1 X-0.499 Y4.825 Z-0.200 F200
G1 X-0.462 Y5.013 Z-0.200 F200
G1 X-0.410 Y5.197 Z-0.200 F200
G1 X-0.344 Y5.376 Z-0.200 F200
G1 X-0.264 Y5.550 Z-0.200 F200
G1 X-0.171 Y5.716 Z-0.200 F200
G1 X-0.064 Y5.875 Z-0.200 F200
G1 X0.054 Y6.025 Z-0.200 F200
G1 X0.184 Y6.166 Z-0.200 F200
G1 X0.324 Y6.295 Z-0.200 F200
G1 X0.474 Y6.414 Z-0.200 F200
G1 X0.633 Y6.520 Z-0.200 F200
G1 X0.800 Y6.613 Z-0.200 F200
G1 X0.973 Y6.693 Z-0.200 F200
G1 X1.153 Y6.760 Z-0.200 F200
G1 X1.337 Y6.811 Z-0.200 F200
G1 X1.524 Y6.849 Z-0.200 F200
G1 X1.714 Y6.871 Z-0.200 F200
G1 X1.905 Y6.879 Z-0.200 F200
G1 X27.019 Y6.879 Z-0.200 F200
G1 X27.089 Y6.887 Z-0.200 F1500
G1 X27.156 Y6.910 Z-0.200 F1500
G1 X27.217 Y6.948 Z-0.200 F1500
G1 X27.267 Y6.998 Z-0.200 F1500
G1 X27.305 Y7.058 Z-0.200 F1500
G1 X27.328 Y7.125 Z-0.200 F1500
G1 X27.336 Y7.196 Z-0.200 F1500
G1 X27.336 Y7.514 Z-0.200 F1500
G1 X27.336 Y7.584 Z-0.192 F1500
G1 X27.336 Y7.651 Z-0.169 F1500
G1 X27.336 Y7.712 Z-0.131 F1500
G1 X27.336 Y7.762 Z-0.080 F1500
G1 X27.336 Y7.800 Z-0.020 F1500
G1 X27.336 Y7.823 Z0.047 F1500
G1 X27.336 Y7.831 Z0.117 F1500
G1 X27.336 Y7.831 Z2.000 F200
G1 X26.701 Y7.831 Z2.000 F200
G1 X26.701 Y7.831 Z1.000 F200
G1 X26.701 Y7.831 Z0.435 F200
G1 X26.701 Y7.831 Z0.017 F200
G1 X26.701 Y7.823 Z-0.053 F200
G1 X26.701 Y7.800 Z-0.120 F200
G1 X26.701 Y7.762 Z-0.180 F200
G1 X26.701 Y7.712 Z-0.231 F200
G1 X26.701 Y7.651 Z-0.269 F200
G1 X26.701 Y7.584 Z-0.292 F200
G1 X26.701 Y7.514 Z-0.300 F200
G1 X26.701 Y7.196 Z-0.300 F200
G1 X26.709 Y7.125 Z-0.300 F200
G1 X26.733 Y7.058 Z-0.300 F200
G1 X26.770 Y6.998 Z-0.300 F200
G1 X26.821 Y6.948 Z-0.300 F200
G1 X26.881 Y6.910 Z-0.300 F200
G1 X26.948 Y6.887 Z-0.300 F200
G1 X27.019 Y6.879 Z-0.300 F200
G1 X29.419 Y6.879 Z-0.300 F200
G1 X29.524 Y6.886 Z-0.300 F200
G1 X29.627 Y6.909 Z-0.300 F200
G1 X29.726 Y6.946 Z-0.300 F200
G1 X29.819 Y6.996 Z-0.300 F200
G1 X29.904 Y7.060 Z-0.300 F200
G1 X29.978 Y7.134 Z-0.300 F200
G1 X30.042 Y7.219 Z-0.300 F200
G1 X30.092 Y7.312 Z-0.300 F200
G1 X30.129 Y7.411 Z-0.300 F200
G1 X30.152 Y7.514 Z-0.300 F200
G1 X30.159 Y7.619 Z-0.300 F200
G1 X30.159 Y8.889 Z-0.300 F200
G1 X30.152 Y8.995 Z-0.300 F200
G1 X30.129 Y9.098 Z-0.300 F200
G1 X30.092 Y9.197 Z-0.300 F200
G1 X30.042 Y9.290 Z-0.300 F200
G1 X29.978 Y9.374 Z-0.300 F200
G1 X29.904 Y9.449 Z-0.300 F200
G1 X29.819 Y9.512 Z-0.300 F200
G1 X29.726 Y9.563 Z-0.300 F200
G1 X29.627 Y9.600 Z-0.300 F200
G1 X29.524 Y9.622 Z-0.300 F200
G1 X29.419 Y9.630 Z-0.300 F200
G1 X27.019 Y9.630 Z-0.300 F200
G1 X26.851 Y9.638 Z-0.300 F200
G1 X26.686 Y9.661 Z-0.300 F200
G1 X26.523 Y9.700 Z-0.300 F200
G1 X26.364 Y9.753 Z-0.300 F200
G1 X26.211 Y9.821 Z-0.300 F200
G1 X26.065 Y9.903 Z-0.300 F200
G1 X25.927 Y9.999 Z-0.300 F200
G1 X25.799 Y10.107 Z-0.300 F200
G1 X25.681 Y10.226 Z-0.300 F200
G1 X25.575 Y10.355 Z-0.300 F200
G1 X25.481 Y10.494 Z-0.300 F200
G1 X25.401 Y10.641 Z-0.300 F200
G1 X25.335 Y10.795 Z-0.300 F200
G1 X25.283 Y10.955 Z-0.300 F200
G1 X25.247 Y11.118 Z-0.300 F200
G1 X25.225 Y11.284 Z-0.300 F200
G1 X25.220 Y11.452 Z-0.300 F200
G1 X25.230 Y11.619 Z-0.300 F200
G1 X25.255 Y11.785 Z-0.300 F200
G1 X25.296 Y11.947 Z-0.300 F200
G1 X25.352 Y12.105 Z-0.300 F200
G1 X25.422 Y12.257 Z-0.300 F200
G1 X25.506 Y12.402 Z-0.300 F200
G1 X25.602 Y12.565 Z-0.300 F200
G1 X25.687 Y12.734 Z-0.300 F200
G1 X25.759 Y12.908 Z-0.300 F200
G1 X25.819 Y13.088 Z-0.300 F200
G1 X25.866 Y13.271 Z-0.300 F200
G1 X25.899 Y13.457 Z-0.300 F200
G1 X25.920 Y13.645 Z-0.300 F200
G1 X25.926 Y13.834 Z-0.300 F200
G1 X25.926 Y14.604 Z-0.300 F200
G1 X25.934 Y14.794 Z-0.300 F200
G1 X25.956 Y14.984 Z-0.300 F200
G1 X25.994 Y15.172 Z-0.300 F200
G1 X26.046 Y15.356 Z-0.300 F200
G1 X26.112 Y15.535 Z-0.300 F200
G1 X26.192 Y15.709 Z-0.300 F200
G1 X26.285 Y15.875 Z-0.300 F200
G1 X26.391 Y16.034 Z-0.300 F200
G1 X26.510 Y16.184 Z-0.300 F200
G1 X26.639 Y16.325 Z-0.300 F200
G1 X26.780 Y16.454 Z-0.300 F200
G1 X26.930 Y16.573 Z-0.300 F200
G1 X27.089 Y16.679 Z-0.300 F200
G1 X27.255 Y16.772 Z-0.300 F200
G1 X27.429 Y16.852 Z-0.300 F200
G1 X27.608 Y16.918 Z-0.300 F200
G1 X27.792 Y16.970 Z-0.300 F200
G1 X27.980 Y17.008 Z-0.300 F200
G1 X28.170 Y17.030 Z-0.300 F200
G1 X28.361 Y17.038 Z-0.300 F200
G1 X35.133 Y17.038 Z-0.300 F200
G1 X35.324 Y17.030 Z-0.300 F200
G1 X35.514 Y17.008 Z-0.300 F200
G1 X35.701 Y16.970 Z-0.300 F200
G1 X35.885 Y16.918 Z-0.300 F200
G1 X36.065 Y16.852 Z-0.300 F200
G1 X36.238 Y16.772 Z-0.300 F200
G1 X36.405 Y16.679 Z-0.300 F200
G1 X36.564 Y16.573 Z-0.300 F200
G1 X36.714 Y16.454 Z-0.300 F200
G1 X36.854 Y16.325 Z-0.300 F200
G1 X36.984 Y16.184 Z-0.300 F200
G1 X37.102 Y16.034 Z-0.300 F200
G1 X37.209 Y15.875 Z-0.300 F200
G1 X37.302 Y15.709 Z-0.300 F200
G1 X37.382 Y15.535 Z-0.300 F200
G1 X37.448 Y15.356 Z-0.300 F200
G1 X37.500 Y15.172 Z-0.300 F200
G1 X37.537 Y14.984 Z-0.300 F200
G1 X37.560 Y14.794 Z-0.300 F200
G1 X37.567 Y14.603 Z-0.300 F200
G1 X37.567 Y1.905 Z-0.300 F200
G1 X37.560 Y1.714 Z-0.300 F200
G1 X37.537 Y1.524 Z-0.300 F200
G1 X37.500 Y1.337 Z-0.300 F200
G1 X37.448 Y1.153 Z-0.300 F200
G1 X37.382 Y0.973 Z-0.300 F200
G1 X37.302 Y0.800 Z-0.300 F200
G1 X37.209 Y0.633 Z-0.300 F200
G1 X37.102 Y0.474 Z-0.300 F200
G1 X36.984 Y0.324 Z-0.300 F200
G1 X36.854 Y0.184 Z-0.300 F200
G1 X36.714 Y0.054 Z-0.300 F200
G1 X36.564 Y-0.064 Z-0.300 F200
G1 X36.405 Y-0.171 Z-0.300 F200
G1 X36.238 Y-0.264 Z-0.300 F200
G1 X36.065 Y-0.344 Z-0.300 F200
G1 X35.885 Y-0.410 Z-0.300 F200
G1 X35.701 Y-0.462 Z-0.300 F200
G1 X35.514 Y-0.499 Z-0.300 F200
G1 X35.324 Y-0.522 Z-0.300 F200
G1 X35.133 Y-0.529 Z-0.300 F200
G1 X1.905 Y-0.529 Z-0.300 F200
G1 X1.714 Y-0.522 Z-0.300 F200
G1 X1.524 Y-0.499 Z-0.300 F200
G1 X1.337 Y-0.462 Z-0.300 F200
G1 X1.153 Y-0.410 Z-0.300 F200
G1 X0.973 Y-0.344 Z-0.300 F200
G1 X0.800 Y-0.264 Z-0.300 F200
G1 X0.633 Y-0.171 Z-0.300 F200
G1 X0.474 Y-0.064 Z-0.300 F200
G1 X0.324 Y0.054 Z-0.300 F200
G1 X0.184 Y0.184 Z-0.300 F200
G1 X0.054 Y0.324 Z-0.300 F200
G1 X-0.064 Y0.474 Z-0.300 F200
G1 X-0.171 Y0.633 Z-0.300 F200
G1 X-0.264 Y0.800 Z-0.300 F200
G1 X-0.344 Y0.973 Z-0.300 F200
G1 X-0.410 Y1.153 Z-0.300 F200
G1 X-0.462 Y1.337 Z-0.300 F200
G1 X-0.499 Y1.524 Z-0.300 F200
G1 X-0.522 Y1.714 Z-0.300 F200
G1 X-0.529 Y1.905 Z-0.300 F200
G1 X-0.529 Y4.445 Z-0.300 F200
G1 X-0.522 Y4.636 Z-0.300 F200
G1 X-0.499 Y4.825 Z-0.300 F200
G1 X-0.462 Y5.013 Z-0.300 F200
G1 X-0.410 Y5.197 Z-0.300 F200
G1 X-0.344 Y5.376 Z-0.300 F200
G1 X-0.264 Y5.550 Z-0.300 F200
G1 X-0.171 Y5.716 Z-0.300 F200
G1 X-0.064 Y5.875 Z-0.300 F200
G1 X0.054 Y6.025 Z-0.300 F200
G1 X0.184 Y6.166 Z-0.300 F200
G1 X0.324 Y6.295 Z-0.300 F200
G1 X0.474 Y6.414 Z-0.300 F200
G1 X0.633 Y6.520 Z-0.300 F200
G1 X0.800 Y6.613 Z-0.300 F200
G1 X0.973 Y6.693 Z-0.300 F200
G1 X1.153 Y6.760 Z-0.300 F200
G1 X1.337 Y6.811 Z-0.300 F200
G1 X1.524 Y6.849 Z-0.300 F200
G1 X1.714 Y6.871 Z-0.300 F200
G1 X1.905 Y6.879 Z-0.300 F200
G1 X27.019 Y6.879 Z-0.300 F200
G1 X27.089 Y6.887 Z-0.300 F1500
G1 X27.156 Y6.910 Z-0.300 F1500
G1 X27.217 Y6.948 Z-0.300 F1500
G1 X27.267 Y6.998 Z-0.300 F1500
G1 X27.305 Y7.058 Z-0.300 F1500
G1 X27.328 Y7.125 Z-0.300 F1500
G1 X27.336 Y7.196 Z-0.300 F1500
G1 X27.336 Y7.514 Z-0.300 F1500
G1 X27.336 Y7.584 Z-0.292 F1500
G1 X27.336 Y7.651 Z-0.269 F1500
G1 X27.336 Y7.712 Z-0.231 F1500
G1 X27.336 Y7.762 Z-0.180 F1500
G1 X27.336 Y7.800 Z-0.120 F1500
G1 X27.336 Y7.823 Z-0.053 F1500
G1 X27.336 Y7.831 Z0.017 F1500
G1 X27.336 Y7.831 Z2.000 F200
G1 X26.701 Y7.831 Z2.000 F200
G1 X26.701 Y7.831 Z1.000 F200
G1 X26.701 Y7.831 Z0.335 F200
G1 X26.701 Y7.831 Z-0.083 F200
G1 X26.701 Y7.823 Z-0.153 F200
G1 X26.701 Y7.800 Z-0.220 F200
G1 X26.701 Y7.762 Z-0.280 F200
G1 X26.701 Y7.712 Z-0.331 F200
G1 X26.701 Y7.651 Z-0.369 F200
G1 X26.701 Y7.584 Z-0.392 F200
G1 X26.701 Y7.514 Z-0.400 F200
G1 X26.701 Y7.196 Z-0.400 F200
G1 X26.709 Y7.125 Z-0.400 F200
G1 X26.733 Y7.058 Z-0.400 F200
G1 X26.770 Y6.998 Z-0.400 F200
G1 X26.821 Y6.948 Z-0.400 F200
G1 X26.881 Y6.910 Z-0.400 F200
G1 X26.948 Y6.887 Z-0.400 F200
G1 X27.019 Y6.879 Z-0.400 F200
G1 X29.419 Y6.879 Z-0.400 F200
G1 X29.524 Y6.886 Z-0.400 F200
G1 X29.627 Y6.909 Z-0.400 F200
G1 X29.726 Y6.946 Z-0.400 F200
G1 X29.819 Y6.996 Z-0.400 F200
G1 X29.904 Y7.060 Z-0.400 F200
G1 X29.978 Y7.134 Z-0.400 F200
G1 X30.042 Y7.219 Z-0.400 F200
G1 X30.092 Y7.312 Z-0.400 F200
G1 X30.129 Y7.411 Z-0.400 F200
G1 X30.152 Y7.514 Z-0.400 F200
G1 X30.159 Y7.619 Z-0.400 F200
G1 X30.159 Y8.889 Z-0.400 F200
G1 X30.152 Y8.995 Z-0.400 F200
G1 X30.129 Y9.098 Z-0.400 F200
G1 X30.092 Y9.197 Z-0.400 F200
G1 X30.042 Y9.290 Z-0.400 F200
G1 X29.978 Y9.374 Z-0.400 F200
G1 X29.904 Y9.449 Z-0.400 F200
G1 X29.819 Y9.512 Z-0.400 F200
G1 X29.726 Y9.563 Z-0.400 F200
G1 X29.627 Y9.600 Z-0.400 F200
G1 X29.524 Y9.622 Z-0.400 F200
G1 X29.419 Y9.630 Z-0.400 F200
G1 X27.019 Y9.630 Z-0.400 F200
G1 X26.851 Y9.638 Z-0.400 F200
G1 X26.686 Y9.661 Z-0.400 F200
G1 X26.523 Y9.700 Z-0.400 F200
G1 X26.364 Y9.753 Z-0.400 F200
G1 X26.211 Y9.821 Z-0.400 F200
G1 X26.065 Y9.903 Z-0.400 F200
G1 X25.927 Y9.999 Z-0.400 F200
G1 X25.799 Y10.107 Z-0.400 F200
G1 X25.681 Y10.226 Z-0.400 F200
G1 X25.575 Y10.355 Z-0.400 F200
G1 X25.481 Y10.494 Z-0.400 F200
G1 X25.401 Y10.641 Z-0.400 F200
G1 X25.335 Y10.795 Z-0.400 F200
G1 X25.283 Y10.955 Z-0.400 F200
G1 X25.247 Y11.118 Z-0.400 F200
G1 X25.225 Y11.284 Z-0.400 F200
G1 X25.220 Y11.452 Z-0.400 F200
G1 X25.230 Y11.619 Z-0.400 F200
G1 X25.255 Y11.785 Z-0.400 F200
G1 X25.296 Y11.947 Z-0.400 F200
G1 X25.352 Y12.105 Z-0.400 F200
G1 X25.422 Y12.257 Z-0.400 F200
G1 X25.506 Y12.402 Z-0.400 F200
G1 X25.602 Y12.565 Z-0.400 F200
G1 X25.687 Y12.734 Z-0.400 F200
G1 X25.759 Y12.908 Z-0.400 F200
G1 X25.819 Y13.088 Z-0.400 F200
G1 X25.866 Y13.271 Z-0.400 F200
G1 X25.899 Y13.457 Z-0.400 F200
G1 X25.920 Y13.645 Z-0.400 F200
G1 X25.926 Y13.834 Z-0.400 F200
G1 X25.926 Y14.604 Z-0.400 F200
G1 X25.934 Y14.794 Z-0.400 F200
G1 X25.956 Y14.984 Z-0.400 F200
G1 X25.994 Y15.172 Z-0.400 F200
G1 X26.046 Y15.356 Z-0.400 F200
G1 X26.112 Y15.535 Z-0.400 F200
G1 X26.192 Y15.709 Z-0.400 F200
G1 X26.285 Y15.875 Z-0.400 F200
G1 X26.391 Y16.034 Z-0.400 F200
G1 X26.510 Y16.184 Z-0.400 F200
G1 X26.639 Y16.325 Z-0.400 F200
G1 X26.780 Y16.454 Z-0.400 F200
G1 X26.930 Y16.573 Z-0.400 F200
G1 X27.089 Y16.679 Z-0.400 F200
G1 X27.255 Y16.772 Z-0.400 F200
G1 X27.429 Y16.852 Z-0.400 F200
G1 X27.608 Y16.918 Z-0.400 F200
G1 X27.792 Y16.970 Z-0.400 F200
G1 X27.980 Y17.008 Z-0.400 F200
G1 X28.170 Y17.030 Z-0.400 F200
G1 X28.361 Y17.038 Z-0.400 F200
G1 X35.133 Y17.038 Z-0.400 F200
G1 X35.324 Y17.030 Z-0.400 F200
G1 X35.514 Y17.008 Z-0.400 F200
G1 X35.701 Y16.970 Z-0.400 F200
G1 X35.885 Y16.918 Z-0.400 F200
G1 X36.065 Y16.852 Z-0.400 F200
G1 X36.238 Y16.772 Z-0.400 F200
G1 X36.405 Y16.679 Z-0.400 F200
G1 X36.564 Y16.573 Z-0.400 F200
G1 X36.714 Y16.454 Z-0.400 F200
G1 X36.854 Y16.325 Z-0.400 F200
G1 X36.984 Y16.184 Z-0.400 F200
G1 X37.102 Y16.034 Z-0.400 F200
G1 X37.209 Y15.875 Z-0.400 F200
G1 X37.302 Y15.709 Z-0.400 F200
G1 X37.382 Y15.535 Z-0.400 F200
G1 X37.448 Y15.356 Z-0.400 F200
G1 X37.500 Y15.172 Z-0.400 F200
G1 X37.537 Y14.984 Z-0.400 F200
G1 X37.560 Y14.794 Z-0.400 F200
G1 X37.567 Y14.603 Z-0.400 F200
G1 X37.567 Y1.905 Z-0.400 F200
G1 X37.560 Y1.714 Z-0.400 F200
G1 X37.537 Y1.524 Z-0.400 F200
G1 X37.500 Y1.337 Z-0.400 F200
G1 X37.448 Y1.153 Z-0.400 F200
G1 X37.382 Y0.973 Z-0.400 F200
G1 X37.302 Y0.800 Z-0.400 F200
G1 X37.209 Y0.633 Z-0.400 F200
G1 X37.102 Y0.474 Z-0.400 F200
G1 X36.984 Y0.324 Z-0.400 F200
G1 X36.854 Y0.184 Z-0.400 F200
G1 X36.714 Y0.054 Z-0.400 F200
G1 X36.564 Y-0.064 Z-0.400 F200
G1 X36.405 Y-0.171 Z-0.400 F200
G1 X36.238 Y-0.264 Z-0.400 F200
G1 X36.065 Y-0.344 Z-0.400 F200
G1 X35.885 Y-0.410 Z-0.400 F200
G1 X35.701 Y-0.462 Z-0.400 F200
G1 X35.514 Y-0.499 Z-0.400 F200
G1 X35.324 Y-0.522 Z-0.400 F200
G1 X35.133 Y-0.529 Z-0.400 F200
G1 X1.905 Y-0.529 Z-0.400 F200
G1 X1.714 Y-0.522 Z-0.400 F200
G1 X1.524 Y-0.499 Z-0.400 F200
G1 X1.337 Y-0.462 Z-0.400 F200
G1 X1.153 Y-0.410 Z-0.400 F200
G1 X0.973 Y-0.344 Z-0.400 F200
G1 X0.800 Y-0.264 Z-0.400 F200
G1 X0.633 Y-0.171 Z-0.400 F200
G1 X0.474 Y-0.064 Z-0.400 F200
G1 X0.324 Y0.054 Z-0.400 F200
G1 X0.184 Y0.184 Z-0.400 F200
G1 X0.054 Y0.324 Z-0.400 F200
G1 X-0.064 Y0.474 Z-0.400 F200
G1 X-0.171 Y0.633 Z-0.400 F200
G1 X-0.264 Y0.800 Z-0.400 F200
G1 X-0.344 Y0.973 Z-0.400 F200
G1 X-0.410 Y1.153 Z-0.400 F200
G1 X-0.462 Y1.337 Z-0.400 F200
G1 X-0.499 Y1.524 Z-0.400 F200
G1 X-0.522 Y1.714 Z-0.400 F200
G1 X-0.529 Y1.905 Z-0.400 F200
G1 X-0.529 Y4.445 Z-0.400 F200
G1 X-0.522 Y4.636 Z-0.400 F200
G1 X-0.499 Y4.825 Z-0.400 F200
G1 X-0.462 Y5.013 Z-0.400 F200
G1 X-0.410 Y5.197 Z-0.400 F200
G1 X-0.344 Y5.376 Z-0.400 F200
G1 X-0.264 Y5.550 Z-0.400 F200
G1 X-0.171 Y5.716 Z-0.400 F200
G1 X-0.064 Y5.875 Z-0.400 F200
G1 X0.054 Y6.025 Z-0.400 F200
G1 X0.184 Y6.166 Z-0.400 F200
G1 X0.324 Y6.295 Z-0.400 F200
G1 X0.474 Y6.414 Z-0.400 F200
G1 X0.633 Y6.520 Z-0.400 F200
G1 X0.800 Y6.613 Z-0.400 F200
G1 X0.973 Y6.693 Z-0.400 F200
G1 X1.153 Y6.760 Z-0.400 F200
G1 X1.337 Y6.811 Z-0.400 F200
G1 X1.524 Y6.849 Z-0.400 F200
G1 X1.714 Y6.871 Z-0.400 F200
G1 X1.905 Y6.879 Z-0.400 F200
G1 X27.019 Y6.879 Z-0.400 F200
G1 X27.089 Y6.887 Z-0.400 F1500
G1 X27.156 Y6.910 Z-0.400 F1500
G1 X27.217 Y6.948 Z-0.400 F1500
G1 X27.267 Y6.998 Z-0.400 F1500
G1 X27.305 Y7.058 Z-0.400 F1500
G1 X27.328 Y7.125 Z-0.400 F1500
G1 X27.336 Y7.196 Z-0.400 F1500
G1 X27.336 Y7.514 Z-0.400 F1500
G1 X27.336 Y7.584 Z-0.392 F1500
G1 X27.336 Y7.651 Z-0.369 F1500
G1 X27.336 Y7.712 Z-0.331 F1500
G1 X27.336 Y7.762 Z-0.280 F1500
G1 X27.336 Y7.800 Z-0.220 F1500
G1 X27.336 Y7.823 Z-0.153 F1500
G1 X27.336 Y7.831 Z-0.083 F1500
G1 X27.336 Y7.831 Z2.000 F200
G1 X26.701 Y7.831 Z2.000 F200
G1 X26.701 Y7.831 Z1.000 F200
G1 X26.701 Y7.831 Z0.235 F200
G1 X26.701 Y7.831 Z-0.183 F200
G1 X26.701 Y7.823 Z-0.253 F200
G1 X26.701 Y7.800 Z-0.320 F200
G1 X26.701 Y7.762 Z-0.380 F200
G1 X26.701 Y7.712 Z-0.431 F200
G1 X26.701 Y7.651 Z-0.469 F200
G1 X26.701 Y7.584 Z-0.492 F200
G1 X26.701 Y7.514 Z-0.500 F200
G1 X26.701 Y7.196 Z-0.500 F200
G1 X26.709 Y7.125 Z-0.500 F200
G1 X26.733 Y7.058 Z-0.500 F200
G1 X26.770 Y6.998 Z-0.500 F200
G1 X26.821 Y6.948 Z-0.500 F200
G1 X26.881 Y6.910 Z-0.500 F200
G1 X26.948 Y6.887 Z-0.500 F200
G1 X27.019 Y6.879 Z-0.500 F200
G1 X29.419 Y6.879 Z-0.500 F200
G1 X29.524 Y6.886 Z-0.500 F200
G1 X29.627 Y6.909 Z-0.500 F200
G1 X29.726 Y6.946 Z-0.500 F200
G1 X29.819 Y6.996 Z-0.500 F200
G1 X29.904 Y7.060 Z-0.500 F200
G1 X29.978 Y7.134 Z-0.500 F200
G1 X30.042 Y7.219 Z-0.500 F200
G1 X30.092 Y7.312 Z-0.500 F200
G1 X30.129 Y7.411 Z-0.500 F200
G1 X30.152 Y7.514 Z-0.500 F200
G1 X30.159 Y7.619 Z-0.500 F200
G1 X30.159 Y8.889 Z-0.500 F200
G1 X30.152 Y8.995 Z-0.500 F200
G1 X30.129 Y9.098 Z-0.500 F200
G1 X30.092 Y9.197 Z-0.500 F200
G1 X30.042 Y9.290 Z-0.500 F200
G1 X29.978 Y9.374 Z-0.500 F200
G1 X29.904 Y9.449 Z-0.500 F200
G1 X29.819 Y9.512 Z-0.500 F200
G1 X29.726 Y9.563 Z-0.500 F200
G1 X29.627 Y9.600 Z-0.500 F200
G1 X29.524 Y9.622 Z-0.500 F200
G1 X29.419 Y9.630 Z-0.500 F200
G1 X27.019 Y9.630 Z-0.500 F200
G1 X26.851 Y9.638 Z-0.500 F200
G1 X26.686 Y9.661 Z-0.500 F200
G1 X26.523 Y9.700 Z-0.500 F200
G1 X26.364 Y9.753 Z-0.500 F200
G1 X26.211 Y9.821 Z-0.500 F200
G1 X26.065 Y9.903 Z-0.500 F200
G1 X25.927 Y9.999 Z-0.500 F200
G1 X25.799 Y10.107 Z-0.500 F200
G1 X25.681 Y10.226 Z-0.500 F200
G1 X25.575 Y10.355 Z-0.500 F200
G1 X25.481 Y10.494 Z-0.500 F200
G1 X25.401 Y10.641 Z-0.500 F200
G1 X25.335 Y10.795 Z-0.500 F200
G1 X25.283 Y10.955 Z-0.500 F200
G1 X25.247 Y11.118 Z-0.500 F200
G1 X25.225 Y11.284 Z-0.500 F200
G1 X25.220 Y11.452 Z-0.500 F200
G1 X25.230 Y11.619 Z-0.500 F200
G1 X25.255 Y11.785 Z-0.500 F200
G1 X25.296 Y11.947 Z-0.500 F200
G1 X25.352 Y12.105 Z-0.500 F200
G1 X25.422 Y12.257 Z-0.500 F200
G1 X25.506 Y12.402 Z-0.500 F200
G1 X25.602 Y12.565 Z-0.500 F200
G1 X25.687 Y12.734 Z-0.500 F200
G1 X25.759 Y12.908 Z-0.500 F200
G1 X25.819 Y13.088 Z-0.500 F200
G1 X25.866 Y13.271 Z-0.500 F200
G1 X25.899 Y13.457 Z-0.500 F200
G1 X25.920 Y13.645 Z-0.500 F200
G1 X25.926 Y13.834 Z-0.500 F200
G1 X25.926 Y14.604 Z-0.500 F200
G1 X25.934 Y14.794 Z-0.500 F200
G1 X25.956 Y14.984 Z-0.500 F200
G1 X25.994 Y15.172 Z-0.500 F200
G1 X26.046 Y15.356 Z-0.500 F200
G1 X26.112 Y15.535 Z-0.500 F200
G1 X26.192 Y15.709 Z-0.500 F200
G1 X26.285 Y15.875 Z-0.500 F200
G1 X26.391 Y16.034 Z-0.500 F200
G1 X26.510 Y16.184 Z-0.500 F200
G1 X26.639 Y16.325 Z-0.500 F200
G1 X26.780 Y16.454 Z-0.500 F200
G1 X26.930 Y16.573 Z-0.500 F200
G1 X27.089 Y16.679 Z-0.500 F200
G1 X27.255 Y16.772 Z-0.500 F200
G1 X27.429 Y16.852 Z-0.500 F200
G1 X27.608 Y16.918 Z-0.500 F200
G1 X27.792 Y16.970 Z-0.500 F200
G1 X27.980 Y17.008 Z-0.500 F200
G1 X28.170 Y17.030 Z-0.500 F200
G1 X28.361 Y17.038 Z-0.500 F200
G1 X35.133 Y17.038 Z-0.500 F200
G1 X35.324 Y17.030 Z-0.500 F200
G1 X35.514 Y17.008 Z-0.500 F200
G1 X35.701 Y16.970 Z-0.500 F200
G1 X35.885 Y16.918 Z-0.500 F200
G1 X36.065 Y16.852 Z-0.500 F200
G1 X36.238 Y16.772 Z-0.500 F200
G1 X36.405 Y16.679 Z-0.500 F200
G1 X36.564 Y16.573 Z-0.500 F200
G1 X36.714 Y16.454 Z-0.500 F200
G1 X36.854 Y16.325 Z-0.500 F200
G1 X36.984 Y16.184 Z-0.500 F200
G1 X37.102 Y16.034 Z-0.500 F200
G1 X37.209 Y15.875 Z-0.500 F200
G1 X37.302 Y15.709 Z-0.500 F200
G1 X37.382 Y15.535 Z-0.500 F200
G1 X37.448 Y15.356 Z-0.500 F200
G1 X37.500 Y15.172 Z-0.500 F200
G1 X37.537 Y14.984 Z-0.500 F200
G1 X37.560 Y14.794 Z-0.500 F200
G1 X37.567 Y14.603 Z-0.500 F200
G1 X37.567 Y1.905 Z-0.500 F200
G1 X37.560 Y1.714 Z-0.500 F200
G1 X37.537 Y1.524 Z-0.500 F200
G1 X37.500 Y1.337 Z-0.500 F200
G1 X37.448 Y1.153 Z-0.500 F200
G1 X37.382 Y0.973 Z-0.500 F200
G1 X37.302 Y0.800 Z-0.500 F200
G1 X37.209 Y0.633 Z-0.500 F200
G1 X37.102 Y0.474 Z-0.500 F200
G1 X36.984 Y0.324 Z-0.500 F200
G1 X36.854 Y0.184 Z-0.500 F200
G1 X36.714 Y0.054 Z-0.500 F200
G1 X36.564 Y-0.064 Z-0.500 F200
G1 X36.405 Y-0.171 Z-0.500 F200
G1 X36.238 Y-0.264 Z-0.500 F200
G1 X36.065 Y-0.344 Z-0.500 F200
G1 X35.885 Y-0.410 Z-0.500 F200
G1 X35.701 Y-0.462 Z-0.500 F200
G1 X35.514 Y-0.499 Z-0.500 F200
G1 X35.324 Y-0.522 Z-0.500 F200
G1 X35.133 Y-0.529 Z-0.500 F200
G1 X1.905 Y-0.529 Z-0.500 F200
G1 X1.714 Y-0.522 Z-0.500 F200
G1 X1.524 Y-0.499 Z-0.500 F200
G1 X1.337 Y-0.462 Z-0.500 F200
G1 X1.153 Y-0.410 Z-0.500 F200
G1 X0.973 Y-0.344 Z-0.500 F200
G1 X0.800 Y-0.264 Z-0.500 F200
G1 X0.633 Y-0.171 Z-0.500 F200
G1 X0.474 Y-0.064 Z-0.500 F200
G1 X0.324 Y0.054 Z-0.500 F200
G1 X0.184 Y0.184 Z-0.500 F200
G1 X0.054 Y0.324 Z-0.500 F200
G1 X-0.064 Y0.474 Z-0.500 F200
G1 X-0.171 Y0.633 Z-0.500 F200
G1 X-0.264 Y0.800 Z-0.500 F200
G1 X-0.344 Y0.973 Z-0.500 F200
G1 X-0.410 Y1.153 Z-0.500 F200
G1 X-0.462 Y1.337 Z-0.500 F200
G1 X-0.499 Y1.524 Z-0.500 F200
G1 X-0.522 Y1.714 Z-0.500 F200
G1 X-0.529 Y1.905 Z-0.500 F200
G1 X-0.529 Y4.445 Z-0.500 F200
G1 X-0.522 Y4.636 Z-0.500 F200
G1 X-0.499 Y4.825 Z-0.500 F200
G1 X-0.462 Y5.013 Z-0.500 F200
G1 X-0.410 Y5.197 Z-0.500 F200
G1 X-0.344 Y5.376 Z-0.500 F200
G1 X-0.264 Y5.550 Z-0.500 F200
G1 X-0.171 Y5.716 Z-0.500 F200
G1 X-0.064 Y5.875 Z-0.500 F200
G1 X0.054 Y6.025 Z-0.500 F200
G1 X0.184 Y6.166 Z-0.500 F200
G1 X0.324 Y6.295 Z-0.500 F200
G1 X0.474 Y6.414 Z-0.500 F200
G1 X0.633 Y6.520 Z-0.500 F200
G1 X0.800 Y6.613 Z-0.500 F200
G1 X0.973 Y6.693 Z-0.500 F200
G1 X1.153 Y6.760 Z-0.500 F200
G1 X1.337 Y6.811 Z-0.500 F200
G1 X1.524 Y6.849 Z-0.500 F200
G1 X1.714 Y6.871 Z-0.500 F200
G1 X1.905 Y6.879 Z-0.500 F200
G1 X27.019 Y6.879 Z-0.500 F200
G1 X27.089 Y6.887 Z-0.500 F1500
G1 X27.156 Y6.910 Z-0.500 F1500
G1 X27.217 Y6.948 Z-0.500 F1500
G1 X27.267 Y6.998 Z-0.500 F1500
G1 X27.305 Y7.058 Z-0.500 F1500
G1 X27.328 Y7.125 Z-0.500 F1500
G1 X27.336 Y7.196 Z-0.500 F1500
G1 X27.336 Y7.514 Z-0.500 F1500
G1 X27.336 Y7.584 Z-0.492 F1500
G1 X27.336 Y7.651 Z-0.469 F1500
G1 X27.336 Y7.712 Z-0.431 F1500
G1 X27.336 Y7.762 Z-0.380 F1500
G1 X27.336 Y7.800 Z-0.320 F1500
G1 X27.336 Y7.823 Z-0.253 F1500
G1 X27.336 Y7.831 Z-0.183 F1500
G1 X27.336 Y7.831 Z2.000 F200
G1 X26.701 Y7.831 Z2.000 F200
G1 X26.701 Y7.831 Z1.000 F200
G1 X26.701 Y7.831 Z0.135 F200
G1 X26.701 Y7.831 Z-0.283 F200
G1 X26.701 Y7.823 Z-0.353 F200
G1 X26.701 Y7.800 Z-0.420 F200
G1 X26.701 Y7.762 Z-0.480 F200
G1 X26.701 Y7.712 Z-0.531 F200
G1 X26.701 Y7.651 Z-0.569 F200
G1 X26.701 Y7.584 Z-0.592 F200
G1 X26.701 Y7.514 Z-0.600 F200
G1 X26.701 Y7.196 Z-0.600 F200
G1 X26.709 Y7.125 Z-0.600 F200
G1 X26.733 Y7.058 Z-0.600 F200
G1 X26.770 Y6.998 Z-0.600 F200
G1 X26.821 Y6.948 Z-0.600 F200
G1 X26.881 Y6.910 Z-0.600 F200
G1 X26.948 Y6.887 Z-0.600 F200
G1 X27.019 Y6.879 Z-0.600 F200
G1 X29.419 Y6.879 Z-0.600 F200
G1 X29.524 Y6.886 Z-0.600 F200
G1 X29.627 Y6.909 Z-0.600 F200
G1 X29.726 Y6.946 Z-0.600 F200
G1 X29.819 Y6.996 Z-0.600 F200
G1 X29.904 Y7.060 Z-0.600 F200
G1 X29.978 Y7.134 Z-0.600 F200
G1 X30.042 Y7.219 Z-0.600 F200
G1 X30.092 Y7.312 Z-0.600 F200
G1 X30.129 Y7.411 Z-0.600 F200
G1 X30.152 Y7.514 Z-0.600 F200
G1 X30.159 Y7.619 Z-0.600 F200
G1 X30.159 Y8.889 Z-0.600 F200
G1 X30.152 Y8.995 Z-0.600 F200
G1 X30.129 Y9.098 Z-0.600 F200
G1 X30.092 Y9.197 Z-0.600 F200
G1 X30.042 Y9.290 Z-0.600 F200
G1 X29.978 Y9.374 Z-0.600 F200
G1 X29.904 Y9.449 Z-0.600 F200
G1 X29.819 Y9.512 Z-0.600 F200
G1 X29.726 Y9.563 Z-0.600 F200
G1 X29.627 Y9.600 Z-0.600 F200
G1 X29.524 Y9.622 Z-0.600 F200
G1 X29.419 Y9.630 Z-0.600 F200
G1 X27.019 Y9.630 Z-0.600 F200
G1 X26.851 Y9.638 Z-0.600 F200
G1 X26.686 Y9.661 Z-0.600 F200
G1 X26.523 Y9.700 Z-0.600 F200
G1 X26.364 Y9.753 Z-0.600 F200
G1 X26.211 Y9.821 Z-0.600 F200
G1 X26.065 Y9.903 Z-0.600 F200
G1 X25.927 Y9.999 Z-0.600 F200
G1 X25.799 Y10.107 Z-0.600 F200
G1 X25.681 Y10.226 Z-0.600 F200
G1 X25.575 Y10.355 Z-0.600 F200
G1 X25.481 Y10.494 Z-0.600 F200
G1 X25.401 Y10.641 Z-0.600 F200
G1 X25.335 Y10.795 Z-0.600 F200
G1 X25.283 Y10.955 Z-0.600 F200
G1 X25.247 Y11.118 Z-0.600 F200
G1 X25.225 Y11.284 Z-0.600 F200
G1 X25.220 Y11.452 Z-0.600 F200
G1 X25.230 Y11.619 Z-0.600 F200
G1 X25.255 Y11.785 Z-0.600 F200
G1 X25.296 Y11.947 Z-0.600 F200
G1 X25.352 Y12.105 Z-0.600 F200
G1 X25.422 Y12.257 Z-0.600 F200
G1 X25.506 Y12.402 Z-0.600 F200
G1 X25.602 Y12.565 Z-0.600 F200
G1 X25.687 Y12.734 Z-0.600 F200
G1 X25.759 Y12.908 Z-0.600 F200
G1 X25.819 Y13.088 Z-0.600 F200
G1 X25.866 Y13.271 Z-0.600 F200
G1 X25.899 Y13.457 Z-0.600 F200
G1 X25.920 Y13.645 Z-0.600 F200
G1 X25.926 Y13.834 Z-0.600 F200
G1 X25.926 Y14.604 Z-0.600 F200
G1 X25.934 Y14.794 Z-0.600 F200
G1 X25.956 Y14.984 Z-0.600 F200
G1 X25.994 Y15.172 Z-0.600 F200
G1 X26.046 Y15.356 Z-0.600 F200
G1 X26.112 Y15.535 Z-0.600 F200
G1 X26.192 Y15.709 Z-0.600 F200
G1 X26.285 Y15.875 Z-0.600 F200
G1 X26.391 Y16.034 Z-0.600 F200
G1 X26.510 Y16.184 Z-0.600 F200
G1 X26.639 Y16.325 Z-0.600 F200
G1 X26.780 Y16.454 Z-0.600 F200
G1 X26.930 Y16.573 Z-0.600 F200
G1 X27.089 Y16.679 Z-0.600 F200
G1 X27.255 Y16.772 Z-0.600 F200
G1 X27.429 Y16.852 Z-0.600 F200
G1 X27.608 Y16.918 Z-0.600 F200
G1 X27.792 Y16.970 Z-0.600 F200
G1 X27.980 Y17.008 Z-0.600 F200
G1 X28.170 Y17.030 Z-0.600 F200
G1 X28.361 Y17.038 Z-0.600 F200
G1 X35.133 Y17.038 Z-0.600 F200
G1 X35.324 Y17.030 Z-0.600 F200
G1 X35.514 Y17.008 Z-0.600 F200
G1 X35.701 Y16.970 Z-0.600 F200
G1 X35.885 Y16.918 Z-0.600 F200
G1 X36.065 Y16.852 Z-0.600 F200
G1 X36.238 Y16.772 Z-0.600 F200
G1 X36.405 Y16.679 Z-0.600 F200
G1 X36.564 Y16.573 Z-0.600 F200
G1 X36.714 Y16.454 Z-0.600 F200
G1 X36.854 Y16.325 Z-0.600 F200
G1 X36.984 Y16.184 Z-0.600 F200
G1 X37.102 Y16.034 Z-0.600 F200
G1 X37.209 Y15.875 Z-0.600 F200
G1 X37.302 Y15.709 Z-0.600 F200
G1 X37.382 Y15.535 Z-0.600 F200
G1 X37.448 Y15.356 Z-0.600 F200
G1 X37.500 Y15.172 Z-0.600 F200
G1 X37.537 Y14.984 Z-0.600 F200
G1 X37.560 Y14.794 Z-0.600 F200
G1 X37.567 Y14.603 Z-0.600 F200
G1 X37.567 Y1.905 Z-0.600 F200
G1 X37.560 Y1.714 Z-0.600 F200
G1 X37.537 Y1.524 Z-0.600 F200
G1 X37.500 Y1.337 Z-0.600 F200
G1 X37.448 Y1.153 Z-0.600 F200
G1 X37.382 Y0.973 Z-0.600 F200
G1 X37.302 Y0.800 Z-0.600 F200
G1 X37.209 Y0.633 Z-0.600 F200
G1 X37.102 Y0.474 Z-0.600 F200
G1 X36.984 Y0.324 Z-0.600 F200
G1 X36.854 Y0.184 Z-0.600 F200
G1 X36.714 Y0.054 Z-0.600 F200
G1 X36.564 Y-0.064 Z-0.600 F200
G1 X36.405 Y-0.171 Z-0.600 F200
G1 X36.238 Y-0.264 Z-0.600 F200
G1 X36.065 Y-0.344 Z-0.600 F200
G1 X35.885 Y-0.410 Z-0.600 F200
G1 X35.701 Y-0.462 Z-0.600 F200
G1 X35.514 Y-0.499 Z-0.600 F200
G1 X35.324 Y-0.522 Z-0.600 F200
G1 X35.133 Y-0.529 Z-0.600 F200
G1 X1.905 Y-0.529 Z-0.600 F200
G1 X1.714 Y-0.522 Z-0.600 F200
G1 X1.524 Y-0.499 Z-0.600 F200
G1 X1.337 Y-0.462 Z-0.600 F200
G1 X1.153 Y-0.410 Z-0.600 F200
G1 X0.973 Y-0.344 Z-0.600 F200
G1 X0.800 Y-0.264 Z-0.600 F200
G1 X0.633 Y-0.171 Z-0.600 F200
G1 X0.474 Y-0.064 Z-0.600 F200
G1 X0.324 Y0.054 Z-0.600 F200
G1 X0.184 Y0.184 Z-0.600 F200
G1 X0.054 Y0.324 Z-0.600 F200
G1 X-0.064 Y0.474 Z-0.600 F200
G1 X-0.171 Y0.633 Z-0.600 F200
G1 X-0.264 Y0.800 Z-0.600 F200
G1 X-0.344 Y0.973 Z-0.600 F200
G1 X-0.410 Y1.153 Z-0.600 F200
G1 X-0.462 Y1.337 Z-0.600 F200
G1 X-0.499 Y1.524 Z-0.600 F200
G1 X-0.522 Y1.714 Z-0.600 F200
G1 X-0.529 Y1.905 Z-0.600 F200
G1 X-0.529 Y4.445 Z-0.600 F200
G1 X-0.522 Y4.636 Z-0.600 F200
G1 X-0.499 Y4.825 Z-0.600 F200
G1 X-0.462 Y5.013 Z-0.600 F200
G1 X-0.410 Y5.197 Z-0.600 F200
G1 X-0.344 Y5.376 Z-0.600 F200
G1 X-0.264 Y5.550 Z-0.600 F200
G1 X-0.171 Y5.716 Z-0.600 F200
G1 X-0.064 Y5.875 Z-0.600 F200
G1 X0.054 Y6.025 Z-0.600 F200
G1 X0.184 Y6.166 Z-0.600 F200
G1 X0.324 Y6.295 Z-0.600 F200
G1 X0.474 Y6.414 Z-0.600 F200
G1 X0.633 Y6.520 Z-0.600 F200
G1 X0.800 Y6.613 Z-0.600 F200
G1 X0.973 Y6.693 Z-0.600 F200
G1 X1.153 Y6.760 Z-0.600 F200
G1 X1.337 Y6.811 Z-0.600 F200
G1 X1.524 Y6.849 Z-0.600 F200
G1 X1.714 Y6.871 Z-0.600 F200
G1 X1.905 Y6.879 Z-0.600 F200
G1 X27.019 Y6.879 Z-0.600 F200
G1 X27.089 Y6.887 Z-0.600 F1500
G1 X27.156 Y6.910 Z-0.600 F1500
G1 X27.217 Y6.948 Z-0.600 F1500
G1 X27.267 Y6.998 Z-0.600 F1500
G1 X27.305 Y7.058 Z-0.600 F1500
G1 X27.328 Y7.125 Z-0.600 F1500
G1 X27.336 Y7.196 Z-0.600 F1500
G1 X27.336 Y7.514 Z-0.600 F1500
G1 X27.336 Y7.584 Z-0.592 F1500
G1 X27.336 Y7.651 Z-0.569 F1500
G1 X27.336 Y7.712 Z-0.531 F1500
G1 X27.336 Y7.762 Z-0.480 F1500
G1 X27.336 Y7.800 Z-0.420 F1500
G1 X27.336 Y7.823 Z-0.353 F1500
G1 X27.336 Y7.831 Z-0.283 F1500
G1 X27.336 Y7.831 Z2.000 F200
G1 X26.701 Y7.831 Z2.000 F200
G1 X26.701 Y7.831 Z1.000 F200
G1 X26.701 Y7.831 Z0.035 F200
G1 X26.701 Y7.831 Z-0.383 F200
G1 X26.701 Y7.823 Z-0.453 F200
G1 X26.701 Y7.800 Z-0.520 F200
G1 X26.701 Y7.762 Z-0.580 F200
G1 X26.701 Y7.712 Z-0.631 F200
G1 X26.701 Y7.651 Z-0.669 F200
G1 X26.701 Y7.584 Z-0.692 F200
G1 X26.701 Y7.514 Z-0.700 F200
G1 X26.701 Y7.196 Z-0.700 F200
G1 X26.709 Y7.125 Z-0.700 F200
G1 X26.733 Y7.058 Z-0.700 F200
G1 X26.770 Y6.998 Z-0.700 F200
G1 X26.821 Y6.948 Z-0.700 F200
G1 X26.881 Y6.910 Z-0.700 F200
G1 X26.948 Y6.887 Z-0.700 F200
G1 X27.019 Y6.879 Z-0.700 F200
G1 X29.419 Y6.879 Z-0.700 F200
G1 X29.524 Y6.886 Z-0.700 F200
G1 X29.627 Y6.909 Z-0.700 F200
G1 X29.726 Y6.946 Z-0.700 F200
G1 X29.819 Y6.996 Z-0.700 F200
G1 X29.904 Y7.060 Z-0.700 F200
G1 X29.978 Y7.134 Z-0.700 F200
G1 X30.042 Y7.219 Z-0.700 F200
G1 X30.092 Y7.312 Z-0.700 F200
G1 X30.129 Y7.411 Z-0.700 F200
G1 X30.152 Y7.514 Z-0.700 F200
G1 X30.159 Y7.619 Z-0.700 F200
G1 X30.159 Y8.889 Z-0.700 F200
G1 X30.152 Y8.995 Z-0.700 F200
G1 X30.129 Y9.098 Z-0.700 F200
G1 X30.092 Y9.197 Z-0.700 F200
G1 X30.042 Y9.290 Z-0.700 F200
G1 X29.978 Y9.374 Z-0.700 F200
G1 X29.904 Y9.449 Z-0.700 F200
G1 X29.819 Y9.512 Z-0.700 F200
G1 X29.726 Y9.563 Z-0.700 F200
G1 X29.627 Y9.600 Z-0.700 F200
G1 X29.524 Y9.622 Z-0.700 F200
G1 X29.419 Y9.630 Z-0.700 F200
G1 X27.019 Y9.630 Z-0.700 F200
G1 X26.851 Y9.638 Z-0.700 F200
G1 X26.686 Y9.661 Z-0.700 F200
G1 X26.523 Y9.700 Z-0.700 F200
G1 X26.364 Y9.753 Z-0.700 F200
G1 X26.211 Y9.821 Z-0.700 F200
G1 X26.065 Y9.903 Z-0.700 F200
G1 X25.927 Y9.999 Z-0.700 F200
G1 X25.799 Y10.107 Z-0.700 F200
G1 X25.681 Y10.226 Z-0.700 F200
G1 X25.575 Y10.355 Z-0.700 F200
G1 X25.481 Y10.494 Z-0.700 F200
G1 X25.401 Y10.641 Z-0.700 F200
G1 X25.335 Y10.795 Z-0.700 F200
G1 X25.283 Y10.955 Z-0.700 F200
G1 X25.247 Y11.118 Z-0.700 F200
G1 X25.225 Y11.284 Z-0.700 F200
G1 X25.220 Y11.452 Z-0.700 F200
G1 X25.230 Y11.619 Z-0.700 F200
G1 X25.255 Y11.785 Z-0.700 F200
G1 X25.296 Y11.947 Z-0.700 F200
G1 X25.352 Y12.105 Z-0.700 F200
G1 X25.422 Y12.257 Z-0.700 F200
G1 X25.506 Y12.402 Z-0.700 F200
G1 X25.602 Y12.565 Z-0.700 F200
G1 X25.687 Y12.734 Z-0.700 F200
G1 X25.759 Y12.908 Z-0.700 F200
G1 X25.819 Y13.088 Z-0.700 F200
G1 X25.866 Y13.271 Z-0.700 F200
G1 X25.899 Y13.457 Z-0.700 F200
G1 X25.920 Y13.645 Z-0.700 F200
G1 X25.926 Y13.834 Z-0.700 F200
G1 X25.926 Y14.604 Z-0.700 F200
G1 X25.934 Y14.794 Z-0.700 F200
G1 X25.956 Y14.984 Z-0.700 F200
G1 X25.994 Y15.172 Z-0.700 F200
G1 X26.046 Y15.356 Z-0.700 F200
G1 X26.112 Y15.535 Z-0.700 F200
G1 X26.192 Y15.709 Z-0.700 F200
G1 X26.285 Y15.875 Z-0.700 F200
G1 X26.391 Y16.034 Z-0.700 F200
G1 X26.510 Y16.184 Z-0.700 F200
G1 X26.639 Y16.325 Z-0.700 F200
G1 X26.780 Y16.454 Z-0.700 F200
G1 X26.930 Y16.573 Z-0.700 F200
G1 X27.089 Y16.679 Z-0.700 F200
G1 X27.255 Y16.772 Z-0.700 F200
G1 X27.429 Y16.852 Z-0.700 F200
G1 X27.608 Y16.918 Z-0.700 F200
G1 X27.792 Y16.970 Z-0.700 F200
G1 X27.980 Y17.008 Z-0.700 F200
G1 X28.170 Y17.030 Z-0.700 F200
G1 X28.361 Y17.038 Z-0.700 F200
G1 X35.133 Y17.038 Z-0.700 F200
G1 X35.324 Y17.030 Z-0.700 F200
G1 X35.514 Y17.008 Z-0.700 F200
G1 X35.701 Y16.970 Z-0.700 F200
G1 X35.885 Y16.918 Z-0.700 F200
G1 X36.065 Y16.852 Z-0.700 F200
G1 X36.238 Y16.772 Z-0.700 F200
G1 X36.405 Y16.679 Z-0.700 F200
G1 X36.564 Y16.573 Z-0.700 F200
G1 X36.714 Y16.454 Z-0.700 F200
G1 X36.854 Y16.325 Z-0.700 F200
G1 X36.984 Y16.184 Z-0.700 F200
G1 X37.102 Y16.034 Z-0.700 F200
G1 X37.209 Y15.875 Z-0.700 F200
G1 X37.302 Y15.709 Z-0.700 F200
G1 X37.382 Y15.535 Z-0.700 F200
G1 X37.448 Y15.356 Z-0.700 F200
G1 X37.500 Y15.172 Z-0.700 F200
G1 X37.537 Y14.984 Z-0.700 F200
G1 X37.560 Y14.794 Z-0.700 F200
G1 X37.567 Y14.603 Z-0.700 F200
G1 X37.567 Y1.905 Z-0.700 F200
G1 X37.560 Y1.714 Z-0.700 F200
G1 X37.537 Y1.524 Z-0.700 F200
G1 X37.500 Y1.337 Z-0.700 F200
G1 X37.448 Y1.153 Z-0.700 F200
G1 X37.382 Y0.973 Z-0.700 F200
G1 X37.302 Y0.800 Z-0.700 F200
G1 X37.209 Y0.633 Z-0.700 F200
G1 X37.102 Y0.474 Z-0.700 F200
G1 X36.984 Y0.324 Z-0.700 F200
G1 X36.854 Y0.184 Z-0.700 F200
G1 X36.714 Y0.054 Z-0.700 F200
G1 X36.564 Y-0.064 Z-0.700 F200
G1 X36.405 Y-0.171 Z-0.700 F200
G1 X36.238 Y-0.264 Z-0.700 F200
G1 X36.065 Y-0.344 Z-0.700 F200
G1 X35.885 Y-0.410 Z-0.700 F200
G1 X35.701 Y-0.462 Z-0.700 F200
G1 X35.514 Y-0.499 Z-0.700 F200
G1 X35.324 Y-0.522 Z-0.700 F200
G1 X35.133 Y-0.529 Z-0.700 F200
G1 X1.905 Y-0.529 Z-0.700 F200
G1 X1.714 Y-0.522 Z-0.700 F200
G1 X1.524 Y-0.499 Z-0.700 F200
G1 X1.337 Y-0.462 Z-0.700 F200
G1 X1.153 Y-0.410 Z-0.700 F200
G1 X0.973 Y-0.344 Z-0.700 F200
G1 X0.800 Y-0.264 Z-0.700 F200
G1 X0.633 Y-0.171 Z-0.700 F200
G1 X0.474 Y-0.064 Z-0.700 F200
G1 X0.324 Y0.054 Z-0.700 F200
G1 X0.184 Y0.184 Z-0.700 F200
G1 X0.054 Y0.324 Z-0.700 F200
G1 X-0.064 Y0.474 Z-0.700 F200
G1 X-0.171 Y0.633 Z-0.700 F200
G1 X-0.264 Y0.800 Z-0.700 F200
G1 X-0.344 Y0.973 Z-0.700 F200
G1 X-0.410 Y1.153 Z-0.700 F200
G1 X-0.462 Y1.337 Z-0.700 F200
G1 X-0.499 Y1.524 Z-0.700 F200
G1 X-0.522 Y1.714 Z-0.700 F200
G1 X-0.529 Y1.905 Z-0.700 F200
G1 X-0.529 Y4.445 Z-0.700 F200
G1 X-0.522 Y4.636 Z-0.700 F200
G1 X-0.499 Y4.825 Z-0.700 F200
G1 X-0.462 Y5.013 Z-0.700 F200
G1 X-0.410 Y5.197 Z-0.700 F200
G1 X-0.344 Y5.376 Z-0.700 F200
G1 X-0.264 Y5.550 Z-0.700 F200
G1 X-0.171 Y5.716 Z-0.700 F200
G1 X-0.064 Y5.875 Z-0.700 F200
G1 X0.054 Y6.025 Z-0.700 F200
G1 X0.184 Y6.166 Z-0.700 F200
G1 X0.324 Y6.295 Z-0.700 F200
G1 X0.474 Y6.414 Z-0.700 F200
G1 X0.633 Y6.520 Z-0.700 F200
G1 X0.800 Y6.613 Z-0.700 F200
G1 X0.973 Y6.693 Z-0.700 F200
G1 X1.153 Y6.760 Z-0.700 F200
G1 X1.337 Y6.811 Z-0.700 F200
G1 X1.524 Y6.849 Z-0.700 F200
G1 X1.714 Y6.871 Z-0.700 F200
G1 X1.905 Y6.879 Z-0.700 F200
G1 X27.019 Y6.879 Z-0.700 F200
G1 X27.089 Y6.887 Z-0.700 F1500
G1 X27.156 Y6.910 Z-0.700 F1500
G1 X27.217 Y6.948 Z-0.700 F1500
G1 X27.267 Y6.998 Z-0.700 F1500
G1 X27.305 Y7.058 Z-0.700 F1500
G1 X27.328 Y7.125 Z-0.700 F1500
G1 X27.336 Y7.196 Z-0.700 F1500
G1 X27.336 Y7.514 Z-0.700 F1500
G1 X27.336 Y7.584 Z-0.692 F1500
G1 X27.336 Y7.651 Z-0.669 F1500
G1 X27.336 Y7.712 Z-0.631 F1500
G1 X27.336 Y7.762 Z-0.580 F1500
G1 X27.336 Y7.800 Z-0.520 F1500
G1 X27.336 Y7.823 Z-0.453 F1500
G1 X27.336 Y7.831 Z-0.383 F1500
G1 X27.336 Y7.831 Z2.000 F200
G1 X26.701 Y7.831 Z2.000 F200
G1 X26.701 Y7.831 Z1.000 F200
G1 X26.701 Y7.831 Z-0.065 F200
G1 X26.701 Y7.831 Z-0.483 F200
G1 X26.701 Y7.823 Z-0.553 F200
G1 X26.701 Y7.800 Z-0.620 F200
G1 X26.701 Y7.762 Z-0.680 F200
G1 X26.701 Y7.712 Z-0.731 F200
G1 X26.701 Y7.651 Z-0.769 F200
G1 X26.701 Y7.584 Z-0.792 F200
G1 X26.701 Y7.514 Z-0.800 F200
G1 X26.701 Y7.196 Z-0.800 F200
G1 X26.709 Y7.125 Z-0.800 F200
G1 X26.733 Y7.058 Z-0.800 F200
G1 X26.770 Y6.998 Z-0.800 F200
G1 X26.821 Y6.948 Z-0.800 F200
G1 X26.881 Y6.910 Z-0.800 F200
G1 X26.948 Y6.887 Z-0.800 F200
G1 X27.019 Y6.879 Z-0.800 F200
G1 X29.419 Y6.879 Z-0.800 F200
G1 X29.524 Y6.886 Z-0.800 F200
G1 X29.627 Y6.909 Z-0.800 F200
G1 X29.726 Y6.946 Z-0.800 F200
G1 X29.819 Y6.996 Z-0.800 F200
G1 X29.904 Y7.060 Z-0.800 F200
G1 X29.978 Y7.134 Z-0.800 F200
G1 X30.042 Y7.219 Z-0.800 F200
G1 X30.092 Y7.312 Z-0.800 F200
G1 X30.129 Y7.411 Z-0.800 F200
G1 X30.152 Y7.514 Z-0.800 F200
G1 X30.159 Y7.619 Z-0.800 F200
G1 X30.159 Y8.889 Z-0.800 F200
G1 X30.152 Y8.995 Z-0.800 F200
G1 X30.129 Y9.098 Z-0.800 F200
G1 X30.092 Y9.197 Z-0.800 F200
G1 X30.042 Y9.290 Z-0.800 F200
G1 X29.978 Y9.374 Z-0.800 F200
G1 X29.904 Y9.449 Z-0.800 F200
G1 X29.819 Y9.512 Z-0.800 F200
G1 X29.726 Y9.563 Z-0.800 F200
G1 X29.627 Y9.600 Z-0.800 F200
G1 X29.524 Y9.622 Z-0.800 F200
G1 X29.419 Y9.630 Z-0.800 F200
G1 X27.019 Y9.630 Z-0.800 F200
G1 X26.851 Y9.638 Z-0.800 F200
G1 X26.686 Y9.661 Z-0.800 F200
G1 X26.523 Y9.700 Z-0.800 F200
G1 X26.364 Y9.753 Z-0.800 F200
G1 X26.211 Y9.821 Z-0.800 F200
G1 X26.065 Y9.903 Z-0.800 F200
G1 X25.927 Y9.999 Z-0.800 F200
G1 X25.799 Y10.107 Z-0.800 F200
G1 X25.681 Y10.226 Z-0.800 F200
G1 X25.575 Y10.355 Z-0.800 F200
G1 X25.481 Y10.494 Z-0.800 F200
G1 X25.401 Y10.641 Z-0.800 F200
G1 X25.335 Y10.795 Z-0.800 F200
G1 X25.283 Y10.955 Z-0.800 F200
G1 X25.247 Y11.118 Z-0.800 F200
G1 X25.225 Y11.284 Z-0.800 F200
G1 X25.220 Y11.452 Z-0.800 F200
G1 X25.230 Y11.619 Z-0.800 F200
G1 X25.255 Y11.785 Z-0.800 F200
G1 X25.296 Y11.947 Z-0.800 F200
G1 X25.352 Y12.105 Z-0.800 F200
G1 X25.422 Y12.257 Z-0.800 F200
G1 X25.506 Y12.402 Z-0.800 F200
G1 X25.602 Y12.565 Z-0.800 F200
G1 X25.687 Y12.734 Z-0.800 F200
G1 X25.759 Y12.908 Z-0.800 F200
G1 X25.819 Y13.088 Z-0.800 F200
G1 X25.866 Y13.271 Z-0.800 F200
G1 X25.899 Y13.457 Z-0.800 F200
G1 X25.920 Y13.645 Z-0.800 F200
G1 X25.926 Y13.834 Z-0.800 F200
G1 X25.926 Y14.604 Z-0.800 F200
G1 X25.934 Y14.794 Z-0.800 F200
G1 X25.956 Y14.984 Z-0.800 F200
G1 X25.994 Y15.172 Z-0.800 F200
G1 X26.046 Y15.356 Z-0.800 F200
G1 X26.112 Y15.535 Z-0.800 F200
G1 X26.192 Y15.709 Z-0.800 F200
G1 X26.285 Y15.875 Z-0.800 F200
G1 X26.391 Y16.034 Z-0.800 F200
G1 X26.510 Y16.184 Z-0.800 F200
G1 X26.639 Y16.325 Z-0.800 F200
G1 X26.780 Y16.454 Z-0.800 F200
G1 X26.930 Y16.573 Z-0.800 F200
G1 X27.089 Y16.679 Z-0.800 F200
G1 X27.255 Y16.772 Z-0.800 F200
G1 X27.429 Y16.852 Z-0.800 F200
G1 X27.608 Y16.918 Z-0.800 F200
G1 X27.792 Y16.970 Z-0.800 F200
G1 X27.980 Y17.008 Z-0.800 F200
G1 X28.170 Y17.030 Z-0.800 F200
G1 X28.361 Y17.038 Z-0.800 F200
G1 X35.133 Y17.038 Z-0.800 F200
G1 X35.324 Y17.030 Z-0.800 F200
G1 X35.514 Y17.008 Z-0.800 F200
G1 X35.701 Y16.970 Z-0.800 F200
G1 X35.885 Y16.918 Z-0.800 F200
G1 X36.065 Y16.852 Z-0.800 F200
G1 X36.238 Y16.772 Z-0.800 F200
G1 X36.405 Y16.679 Z-0.800 F200
G1 X36.564 Y16.573 Z-0.800 F200
G1 X36.714 Y16.454 Z-0.800 F200
G1 X36.854 Y16.325 Z-0.800 F200
G1 X36.984 Y16.184 Z-0.800 F200
G1 X37.102 Y16.034 Z-0.800 F200
G1 X37.209 Y15.875 Z-0.800 F200
G1 X37.302 Y15.709 Z-0.800 F200
G1 X37.382 Y15.535 Z-0.800 F200
G1 X37.448 Y15.356 Z-0.800 F200
G1 X37.500 Y15.172 Z-0.800 F200
G1 X37.537 Y14.984 Z-0.800 F200
G1 X37.560 Y14.794 Z-0.800 F200
G1 X37.567 Y14.603 Z-0.800 F200
G1 X37.567 Y1.905 Z-0.800 F200
G1 X37.560 Y1.714 Z-0.800 F200
G1 X37.537 Y1.524 Z-0.800 F200
G1 X37.500 Y1.337 Z-0.800 F200
G1 X37.448 Y1.153 Z-0.800 F200
G1 X37.382 Y0.973 Z-0.800 F200
G1 X37.302 Y0.800 Z-0.800 F200
G1 X37.209 Y0.633 Z-0.800 F200
G1 X37.102 Y0.474 Z-0.800 F200
G1 X36.984 Y0.324 Z-0.800 F200
G1 X36.854 Y0.184 Z-0.800 F200
G1 X36.714 Y0.054 Z-0.800 F200
G1 X36.564 Y-0.064 Z-0.800 F200
G1 X36.405 Y-0.171 Z-0.800 F200
G1 X36.238 Y-0.264 Z-0.800 F200
G1 X36.065 Y-0.344 Z-0.800 F200
G1 X35.885 Y-0.410 Z-0.800 F200
G1 X35.701 Y-0.462 Z-0.800 F200
G1 X35.514 Y-0.499 Z-0.800 F200
G1 X35.324 Y-0.522 Z-0.800 F200
G1 X35.133 Y-0.529 Z-0.800 F200
G1 X1.905 Y-0.529 Z-0.800 F200
G1 X1.714 Y-0.522 Z-0.800 F200
G1 X1.524 Y-0.499 Z-0.800 F200
G1 X1.337 Y-0.462 Z-0.800 F200
G1 X1.153 Y-0.410 Z-0.800 F200
G1 X0.973 Y-0.344 Z-0.800 F200
G1 X0.800 Y-0.264 Z-0.800 F200
G1 X0.633 Y-0.171 Z-0.800 F200
G1 X0.474 Y-0.064 Z-0.800 F200
G1 X0.324 Y0.054 Z-0.800 F200
G1 X0.184 Y0.184 Z-0.800 F200
G1 X0.054 Y0.324 Z-0.800 F200
G1 X-0.064 Y0.474 Z-0.800 F200
G1 X-0.171 Y0.633 Z-0.800 F200
G1 X-0.264 Y0.800 Z-0.800 F200
G1 X-0.344 Y0.973 Z-0.800 F200
G1 X-0.410 Y1.153 Z-0.800 F200
G1 X-0.462 Y1.337 Z-0.800 F200
G1 X-0.499 Y1.524 Z-0.800 F200
G1 X-0.522 Y1.714 Z-0.800 F200
G1 X-0.529 Y1.905 Z-0.800 F200
G1 X-0.529 Y4.445 Z-0.800 F200
G1 X-0.522 Y4.636 Z-0.800 F200
G1 X-0.499 Y4.825 Z-0.800 F200
G1 X-0.462 Y5.013 Z-0.800 F200
G1 X-0.410 Y5.197 Z-0.800 F200
G1 X-0.344 Y5.376 Z-0.800 F200
G1 X-0.264 Y5.550 Z-0.800 F200
G1 X-0.171 Y5.716 Z-0.800 F200
G1 X-0.064 Y5.875 Z-0.800 F200
G1 X0.054 Y6.025 Z-0.800 F200
G1 X0.184 Y6.166 Z-0.800 F200
G1 X0.324 Y6.295 Z-0.800 F200
G1 X0.474 Y6.414 Z-0.800 F200
G1 X0.633 Y6.520 Z-0.800 F200
G1 X0.800 Y6.613 Z-0.800 F200
G1 X0.973 Y6.693 Z-0.800 F200
G1 X1.153 Y6.760 Z-0.800 F200
G1 X1.337 Y6.811 Z-0.800 F200
G1 X1.524 Y6.849 Z-0.800 F200
G1 X1.714 Y6.871 Z-0.800 F200
G1 X1.905 Y6.879 Z-0.800 F200
G1 X27.019 Y6.879 Z-0.800 F200
G1 X27.089 Y6.887 Z-0.800 F1500
G1 X27.156 Y6.910 Z-0.800 F1500
G1 X27.217 Y6.948 Z-0.800 F1500
G1 X27.267 Y6.998 Z-0.800 F1500
G1 X27.305 Y7.058 Z-0.800 F1500
G1 X27.328 Y7.125 Z-0.800 F1500
G1 X27.336 Y7.196 Z-0.800 F1500
G1 X27.336 Y7.514 Z-0.800 F1500
G1 X27.336 Y7.584 Z-0.792 F1500
G1 X27.336 Y7.651 Z-0.769 F1500
G1 X27.336 Y7.712 Z-0.731 F1500
G1 X27.336 Y7.762 Z-0.680 F1500
G1 X27.336 Y7.800 Z-0.620 F1500
G1 X27.336 Y7.823 Z-0.553 F1500
G1 X27.336 Y7.831 Z-0.483 F1500
G1 X27.336 Y7.831 Z2.000 F200
G1 X26.701 Y7.831 Z2.000 F200
G1 X26.701 Y7.831 Z1.000 F200
G1 X26.701 Y7.831 Z-0.165 F200
G1 X26.701 Y7.831 Z-0.583 F200
G1 X26.701 Y7.823 Z-0.653 F200
G1 X26.701 Y7.800 Z-0.720 F200
G1 X26.701 Y7.762 Z-0.780 F200
G1 X26.701 Y7.712 Z-0.831 F200
G1 X26.701 Y7.651 Z-0.869 F200
G1 X26.701 Y7.584 Z-0.892 F200
G1 X26.701 Y7.514 Z-0.900 F200
G1 X26.701 Y7.196 Z-0.900 F200
G1 X26.709 Y7.125 Z-0.900 F200
G1 X26.733 Y7.058 Z-0.900 F200
G1 X26.770 Y6.998 Z-0.900 F200
G1 X26.821 Y6.948 Z-0.900 F200
G1 X26.881 Y6.910 Z-0.900 F200
G1 X26.948 Y6.887 Z-0.900 F200
G1 X27.019 Y6.879 Z-0.900 F200
G1 X29.419 Y6.879 Z-0.900 F200
G1 X29.524 Y6.886 Z-0.900 F200
G1 X29.627 Y6.909 Z-0.900 F200
G1 X29.726 Y6.946 Z-0.900 F200
G1 X29.819 Y6.996 Z-0.900 F200
G1 X29.904 Y7.060 Z-0.900 F200
G1 X29.978 Y7.134 Z-0.900 F200
G1 X30.042 Y7.219 Z-0.900 F200
G1 X30.092 Y7.312 Z-0.900 F200
G1 X30.129 Y7.411 Z-0.900 F200
G1 X30.152 Y7.514 Z-0.900 F200
G1 X30.159 Y7.619 Z-0.900 F200
G1 X30.159 Y8.889 Z-0.900 F200
G1 X30.152 Y8.995 Z-0.900 F200
G1 X30.129 Y9.098 Z-0.900 F200
G1 X30.092 Y9.197 Z-0.900 F200
G1 X30.042 Y9.290 Z-0.900 F200
G1 X29.978 Y9.374 Z-0.900 F200
G1 X29.904 Y9.449 Z-0.900 F200
G1 X29.819 Y9.512 Z-0.900 F200
G1 X29.726 Y9.563 Z-0.900 F200
G1 X29.627 Y9.600 Z-0.900 F200
G1 X29.524 Y9.622 Z-0.900 F200
G1 X29.419 Y9.630 Z-0.900 F200
G1 X27.019 Y9.630 Z-0.900 F200
G1 X26.851 Y9.638 Z-0.900 F200
G1 X26.686 Y9.661 Z-0.900 F200
G1 X26.523 Y9.700 Z-0.900 F200
G1 X26.364 Y9.753 Z-0.900 F200
G1 X26.211 Y9.821 Z-0.900 F200
G1 X26.065 Y9.903 Z-0.900 F200
G1 X25.927 Y9.999 Z-0.900 F200
G1 X25.799 Y10.107 Z-0.900 F200
G1 X25.681 Y10.226 Z-0.900 F200
G1 X25.575 Y10.355 Z-0.900 F200
G1 X25.481 Y10.494 Z-0.900 F200
G1 X25.401 Y10.641 Z-0.900 F200
G1 X25.335 Y10.795 Z-0.900 F200
G1 X25.283 Y10.955 Z-0.900 F200
G1 X25.247 Y11.118 Z-0.900 F200
G1 X25.225 Y11.284 Z-0.900 F200
G1 X25.220 Y11.452 Z-0.900 F200
G1 X25.230 Y11.619 Z-0.900 F200
G1 X25.255 Y11.785 Z-0.900 F200
G1 X25.296 Y11.947 Z-0.900 F200
G1 X25.352 Y12.105 Z-0.900 F200
G1 X25.422 Y12.257 Z-0.900 F200
G1 X25.506 Y12.402 Z-0.900 F200
G1 X25.602 Y12.565 Z-0.900 F200
G1 X25.687 Y12.734 Z-0.900 F200
G1 X25.759 Y12.908 Z-0.900 F200
G1 X25.819 Y13.088 Z-0.900 F200
G1 X25.866 Y13.271 Z-0.900 F200
G1 X25.899 Y13.457 Z-0.900 F200
G1 X25.920 Y13.645 Z-0.900 F200
G1 X25.926 Y13.834 Z-0.900 F200
G1 X25.926 Y14.604 Z-0.900 F200
G1 X25.934 Y14.794 Z-0.900 F200
G1 X25.956 Y14.984 Z-0.900 F200
G1 X25.994 Y15.172 Z-0.900 F200
G1 X26.046 Y15.356 Z-0.900 F200
G1 X26.112 Y15.535 Z-0.900 F200
G1 X26.192 Y15.709 Z-0.900 F200
G1 X26.285 Y15.875 Z-0.900 F200
G1 X26.391 Y16.034 Z-0.900 F200
G1 X26.510 Y16.184 Z-0.900 F200
G1 X26.639 Y16.325 Z-0.900 F200
G1 X26.780 Y16.454 Z-0.900 F200
G1 X26.930 Y16.573 Z-0.900 F200
G1 X27.089 Y16.679 Z-0.900 F200
G1 X27.255 Y16.772 Z-0.900 F200
G1 X27.429 Y16.852 Z-0.900 F200
G1 X27.608 Y16.918 Z-0.900 F200
G1 X27.792 Y16.970 Z-0.900 F200
G1 X27.980 Y17.008 Z-0.900 F200
G1 X28.170 Y17.030 Z-0.900 F200
G1 X28.361 Y17.038 Z-0.900 F200
G1 X35.133 Y17.038 Z-0.900 F200
G1 X35.324 Y17.030 Z-0.900 F200
G1 X35.514 Y17.008 Z-0.900 F200
G1 X35.701 Y16.970 Z-0.900 F200
G1 X35.885 Y16.918 Z-0.900 F200
G1 X36.065 Y16.852 Z-0.900 F200
G1 X36.238 Y16.772 Z-0.900 F200
G1 X36.405 Y16.679 Z-0.900 F200
G1 X36.564 Y16.573 Z-0.900 F200
G1 X36.714 Y16.454 Z-0.900 F200
G1 X36.854 Y16.325 Z-0.900 F200
G1 X36.984 Y16.184 Z-0.900 F200
G1 X37.102 Y16.034 Z-0.900 F200
G1 X37.209 Y15.875 Z-0.900 F200
G1 X37.302 Y15.709 Z-0.900 F200
G1 X37.382 Y15.535 Z-0.900 F200
G1 X37.448 Y15.356 Z-0.900 F200
G1 X37.500 Y15.172 Z-0.900 F200
G1 X37.537 Y14.984 Z-0.900 F200
G1 X37.560 Y14.794 Z-0.900 F200
G1 X37.567 Y14.603 Z-0.900 F200
G1 X37.567 Y1.905 Z-0.900 F200
G1 X37.560 Y1.714 Z-0.900 F200
G1 X37.537 Y1.524 Z-0.900 F200
G1 X37.500 Y1.337 Z-0.900 F200
G1 X37.448 Y1.153 Z-0.900 F200
G1 X37.382 Y0.973 Z-0.900 F200
G1 X37.302 Y0.800 Z-0.900 F200
G1 X37.209 Y0.633 Z-0.900 F200
G1 X37.102 Y0.474 Z-0.900 F200
G1 X36.984 Y0.324 Z-0.900 F200
G1 X36.854 Y0.184 Z-0.900 F200
G1 X36.714 Y0.054 Z-0.900 F200
G1 X36.564 Y-0.064 Z-0.900 F200
G1 X36.405 Y-0.171 Z-0.900 F200
G1 X36.238 Y-0.264 Z-0.900 F200
G1 X36.065 Y-0.344 Z-0.900 F200
G1 X35.885 Y-0.410 Z-0.900 F200
G1 X35.701 Y-0.462 Z-0.900 F200
G1 X35.514 Y-0.499 Z-0.900 F200
G1 X35.324 Y-0.522 Z-0.900 F200
G1 X35.133 Y-0.529 Z-0.900 F200
G1 X1.905 Y-0.529 Z-0.900 F200
G1 X1.714 Y-0.522 Z-0.900 F200
G1 X1.524 Y-0.499 Z-0.900 F200
G1 X1.337 Y-0.462 Z-0.900 F200
G1 X1.153 Y-0.410 Z-0.900 F200
G1 X0.973 Y-0.344 Z-0.900 F200
G1 X0.800 Y-0.264 Z-0.900 F200
G1 X0.633 Y-0.171 Z-0.900 F200
G1 X0.474 Y-0.064 Z-0.900 F200
G1 X0.324 Y0.054 Z-0.900 F200
G1 X0.184 Y0.184 Z-0.900 F200
G1 X0.054 Y0.324 Z-0.900 F200
G1 X-0.064 Y0.474 Z-0.900 F200
G1 X-0.171 Y0.633 Z-0.900 F200
G1 X-0.264 Y0.800 Z-0.900 F200
G1 X-0.344 Y0.973 Z-0.900 F200
G1 X-0.410 Y1.153 Z-0.900 F200
G1 X-0.462 Y1.337 Z-0.900 F200
G1 X-0.499 Y1.524 Z-0.900 F200
G1 X-0.522 Y1.714 Z-0.900 F200
G1 X-0.529 Y1.905 Z-0.900 F200
G1 X-0.529 Y4.445 Z-0.900 F200
G1 X-0.522 Y4.636 Z-0.900 F200
G1 X-0.499 Y4.825 Z-0.900 F200
G1 X-0.462 Y5.013 Z-0.900 F200
G1 X-0.410 Y5.197 Z-0.900 F200
G1 X-0.344 Y5.376 Z-0.900 F200
G1 X-0.264 Y5.550 Z-0.900 F200
G1 X-0.171 Y5.716 Z-0.900 F200
G1 X-0.064 Y5.875 Z-0.900 F200
G1 X0.054 Y6.025 Z-0.900 F200
G1 X0.184 Y6.166 Z-0.900 F200
G1 X0.324 Y6.295 Z-0.900 F200
G1 X0.474 Y6.414 Z-0.900 F200
G1 X0.633 Y6.520 Z-0.900 F200
G1 X0.800 Y6.613 Z-0.900 F200
G1 X0.973 Y6.693 Z-0.900 F200
G1 X1.153 Y6.760 Z-0.900 F200
G1 X1.337 Y6.811 Z-0.900 F200
G1 X1.524 Y6.849 Z-0.900 F200
G1 X1.714 Y6.871 Z-0.900 F200
G1 X1.905 Y6.879 Z-0.900 F200
G1 X27.019 Y6.879 Z-0.900 F200
G1 X27.089 Y6.887 Z-0.900 F1500
G1 X27.156 Y6.910 Z-0.900 F1500
G1 X27.217 Y6.948 Z-0.900 F1500
G1 X27.267 Y6.998 Z-0.900 F1500
G1 X27.305 Y7.058 Z-0.900 F1500
G1 X27.328 Y7.125 Z-0.900 F1500
G1 X27.336 Y7.196 Z-0.900 F1500
G1 X27.336 Y7.514 Z-0.900 F1500
G1 X27.336 Y7.584 Z-0.892 F1500
G1 X27.336 Y7.651 Z-0.869 F1500
G1 X27.336 Y7.712 Z-0.831 F1500
G1 X27.336 Y7.762 Z-0.780 F1500
G1 X27.336 Y7.800 Z-0.720 F1500
G1 X27.336 Y7.823 Z-0.653 F1500
G1 X27.336 Y7.831 Z-0.583 F1500
G1 X27.336 Y7.831 Z2.000 F200
G1 X26.701 Y7.831 Z2.000 F200
G1 X26.701 Y7.831 Z1.000 F200
G1 X26.701 Y7.831 Z-0.265 F200
G1 X26.701 Y7.831 Z-0.683 F200
G1 X26.701 Y7.823 Z-0.753 F200
G1 X26.701 Y7.800 Z-0.820 F200
G1 X26.701 Y7.762 Z-0.880 F200
G1 X26.701 Y7.712 Z-0.931 F200
G1 X26.701 Y7.651 Z-0.969 F200
G1 X26.701 Y7.584 Z-0.992 F200
G1 X26.701 Y7.514 Z-1.000 F200
G1 X26.701 Y7.196 Z-1.000 F200
G1 X26.709 Y7.125 Z-1.000 F200
G1 X26.733 Y7.058 Z-1.000 F200
G1 X26.770 Y6.998 Z-1.000 F200
G1 X26.821 Y6.948 Z-1.000 F200
G1 X26.881 Y6.910 Z-1.000 F200
G1 X26.948 Y6.887 Z-1.000 F200
G1 X27.019 Y6.879 Z-1.000 F200
G1 X29.419 Y6.879 Z-1.000 F200
G1 X29.524 Y6.886 Z-1.000 F200
G1 X29.627 Y6.909 Z-1.000 F200
G1 X29.726 Y6.946 Z-1.000 F200
G1 X29.819 Y6.996 Z-1.000 F200
G1 X29.904 Y7.060 Z-1.000 F200
G1 X29.978 Y7.134 Z-1.000 F200
G1 X30.042 Y7.219 Z-1.000 F200
G1 X30.092 Y7.312 Z-1.000 F200
G1 X30.129 Y7.411 Z-1.000 F200
G1 X30.152 Y7.514 Z-1.000 F200
G1 X30.159 Y7.619 Z-1.000 F200
G1 X30.159 Y8.889 Z-1.000 F200
G1 X30.152 Y8.995 Z-1.000 F200
G1 X30.129 Y9.098 Z-1.000 F200
G1 X30.092 Y9.197 Z-1.000 F200
G1 X30.042 Y9.290 Z-1.000 F200
G1 X29.978 Y9.374 Z-1.000 F200
G1 X29.904 Y9.449 Z-1.000 F200
G1 X29.819 Y9.512 Z-1.000 F200
G1 X29.726 Y9.563 Z-1.000 F200
G1 X29.627 Y9.600 Z-1.000 F200
G1 X29.524 Y9.622 Z-1.000 F200
G1 X29.419 Y9.630 Z-1.000 F200
G1 X27.019 Y9.630 Z-1.000 F200
G1 X26.851 Y9.638 Z-1.000 F200
G1 X26.686 Y9.661 Z-1.000 F200
G1 X26.523 Y9.700 Z-1.000 F200
G1 X26.364 Y9.753 Z-1.000 F200
G1 X26.211 Y9.821 Z-1.000 F200
G1 X26.065 Y9.903 Z-1.000 F200
G1 X25.927 Y9.999 Z-1.000 F200
G1 X25.799 Y10.107 Z-1.000 F200
G1 X25.681 Y10.226 Z-1.000 F200
G1 X25.575 Y10.355 Z-1.000 F200
G1 X25.481 Y10.494 Z-1.000 F200
G1 X25.401 Y10.641 Z-1.000 F200
G1 X25.335 Y10.795 Z-1.000 F200
G1 X25.283 Y10.955 Z-1.000 F200
G1 X25.247 Y11.118 Z-1.000 F200
G1 X25.225 Y11.284 Z-1.000 F200
G1 X25.220 Y11.452 Z-1.000 F200
G1 X25.230 Y11.619 Z-1.000 F200
G1 X25.255 Y11.785 Z-1.000 F200
G1 X25.296 Y11.947 Z-1.000 F200
G1 X25.352 Y12.105 Z-1.000 F200
G1 X25.422 Y12.257 Z-1.000 F200
G1 X25.506 Y12.402 Z-1.000 F200
G1 X25.602 Y12.565 Z-1.000 F200
G1 X25.687 Y12.734 Z-1.000 F200
G1 X25.759 Y12.908 Z-1.000 F200
G1 X25.819 Y13.088 Z-1.000 F200
G1 X25.866 Y13.271 Z-1.000 F200
G1 X25.899 Y13.457 Z-1.000 F200
G1 X25.920 Y13.645 Z-1.000 F200
G1 X25.926 Y13.834 Z-1.000 F200
G1 X25.926 Y14.604 Z-1.000 F200
G1 X25.934 Y14.794 Z-1.000 F200
G1 X25.956 Y14.984 Z-1.000 F200
G1 X25.994 Y15.172 Z-1.000 F200
G1 X26.046 Y15.356 Z-1.000 F200
G1 X26.112 Y15.535 Z-1.000 F200
G1 X26.192 Y15.709 Z-1.000 F200
G1 X26.285 Y15.875 Z-1.000 F200
G1 X26.391 Y16.034 Z-1.000 F200
G1 X26.510 Y16.184 Z-1.000 F200
G1 X26.639 Y16.325 Z-1.000 F200
G1 X26.780 Y16.454 Z-1.000 F200
G1 X26.930 Y16.573 Z-1.000 F200
G1 X27.089 Y16.679 Z-1.000 F200
G1 X27.255 Y16.772 Z-1.000 F200
G1 X27.429 Y16.852 Z-1.000 F200
G1 X27.608 Y16.918 Z-1.000 F200
G1 X27.792 Y16.970 Z-1.000 F200
G1 X27.980 Y17.008 Z-1.000 F200
G1 X28.170 Y17.030 Z-1.000 F200
G1 X28.361 Y17.038 Z-1.000 F200
G1 X35.133 Y17.038 Z-1.000 F200
G1 X35.324 Y17.030 Z-1.000 F200
G1 X35.514 Y17.008 Z-1.000 F200
G1 X35.701 Y16.970 Z-1.000 F200
G1 X35.885 Y16.918 Z-1.000 F200
G1 X36.065 Y16.852 Z-1.000 F200
G1 X36.238 Y16.772 Z-1.000 F200
G1 X36.405 Y16.679 Z-1.000 F200
G1 X36.564 Y16.573 Z-1.000 F200
G1 X36.714 Y16.454 Z-1.000 F200
G1 X36.854 Y16.325 Z-1.000 F200
G1 X36.984 Y16.184 Z-1.000 F200
G1 X37.102 Y16.034 Z-1.000 F200
G1 X37.209 Y15.875 Z-1.000 F200
G1 X37.302 Y15.709 Z-1.000 F200
G1 X37.382 Y15.535 Z-1.000 F200
G1 X37.448 Y15.356 Z-1.000 F200
G1 X37.500 Y15.172 Z-1.000 F200
G1 X37.537 Y14.984 Z-1.000 F200
G1 X37.560 Y14.794 Z-1.000 F200
G1 X37.567 Y14.603 Z-1.000 F200
G1 X37.567 Y1.905 Z-1.000 F200
G1 X37.560 Y1.714 Z-1.000 F200
G1 X37.537 Y1.524 Z-1.000 F200
G1 X37.500 Y1.337 Z-1.000 F200
G1 X37.448 Y1.153 Z-1.000 F200
G1 X37.382 Y0.973 Z-1.000 F200
G1 X37.302 Y0.800 Z-1.000 F200
G1 X37.209 Y0.633 Z-1.000 F200
G1 X37.102 Y0.474 Z-1.000 F200
G1 X36.984 Y0.324 Z-1.000 F200
G1 X36.854 Y0.184 Z-1.000 F200
G1 X36.714 Y0.054 Z-1.000 F200
G1 X36.564 Y-0.064 Z-1.000 F200
G1 X36.405 Y-0.171 Z-1.000 F200
G1 X36.238 Y-0.264 Z-1.000 F200
G1 X36.065 Y-0.344 Z-1.000 F200
G1 X35.885 Y-0.410 Z-1.000 F200
G1 X35.701 Y-0.462 Z-1.000 F200
G1 X35.514 Y-0.499 Z-1.000 F200
G1 X35.324 Y-0.522 Z-1.000 F200
G1 X35.133 Y-0.529 Z-1.000 F200
G1 X1.905 Y-0.529 Z-1.000 F200
G1 X1.714 Y-0.522 Z-1.000 F200
G1 X1.524 Y-0.499 Z-1.000 F200
G1 X1.337 Y-0.462 Z-1.000 F200
G1 X1.153 Y-0.410 Z-1.000 F200
G1 X0.973 Y-0.344 Z-1.000 F200
G1 X0.800 Y-0.264 Z-1.000 F200
G1 X0.633 Y-0.171 Z-1.000 F200
G1 X0.474 Y-0.064 Z-1.000 F200
G1 X0.324 Y0.054 Z-1.000 F200
G1 X0.184 Y0.184 Z-1.000 F200
G1 X0.054 Y0.324 Z-1.000 F200
G1 X-0.064 Y0.474 Z-1.000 F200
G1 X-0.171 Y0.633 Z-1.000 F200
G1 X-0.264 Y0.800 Z-1.000 F200
G1 X-0.344 Y0.973 Z-1.000 F200
G1 X-0.410 Y1.153 Z-1.000 F200
G1 X-0.462 Y1.337 Z-1.000 F200
G1 X-0.499 Y1.524 Z-1.000 F200
G1 X-0.522 Y1.714 Z-1.000 F200
G1 X-0.529 Y1.905 Z-1.000 F200
G1 X-0.529 Y4.445 Z-1.000 F200
G1 X-0.522 Y4.636 Z-1.000 F200
G1 X-0.499 Y4.825 Z-1.000 F200
G1 X-0.462 Y5.013 Z-1.000 F200
G1 X-0.410 Y5.197 Z-1.000 F200
G1 X-0.344 Y5.376 Z-1.000 F200
G1 X-0.264 Y5.550 Z-1.000 F200
G1 X-0.171 Y5.716 Z-1.000 F200
G1 X-0.064 Y5.875 Z-1.000 F200
G1 X0.054 Y6.025 Z-1.000 F200
G1 X0.184 Y6.166 Z-1.000 F200
G1 X0.324 Y6.295 Z-1.000 F200
G1 X0.474 Y6.414 Z-1.000 F200
G1 X0.633 Y6.520 Z-1.000 F200
G1 X0.800 Y6.613 Z-1.000 F200
G1 X0.973 Y6.693 Z-1.000 F200
G1 X1.153 Y6.760 Z-1.000 F200
G1 X1.337 Y6.811 Z-1.000 F200
G1 X1.524 Y6.849 Z-1.000 F200
G1 X1.714 Y6.871 Z-1.000 F200
G1 X1.905 Y6.879 Z-1.000 F200
G1 X27.019 Y6.879 Z-1.000 F200
G1 X27.089 Y6.887 Z-1.000 F1500
G1 X27.156 Y6.910 Z-1.000 F1500
G1 X27.217 Y6.948 Z-1.000 F1500
G1 X27.267 Y6.998 Z-1.000 F1500
G1 X27.305 Y7.058 Z-1.000 F1500
G1 X27.328 Y7.125 Z-1.000 F1500
G1 X27.336 Y7.196 Z-1.000 F1500
G1 X27.336 Y7.514 Z-1.000 F1500
G1 X27.336 Y7.584 Z-0.992 F1500
G1 X27.336 Y7.651 Z-0.969 F1500
G1 X27.336 Y7.712 Z-0.931 F1500
G1 X27.336 Y7.762 Z-0.880 F1500
G1 X27.336 Y7.800 Z-0.820 F1500
G1 X27.336 Y7.823 Z-0.753 F1500
G1 X27.336 Y7.831 Z-0.683 F1500
G1 X27.336 Y7.831 Z2.000 F200
G1 X26.701 Y7.831 Z2.000 F200
G1 X26.701 Y7.831 Z1.000 F200
G1 X26.701 Y7.831 Z-0.365 F200
G1 X26.701 Y7.831 Z-0.783 F200
G1 X26.701 Y7.823 Z-0.853 F200
G1 X26.701 Y7.800 Z-0.920 F200
G1 X26.701 Y7.762 Z-0.980 F200
G1 X26.701 Y7.712 Z-1.031 F200
G1 X26.701 Y7.651 Z-1.069 F200
G1 X26.701 Y7.584 Z-1.092 F200
G1 X26.701 Y7.514 Z-1.100 F200
G1 X26.701 Y7.196 Z-1.100 F200
G1 X26.709 Y7.125 Z-1.100 F200
G1 X26.733 Y7.058 Z-1.100 F200
G1 X26.770 Y6.998 Z-1.100 F200
G1 X26.821 Y6.948 Z-1.100 F200
G1 X26.881 Y6.910 Z-1.100 F200
G1 X26.948 Y6.887 Z-1.100 F200
G1 X27.019 Y6.879 Z-1.100 F200
G1 X29.419 Y6.879 Z-1.100 F200
G1 X29.524 Y6.886 Z-1.100 F200
G1 X29.627 Y6.909 Z-1.100 F200
G1 X29.726 Y6.946 Z-1.100 F200
G1 X29.819 Y6.996 Z-1.100 F200
G1 X29.904 Y7.060 Z-1.100 F200
G1 X29.978 Y7.134 Z-1.100 F200
G1 X30.042 Y7.219 Z-1.100 F200
G1 X30.092 Y7.312 Z-1.100 F200
G1 X30.129 Y7.411 Z-1.100 F200
G1 X30.152 Y7.514 Z-1.100 F200
G1 X30.159 Y7.619 Z-1.100 F200
G1 X30.159 Y8.889 Z-1.100 F200
G1 X30.152 Y8.995 Z-1.100 F200
G1 X30.129 Y9.098 Z-1.100 F200
G1 X30.092 Y9.197 Z-1.100 F200
G1 X30.042 Y9.290 Z-1.100 F200
G1 X29.978 Y9.374 Z-1.100 F200
G1 X29.904 Y9.449 Z-1.100 F200
G1 X29.819 Y9.512 Z-1.100 F200
G1 X29.726 Y9.563 Z-1.100 F200
G1 X29.627 Y9.600 Z-1.100 F200
G1 X29.524 Y9.622 Z-1.100 F200
G1 X29.419 Y9.630 Z-1.100 F200
G1 X27.019 Y9.630 Z-1.100 F200
G1 X26.851 Y9.638 Z-1.100 F200
G1 X26.686 Y9.661 Z-1.100 F200
G1 X26.523 Y9.700 Z-1.100 F200
G1 X26.364 Y9.753 Z-1.100 F200
G1 X26.211 Y9.821 Z-1.100 F200
G1 X26.065 Y9.903 Z-1.100 F200
G1 X25.927 Y9.999 Z-1.100 F200
G1 X25.799 Y10.107 Z-1.100 F200
G1 X25.681 Y10.226 Z-1.100 F200
G1 X25.575 Y10.355 Z-1.100 F200
G1 X25.481 Y10.494 Z-1.100 F200
G1 X25.401 Y10.641 Z-1.100 F200
G1 X25.335 Y10.795 Z-1.100 F200
G1 X25.283 Y10.955 Z-1.100 F200
G1 X25.247 Y11.118 Z-1.100 F200
G1 X25.225 Y11.284 Z-1.100 F200
G1 X25.220 Y11.452 Z-1.100 F200
G1 X25.230 Y11.619 Z-1.100 F200
G1 X25.255 Y11.785 Z-1.100 F200
G1 X25.296 Y11.947 Z-1.100 F200
G1 X25.352 Y12.105 Z-1.100 F200
G1 X25.422 Y12.257 Z-1.100 F200
G1 X25.506 Y12.402 Z-1.100 F200
G1 X25.602 Y12.565 Z-1.100 F200
G1 X25.687 Y12.734 Z-1.100 F200
G1 X25.759 Y12.908 Z-1.100 F200
G1 X25.819 Y13.088 Z-1.100 F200
G1 X25.866 Y13.271 Z-1.100 F200
G1 X25.899 Y13.457 Z-1.100 F200
G1 X25.920 Y13.645 Z-1.100 F200
G1 X25.926 Y13.834 Z-1.100 F200
G1 X25.926 Y14.604 Z-1.100 F200
G1 X25.934 Y14.794 Z-1.100 F200
G1 X25.956 Y14.984 Z-1.100 F200
G1 X25.994 Y15.172 Z-1.100 F200
G1 X26.046 Y15.356 Z-1.100 F200
G1 X26.112 Y15.535 Z-1.100 F200
G1 X26.192 Y15.709 Z-1.100 F200
G1 X26.285 Y15.875 Z-1.100 F200
G1 X26.391 Y16.034 Z-1.100 F200
G1 X26.510 Y16.184 Z-1.100 F200
G1 X26.639 Y16.325 Z-1.100 F200
G1 X26.780 Y16.454 Z-1.100 F200
G1 X26.930 Y16.573 Z-1.100 F200
G1 X27.089 Y16.679 Z-1.100 F200
G1 X27.255 Y16.772 Z-1.100 F200
G1 X27.429 Y16.852 Z-1.100 F200
G1 X27.608 Y16.918 Z-1.100 F200
G1 X27.792 Y16.970 Z-1.100 F200
G1 X27.980 Y17.008 Z-1.100 F200
G1 X28.170 Y17.030 Z-1.100 F200
G1 X28.361 Y17.038 Z-1.100 F200
G1 X35.133 Y17.038 Z-1.100 F200
G1 X35.324 Y17.030 Z-1.100 F200
G1 X35.514 Y17.008 Z-1.100 F200
G1 X35.701 Y16.970 Z-1.100 F200
G1 X35.885 Y16.918 Z-1.100 F200
G1 X36.065 Y16.852 Z-1.100 F200
G1 X36.238 Y16.772 Z-1.100 F200
G1 X36.405 Y16.679 Z-1.100 F200
G1 X36.564 Y16.573 Z-1.100 F200
G1 X36.714 Y16.454 Z-1.100 F200
G1 X36.854 Y16.325 Z-1.100 F200
G1 X36.984 Y16.184 Z-1.100 F200
G1 X37.102 Y16.034 Z-1.100 F200
G1 X37.209 Y15.875 Z-1.100 F200
G1 X37.302 Y15.709 Z-1.100 F200
G1 X37.382 Y15.535 Z-1.100 F200
G1 X37.448 Y15.356 Z-1.100 F200
G1 X37.500 Y15.172 Z-1.100 F200
G1 X37.537 Y14.984 Z-1.100 F200
G1 X37.560 Y14.794 Z-1.100 F200
G1 X37.567 Y14.603 Z-1.100 F200
G1 X37.567 Y1.905 Z-1.100 F200
G1 X37.560 Y1.714 Z-1.100 F200
G1 X37.537 Y1.524 Z-1.100 F200
G1 X37.500 Y1.337 Z-1.100 F200
G1 X37.448 Y1.153 Z-1.100 F200
G1 X37.382 Y0.973 Z-1.100 F200
G1 X37.302 Y0.800 Z-1.100 F200
G1 X37.209 Y0.633 Z-1.100 F200
G1 X37.102 Y0.474 Z-1.100 F200
G1 X36.984 Y0.324 Z-1.100 F200
G1 X36.854 Y0.184 Z-1.100 F200
G1 X36.714 Y0.054 Z-1.100 F200
G1 X36.564 Y-0.064 Z-1.100 F200
G1 X36.405 Y-0.171 Z-1.100 F200
G1 X36.238 Y-0.264 Z-1.100 F200
G1 X36.065 Y-0.344 Z-1.100 F200
G1 X35.885 Y-0.410 Z-1.100 F200
G1 X35.701 Y-0.462 Z-1.100 F200
G1 X35.514 Y-0.499 Z-1.100 F200
G1 X35.324 Y-0.522 Z-1.100 F200
G1 X35.133 Y-0.529 Z-1.100 F200
G1 X1.905 Y-0.529 Z-1.100 F200
G1 X1.714 Y-0.522 Z-1.100 F200
G1 X1.524 Y-0.499 Z-1.100 F200
G1 X1.337 Y-0.462 Z-1.100 F200
G1 X1.153 Y-0.410 Z-1.100 F200
G1 X0.973 Y-0.344 Z-1.100 F200
G1 X0.800 Y-0.264 Z-1.100 F200
G1 X0.633 Y-0.171 Z-1.100 F200
G1 X0.474 Y-0.064 Z-1.100 F200
G1 X0.324 Y0.054 Z-1.100 F200
G1 X0.184 Y0.184 Z-1.100 F200
G1 X0.054 Y0.324 Z-1.100 F200
G1 X-0.064 Y0.474 Z-1.100 F200
G1 X-0.171 Y0.633 Z-1.100 F200
G1 X-0.264 Y0.800 Z-1.100 F200
G1 X-0.344 Y0.973 Z-1.100 F200
G1 X-0.410 Y1.153 Z-1.100 F200
G1 X-0.462 Y1.337 Z-1.100 F200
G1 X-0.499 Y1.524 Z-1.100 F200
G1 X-0.522 Y1.714 Z-1.100 F200
G1 X-0.529 Y1.905 Z-1.100 F200
G1 X-0.529 Y4.445 Z-1.100 F200
G1 X-0.522 Y4.636 Z-1.100 F200
G1 X-0.499 Y4.825 Z-1.100 F200
G1 X-0.462 Y5.013 Z-1.100 F200
G1 X-0.410 Y5.197 Z-1.100 F200
G1 X-0.344 Y5.376 Z-1.100 F200
G1 X-0.264 Y5.550 Z-1.100 F200
G1 X-0.171 Y5.716 Z-1.100 F200
G1 X-0.064 Y5.875 Z-1.100 F200
G1 X0.054 Y6.025 Z-1.100 F200
G1 X0.184 Y6.166 Z-1.100 F200
G1 X0.324 Y6.295 Z-1.100 F200
G1 X0.474 Y6.414 Z-1.100 F200
G1 X0.633 Y6.520 Z-1.100 F200
G1 X0.800 Y6.613 Z-1.100 F200
G1 X0.973 Y6.693 Z-1.100 F200
G1 X1.153 Y6.760 Z-1.100 F200
G1 X1.337 Y6.811 Z-1.100 F200
G1 X1.524 Y6.849 Z-1.100 F200
G1 X1.714 Y6.871 Z-1.100 F200
G1 X1.905 Y6.879 Z-1.100 F200
G1 X27.019 Y6.879 Z-1.100 F200
G1 X27.089 Y6.887 Z-1.100 F1500
G1 X27.156 Y6.910 Z-1.100 F1500
G1 X27.217 Y6.948 Z-1.100 F1500
G1 X27.267 Y6.998 Z-1.100 F1500
G1 X27.305 Y7.058 Z-1.100 F1500
G1 X27.328 Y7.125 Z-1.100 F1500
G1 X27.336 Y7.196 Z-1.100 F1500
G1 X27.336 Y7.514 Z-1.100 F1500
G1 X27.336 Y7.584 Z-1.092 F1500
G1 X27.336 Y7.651 Z-1.069 F1500
G1 X27.336 Y7.712 Z-1.031 F1500
G1 X27.336 Y7.762 Z-0.980 F1500
G1 X27.336 Y7.800 Z-0.920 F1500
G1 X27.336 Y7.823 Z-0.853 F1500
G1 X27.336 Y7.831 Z-0.783 F1500
G1 X27.336 Y7.831 Z2.000 F200
G1 X26.701 Y7.831 Z2.000 F200
G1 X26.701 Y7.831 Z1.000 F200
G1 X26.701 Y7.831 Z-0.465 F200
G1 X26.701 Y7.831 Z-0.883 F200
G1 X26.701 Y7.823 Z-0.953 F200
G1 X26.701 Y7.800 Z-1.020 F200
G1 X26.701 Y7.762 Z-1.080 F200
G1 X26.701 Y7.712 Z-1.131 F200
G1 X26.701 Y7.651 Z-1.169 F200
G1 X26.701 Y7.584 Z-1.192 F200
G1 X26.701 Y7.514 Z-1.200 F200
G1 X26.701 Y7.196 Z-1.200 F200
G1 X26.709 Y7.125 Z-1.200 F200
G1 X26.733 Y7.058 Z-1.200 F200
G1 X26.770 Y6.998 Z-1.200 F200
G1 X26.821 Y6.948 Z-1.200 F200
G1 X26.881 Y6.910 Z-1.200 F200
G1 X26.948 Y6.887 Z-1.200 F200
G1 X27.019 Y6.879 Z-1.200 F200
G1 X29.419 Y6.879 Z-1.200 F200
G1 X29.524 Y6.886 Z-1.200 F200
G1 X29.627 Y6.909 Z-1.200 F200
G1 X29.726 Y6.946 Z-1.200 F200
G1 X29.819 Y6.996 Z-1.200 F200
G1 X29.904 Y7.060 Z-1.200 F200
G1 X29.978 Y7.134 Z-1.200 F200
G1 X30.042 Y7.219 Z-1.200 F200
G1 X30.092 Y7.312 Z-1.200 F200
G1 X30.129 Y7.411 Z-1.200 F200
G1 X30.152 Y7.514 Z-1.200 F200
G1 X30.159 Y7.619 Z-1.200 F200
G1 X30.159 Y8.889 Z-1.200 F200
G1 X30.152 Y8.995 Z-1.200 F200
G1 X30.129 Y9.098 Z-1.200 F200
G1 X30.092 Y9.197 Z-1.200 F200
G1 X30.042 Y9.290 Z-1.200 F200
G1 X29.978 Y9.374 Z-1.200 F200
G1 X29.904 Y9.449 Z-1.200 F200
G1 X29.819 Y9.512 Z-1.200 F200
G1 X29.726 Y9.563 Z-1.200 F200
G1 X29.627 Y9.600 Z-1.200 F200
G1 X29.524 Y9.622 Z-1.200 F200
G1 X29.419 Y9.630 Z-1.200 F200
G1 X27.019 Y9.630 Z-1.200 F200
G1 X26.851 Y9.638 Z-1.200 F200
G1 X26.686 Y9.661 Z-1.200 F200
G1 X26.523 Y9.700 Z-1.200 F200
G1 X26.364 Y9.753 Z-1.200 F200
G1 X26.211 Y9.821 Z-1.200 F200
G1 X26.065 Y9.903 Z-1.200 F200
G1 X25.927 Y9.999 Z-1.200 F200
G1 X25.799 Y10.107 Z-1.200 F200
G1 X25.681 Y10.226 Z-1.200 F200
G1 X25.575 Y10.355 Z-1.200 F200
G1 X25.481 Y10.494 Z-1.200 F200
G1 X25.401 Y10.641 Z-1.200 F200
G1 X25.335 Y10.795 Z-1.200 F200
G1 X25.283 Y10.955 Z-1.200 F200
G1 X25.247 Y11.118 Z-1.200 F200
G1 X25.225 Y11.284 Z-1.200 F200
G1 X25.220 Y11.452 Z-1.200 F200
G1 X25.230 Y11.619 Z-1.200 F200
G1 X25.255 Y11.785 Z-1.200 F200
G1 X25.296 Y11.947 Z-1.200 F200
G1 X25.352 Y12.105 Z-1.200 F200
G1 X25.422 Y12.257 Z-1.200 F200
G1 X25.506 Y12.402 Z-1.200 F200
G1 X25.602 Y12.565 Z-1.200 F200
G1 X25.687 Y12.734 Z-1.200 F200
G1 X25.759 Y12.908 Z-1.200 F200
G1 X25.819 Y13.088 Z-1.200 F200
G1 X25.866 Y13.271 Z-1.200 F200
G1 X25.899 Y13.457 Z-1.200 F200
G1 X25.920 Y13.645 Z-1.200 F200
G1 X25.926 Y13.834 Z-1.200 F200
G1 X25.926 Y14.604 Z-1.200 F200
G1 X25.934 Y14.794 Z-1.200 F200
G1 X25.956 Y14.984 Z-1.200 F200
G1 X25.994 Y15.172 Z-1.200 F200
G1 X26.046 Y15.356 Z-1.200 F200
G1 X26.112 Y15.535 Z-1.200 F200
G1 X26.192 Y15.709 Z-1.200 F200
G1 X26.285 Y15.875 Z-1.200 F200
G1 X26.391 Y16.034 Z-1.200 F200
G1 X26.510 Y16.184 Z-1.200 F200
G1 X26.639 Y16.325 Z-1.200 F200
G1 X26.780 Y16.454 Z-1.200 F200
G1 X26.930 Y16.573 Z-1.200 F200
G1 X27.089 Y16.679 Z-1.200 F200
G1 X27.255 Y16.772 Z-1.200 F200
G1 X27.429 Y16.852 Z-1.200 F200
G1 X27.608 Y16.918 Z-1.200 F200
G1 X27.792 Y16.970 Z-1.200 F200
G1 X27.980 Y17.008 Z-1.200 F200
G1 X28.170 Y17.030 Z-1.200 F200
G1 X28.361 Y17.038 Z-1.200 F200
G1 X35.133 Y17.038 Z-1.200 F200
G1 X35.324 Y17.030 Z-1.200 F200
G1 X35.514 Y17.008 Z-1.200 F200
G1 X35.701 Y16.970 Z-1.200 F200
G1 X35.885 Y16.918 Z-1.200 F200
G1 X36.065 Y16.852 Z-1.200 F200
G1 X36.238 Y16.772 Z-1.200 F200
G1 X36.405 Y16.679 Z-1.200 F200
G1 X36.564 Y16.573 Z-1.200 F200
G1 X36.714 Y16.454 Z-1.200 F200
G1 X36.854 Y16.325 Z-1.200 F200
G1 X36.984 Y16.184 Z-1.200 F200
G1 X37.102 Y16.034 Z-1.200 F200
G1 X37.209 Y15.875 Z-1.200 F200
G1 X37.302 Y15.709 Z-1.200 F200
G1 X37.382 Y15.535 Z-1.200 F200
G1 X37.448 Y15.356 Z-1.200 F200
G1 X37.500 Y15.172 Z-1.200 F200
G1 X37.537 Y14.984 Z-1.200 F200
G1 X37.560 Y14.794 Z-1.200 F200
G1 X37.567 Y14.603 Z-1.200 F200
G1 X37.567 Y1.905 Z-1.200 F200
G1 X37.560 Y1.714 Z-1.200 F200
G1 X37.537 Y1.524 Z-1.200 F200
G1 X37.500 Y1.337 Z-1.200 F200
G1 X37.448 Y1.153 Z-1.200 F200
G1 X37.382 Y0.973 Z-1.200 F200
G1 X37.302 Y0.800 Z-1.200 F200
G1 X37.209 Y0.633 Z-1.200 F200
G1 X37.102 Y0.474 Z-1.200 F200
G1 X36.984 Y0.324 Z-1.200 F200
G1 X36.854 Y0.184 Z-1.200 F200
G1 X36.714 Y0.054 Z-1.200 F200
G1 X36.564 Y-0.064 Z-1.200 F200
G1 X36.405 Y-0.171 Z-1.200 F200
G1 X36.238 Y-0.264 Z-1.200 F200
G1 X36.065 Y-0.344 Z-1.200 F200
G1 X35.885 Y-0.410 Z-1.200 F200
G1 X35.701 Y-0.462 Z-1.200 F200
G1 X35.514 Y-0.499 Z-1.200 F200
G1 X35.324 Y-0.522 Z-1.200 F200
G1 X35.133 Y-0.529 Z-1.200 F200
G1 X1.905 Y-0.529 Z-1.200 F200
G1 X1.714 Y-0.522 Z-1.200 F200
G1 X1.524 Y-0.499 Z-1.200 F200
G1 X1.337 Y-0.462 Z-1.200 F200
G1 X1.153 Y-0.410 Z-1.200 F200
G1 X0.973 Y-0.344 Z-1.200 F200
G1 X0.800 Y-0.264 Z-1.200 F200
G1 X0.633 Y-0.171 Z-1.200 F200
G1 X0.474 Y-0.064 Z-1.200 F200
G1 X0.324 Y0.054 Z-1.200 F200
G1 X0.184 Y0.184 Z-1.200 F200
G1 X0.054 Y0.324 Z-1.200 F200
G1 X-0.064 Y0.474 Z-1.200 F200
G1 X-0.171 Y0.633 Z-1.200 F200
G1 X-0.264 Y0.800 Z-1.200 F200
G1 X-0.344 Y0.973 Z-1.200 F200
G1 X-0.410 Y1.153 Z-1.200 F200
G1 X-0.462 Y1.337 Z-1.200 F200
G1 X-0.499 Y1.524 Z-1.200 F200
G1 X-0.522 Y1.714 Z-1.200 F200
G1 X-0.529 Y1.905 Z-1.200 F200
G1 X-0.529 Y4.445 Z-1.200 F200
G1 X-0.522 Y4.636 Z-1.200 F200
G1 X-0.499 Y4.825 Z-1.200 F200
G1 X-0.462 Y5.013 Z-1.200 F200
G1 X-0.410 Y5.197 Z-1.200 F200
G1 X-0.344 Y5.376 Z-1.200 F200
G1 X-0.264 Y5.550 Z-1.200 F200
G1 X-0.171 Y5.716 Z-1.200 F200
G1 X-0.064 Y5.875 Z-1.200 F200
G1 X0.054 Y6.025 Z-1.200 F200
G1 X0.184 Y6.166 Z-1.200 F200
G1 X0.324 Y6.295 Z-1.200 F200
G1 X0.474 Y6.414 Z-1.200 F200
G1 X0.633 Y6.520 Z-1.200 F200
G1 X0.800 Y6.613 Z-1.200 F200
G1 X0.973 Y6.693 Z-1.200 F200
G1 X1.153 Y6.760 Z-1.200 F200
G1 X1.337 Y6.811 Z-1.200 F200
G1 X1.524 Y6.849 Z-1.200 F200
G1 X1.714 Y6.871 Z-1.200 F200
G1 X1.905 Y6.879 Z-1.200 F200
G1 X27.019 Y6.879 Z-1.200 F200
G1 X27.089 Y6.887 Z-1.200 F1500
G1 X27.156 Y6.910 Z-1.200 F1500
G1 X27.217 Y6.948 Z-1.200 F1500
G1 X27.267 Y6.998 Z-1.200 F1500
G1 X27.305 Y7.058 Z-1.200 F1500
G1 X27.328 Y7.125 Z-1.200 F1500
G1 X27.336 Y7.196 Z-1.200 F1500
G1 X27.336 Y7.514 Z-1.200 F1500
G1 X27.336 Y7.584 Z-1.192 F1500
G1 X27.336 Y7.651 Z-1.169 F1500
G1 X27.336 Y7.712 Z-1.131 F1500
G1 X27.336 Y7.762 Z-1.080 F1500
G1 X27.336 Y7.800 Z-1.020 F1500
G1 X27.336 Y7.823 Z-0.953 F1500
G1 X27.336 Y7.831 Z-0.883 F1500
G1 X27.336 Y7.831 Z2.000 F200
G1 X26.701 Y7.831 Z2.000 F200
G1 X26.701 Y7.831 Z1.000 F200
G1 X26.701 Y7.831 Z-0.565 F200
G1 X26.701 Y7.831 Z-0.983 F200
G1 X26.701 Y7.823 Z-1.053 F200
G1 X26.701 Y7.800 Z-1.120 F200
G1 X26.701 Y7.762 Z-1.180 F200
G1 X26.701 Y7.712 Z-1.231 F200
G1 X26.701 Y7.651 Z-1.269 F200
G1 X26.701 Y7.584 Z-1.292 F200
G1 X26.701 Y7.514 Z-1.300 F200
G1 X26.701 Y7.196 Z-1.300 F200
G1 X26.709 Y7.125 Z-1.300 F200
G1 X26.733 Y7.058 Z-1.300 F200
G1 X26.770 Y6.998 Z-1.300 F200
G1 X26.821 Y6.948 Z-1.300 F200
G1 X26.881 Y6.910 Z-1.300 F200
G1 X26.948 Y6.887 Z-1.300 F200
G1 X27.019 Y6.879 Z-1.300 F200
G1 X29.419 Y6.879 Z-1.300 F200
G1 X29.524 Y6.886 Z-1.300 F200
G1 X29.627 Y6.909 Z-1.300 F200
G1 X29.726 Y6.946 Z-1.300 F200
G1 X29.819 Y6.996 Z-1.300 F200
G1 X29.904 Y7.060 Z-1.300 F200
G1 X29.978 Y7.134 Z-1.300 F200
G1 X30.042 Y7.219 Z-1.300 F200
G1 X30.092 Y7.312 Z-1.300 F200
G1 X30.129 Y7.411 Z-1.300 F200
G1 X30.152 Y7.514 Z-1.300 F200
G1 X30.159 Y7.619 Z-1.300 F200
G1 X30.159 Y8.889 Z-1.300 F200
G1 X30.152 Y8.995 Z-1.300 F200
G1 X30.129 Y9.098 Z-1.300 F200
G1 X30.092 Y9.197 Z-1.300 F200
G1 X30.042 Y9.290 Z-1.300 F200
G1 X29.978 Y9.374 Z-1.300 F200
G1 X29.904 Y9.449 Z-1.300 F200
G1 X29.819 Y9.512 Z-1.300 F200
G1 X29.726 Y9.563 Z-1.300 F200
G1 X29.627 Y9.600 Z-1.300 F200
G1 X29.524 Y9.622 Z-1.300 F200
G1 X29.419 Y9.630 Z-1.300 F200
G1 X27.019 Y9.630 Z-1.300 F200
G1 X26.851 Y9.638 Z-1.300 F200
G1 X26.686 Y9.661 Z-1.300 F200
G1 X26.523 Y9.700 Z-1.300 F200
G1 X26.364 Y9.753 Z-1.300 F200
G1 X26.211 Y9.821 Z-1.300 F200
G1 X26.065 Y9.903 Z-1.300 F200
G1 X25.927 Y9.999 Z-1.300 F200
G1 X25.799 Y10.107 Z-1.300 F200
G1 X25.681 Y10.226 Z-1.300 F200
G1 X25.575 Y10.355 Z-1.300 F200
G1 X25.481 Y10.494 Z-1.300 F200
G1 X25.401 Y10.641 Z-1.300 F200
G1 X25.335 Y10.795 Z-1.300 F200
G1 X25.283 Y10.955 Z-1.300 F200
G1 X25.247 Y11.118 Z-1.300 F200
G1 X25.225 Y11.284 Z-1.300 F200
G1 X25.220 Y11.452 Z-1.300 F200
G1 X25.230 Y11.619 Z-1.300 F200
G1 X25.255 Y11.785 Z-1.300 F200
G1 X25.296 Y11.947 Z-1.300 F200
G1 X25.352 Y12.105 Z-1.300 F200
G1 X25.422 Y12.257 Z-1.300 F200
G1 X25.506 Y12.402 Z-1.300 F200
G1 X25.602 Y12.565 Z-1.300 F200
G1 X25.687 Y12.734 Z-1.300 F200
G1 X25.759 Y12.908 Z-1.300 F200
G1 X25.819 Y13.088 Z-1.300 F200
G1 X25.866 Y13.271 Z-1.300 F200
G1 X25.899 Y13.457 Z-1.300 F200
G1 X25.920 Y13.645 Z-1.300 F200
G1 X25.926 Y13.834 Z-1.300 F200
G1 X25.926 Y14.604 Z-1.300 F200
G1 X25.934 Y14.794 Z-1.300 F200
G1 X25.956 Y14.984 Z-1.300 F200
G1 X25.994 Y15.172 Z-1.300 F200
G1 X26.046 Y15.356 Z-1.300 F200
G1 X26.112 Y15.535 Z-1.300 F200
G1 X26.192 Y15.709 Z-1.300 F200
G1 X26.285 Y15.875 Z-1.300 F200
G1 X26.391 Y16.034 Z-1.300 F200
G1 X26.510 Y16.184 Z-1.300 F200
G1 X26.639 Y16.325 Z-1.300 F200
G1 X26.780 Y16.454 Z-1.300 F200
G1 X26.930 Y16.573 Z-1.300 F200
G1 X27.089 Y16.679 Z-1.300 F200
G1 X27.255 Y16.772 Z-1.300 F200
G1 X27.429 Y16.852 Z-1.300 F200
G1 X27.608 Y16.918 Z-1.300 F200
G1 X27.792 Y16.970 Z-1.300 F200
G1 X27.980 Y17.008 Z-1.300 F200
G1 X28.170 Y17.030 Z-1.300 F200
G1 X28.361 Y17.038 Z-1.300 F200
G1 X35.133 Y17.038 Z-1.300 F200
G1 X35.324 Y17.030 Z-1.300 F200
G1 X35.514 Y17.008 Z-1.300 F200
G1 X35.701 Y16.970 Z-1.300 F200
G1 X35.885 Y16.918 Z-1.300 F200
G1 X36.065 Y16.852 Z-1.300 F200
G1 X36.238 Y16.772 Z-1.300 F200
G1 X36.405 Y16.679 Z-1.300 F200
G1 X36.564 Y16.573 Z-1.300 F200
G1 X36.714 Y16.454 Z-1.300 F200
G1 X36.854 Y16.325 Z-1.300 F200
G1 X36.984 Y16.184 Z-1.300 F200
G1 X37.102 Y16.034 Z-1.300 F200
G1 X37.209 Y15.875 Z-1.300 F200
G1 X37.302 Y15.709 Z-1.300 F200
G1 X37.382 Y15.535 Z-1.300 F200
G1 X37.448 Y15.356 Z-1.300 F200
G1 X37.500 Y15.172 Z-1.300 F200
G1 X37.537 Y14.984 Z-1.300 F200
G1 X37.560 Y14.794 Z-1.300 F200
G1 X37.567 Y14.603 Z-1.300 F200
G1 X37.567 Y1.905 Z-1.300 F200
G1 X37.560 Y1.714 Z-1.300 F200
G1 X37.537 Y1.524 Z-1.300 F200
G1 X37.500 Y1.337 Z-1.300 F200
G1 X37.448 Y1.153 Z-1.300 F200
G1 X37.382 Y0.973 Z-1.300 F200
G1 X37.302 Y0.800 Z-1.300 F200
G1 X37.209 Y0.633 Z-1.300 F200
G1 X37.102 Y0.474 Z-1.300 F200
G1 X36.984 Y0.324 Z-1.300 F200
G1 X36.854 Y0.184 Z-1.300 F200
G1 X36.714 Y0.054 Z-1.300 F200
G1 X36.564 Y-0.064 Z-1.300 F200
G1 X36.405 Y-0.171 Z-1.300 F200
G1 X36.238 Y-0.264 Z-1.300 F200
G1 X36.065 Y-0.344 Z-1.300 F200
G1 X35.885 Y-0.410 Z-1.300 F200
G1 X35.701 Y-0.462 Z-1.300 F200
G1 X35.514 Y-0.499 Z-1.300 F200
G1 X35.324 Y-0.522 Z-1.300 F200
G1 X35.133 Y-0.529 Z-1.300 F200
G1 X1.905 Y-0.529 Z-1.300 F200
G1 X1.714 Y-0.522 Z-1.300 F200
G1 X1.524 Y-0.499 Z-1.300 F200
G1 X1.337 Y-0.462 Z-1.300 F200
G1 X1.153 Y-0.410 Z-1.300 F200
G1 X0.973 Y-0.344 Z-1.300 F200
G1 X0.800 Y-0.264 Z-1.300 F200
G1 X0.633 Y-0.171 Z-1.300 F200
G1 X0.474 Y-0.064 Z-1.300 F200
G1 X0.324 Y0.054 Z-1.300 F200
G1 X0.184 Y0.184 Z-1.300 F200
G1 X0.054 Y0.324 Z-1.300 F200
G1 X-0.064 Y0.474 Z-1.300 F200
G1 X-0.171 Y0.633 Z-1.300 F200
G1 X-0.264 Y0.800 Z-1.300 F200
G1 X-0.344 Y0.973 Z-1.300 F200
G1 X-0.410 Y1.153 Z-1.300 F200
G1 X-0.462 Y1.337 Z-1.300 F200
G1 X-0.499 Y1.524 Z-1.300 F200
G1 X-0.522 Y1.714 Z-1.300 F200
G1 X-0.529 Y1.905 Z-1.300 F200
G1 X-0.529 Y4.445 Z-1.300 F200
G1 X-0.522 Y4.636 Z-1.300 F200
G1 X-0.499 Y4.825 Z-1.300 F200
G1 X-0.462 Y5.013 Z-1.300 F200
G1 X-0.410 Y5.197 Z-1.300 F200
G1 X-0.344 Y5.376 Z-1.300 F200
G1 X-0.264 Y5.550 Z-1.300 F200
G1 X-0.171 Y5.716 Z-1.300 F200
G1 X-0.064 Y5.875 Z-1.300 F200
G1 X0.054 Y6.025 Z-1.300 F200
G1 X0.184 Y6.166 Z-1.300 F200
G1 X0.324 Y6.295 Z-1.300 F200
G1 X0.474 Y6.414 Z-1.300 F200
G1 X0.633 Y6.520 Z-1.300 F200
G1 X0.800 Y6.613 Z-1.300 F200
G1 X0.973 Y6.693 Z-1.300 F200
G1 X1.153 Y6.760 Z-1.300 F200
G1 X1.337 Y6.811 Z-1.300 F200
G1 X1.524 Y6.849 Z-1.300 F200
G1 X1.714 Y6.871 Z-1.300 F200
G1 X1.905 Y6.879 Z-1.300 F200
G1 X27.019 Y6.879 Z-1.300 F200
G1 X27.089 Y6.887 Z-1.300 F1500
G1 X27.156 Y6.910 Z-1.300 F1500
G1 X27.217 Y6.948 Z-1.300 F1500
G1 X27.267 Y6.998 Z-1.300 F1500
G1 X27.305 Y7.058 Z-1.300 F1500
G1 X27.328 Y7.125 Z-1.300 F1500
G1 X27.336 Y7.196 Z-1.300 F1500
G1 X27.336 Y7.514 Z-1.300 F1500
G1 X27.336 Y7.584 Z-1.292 F1500
G1 X27.336 Y7.651 Z-1.269 F1500
G1 X27.336 Y7.712 Z-1.231 F1500
G1 X27.336 Y7.762 Z-1.180 F1500
G1 X27.336 Y7.800 Z-1.120 F1500
G1 X27.336 Y7.823 Z-1.053 F1500
G1 X27.336 Y7.831 Z-0.983 F1500
G1 X27.336 Y7.831 Z2.000 F200
G1 X26.701 Y7.831 Z2.000 F200
G1 X26.701 Y7.831 Z1.000 F200
G1 X26.701 Y7.831 Z-0.665 F200
G1 X26.701 Y7.831 Z-1.083 F200
G1 X26.701 Y7.823 Z-1.153 F200
G1 X26.701 Y7.800 Z-1.220 F200
G1 X26.701 Y7.762 Z-1.280 F200
G1 X26.701 Y7.712 Z-1.331 F200
G1 X26.701 Y7.651 Z-1.369 F200
G1 X26.701 Y7.584 Z-1.392 F200
G1 X26.701 Y7.514 Z-1.400 F200
G1 X26.701 Y7.196 Z-1.400 F200
G1 X26.709 Y7.125 Z-1.400 F200
G1 X26.733 Y7.058 Z-1.400 F200
G1 X26.770 Y6.998 Z-1.400 F200
G1 X26.821 Y6.948 Z-1.400 F200
G1 X26.881 Y6.910 Z-1.400 F200
G1 X26.948 Y6.887 Z-1.400 F200
G1 X27.019 Y6.879 Z-1.400 F200
G1 X29.419 Y6.879 Z-1.400 F200
G1 X29.524 Y6.886 Z-1.400 F200
G1 X29.627 Y6.909 Z-1.400 F200
G1 X29.726 Y6.946 Z-1.400 F200
G1 X29.819 Y6.996 Z-1.400 F200
G1 X29.904 Y7.060 Z-1.400 F200
G1 X29.978 Y7.134 Z-1.400 F200
G1 X30.042 Y7.219 Z-1.400 F200
G1 X30.092 Y7.312 Z-1.400 F200
G1 X30.129 Y7.411 Z-1.400 F200
G1 X30.152 Y7.514 Z-1.400 F200
G1 X30.159 Y7.619 Z-1.400 F200
G1 X30.159 Y8.889 Z-1.400 F200
G1 X30.152 Y8.995 Z-1.400 F200
G1 X30.129 Y9.098 Z-1.400 F200
G1 X30.092 Y9.197 Z-1.400 F200
G1 X30.042 Y9.290 Z-1.400 F200
G1 X29.978 Y9.374 Z-1.400 F200
G1 X29.904 Y9.449 Z-1.400 F200
G1 X29.819 Y9.512 Z-1.400 F200
G1 X29.726 Y9.563 Z-1.400 F200
G1 X29.627 Y9.600 Z-1.400 F200
G1 X29.524 Y9.622 Z-1.400 F200
G1 X29.419 Y9.630 Z-1.400 F200
G1 X27.019 Y9.630 Z-1.400 F200
G1 X26.851 Y9.638 Z-1.400 F200
G1 X26.686 Y9.661 Z-1.400 F200
G1 X26.523 Y9.700 Z-1.400 F200
G1 X26.364 Y9.753 Z-1.400 F200
G1 X26.211 Y9.821 Z-1.400 F200
G1 X26.065 Y9.903 Z-1.400 F200
G1 X25.927 Y9.999 Z-1.400 F200
G1 X25.799 Y10.107 Z-1.400 F200
G1 X25.681 Y10.226 Z-1.400 F200
G1 X25.575 Y10.355 Z-1.400 F200
G1 X25.481 Y10.494 Z-1.400 F200
G1 X25.401 Y10.641 Z-1.400 F200
G1 X25.335 Y10.795 Z-1.400 F200
G1 X25.283 Y10.955 Z-1.400 F200
G1 X25.247 Y11.118 Z-1.400 F200
G1 X25.225 Y11.284 Z-1.400 F200
G1 X25.220 Y11.452 Z-1.400 F200
G1 X25.230 Y11.619 Z-1.400 F200
G1 X25.255 Y11.785 Z-1.400 F200
G1 X25.296 Y11.947 Z-1.400 F200
G1 X25.352 Y12.105 Z-1.400 F200
G1 X25.422 Y12.257 Z-1.400 F200
G1 X25.506 Y12.402 Z-1.400 F200
G1 X25.602 Y12.565 Z-1.400 F200
G1 X25.687 Y12.734 Z-1.400 F200
G1 X25.759 Y12.908 Z-1.400 F200
G1 X25.819 Y13.088 Z-1.400 F200
G1 X25.866 Y13.271 Z-1.400 F200
G1 X25.899 Y13.457 Z-1.400 F200
G1 X25.920 Y13.645 Z-1.400 F200
G1 X25.926 Y13.834 Z-1.400 F200
G1 X25.926 Y14.604 Z-1.400 F200
G1 X25.934 Y14.794 Z-1.400 F200
G1 X25.956 Y14.984 Z-1.400 F200
G1 X25.994 Y15.172 Z-1.400 F200
G1 X26.046 Y15.356 Z-1.400 F200
G1 X26.112 Y15.535 Z-1.400 F200
G1 X26.192 Y15.709 Z-1.400 F200
G1 X26.285 Y15.875 Z-1.400 F200
G1 X26.391 Y16.034 Z-1.400 F200
G1 X26.510 Y16.184 Z-1.400 F200
G1 X26.639 Y16.325 Z-1.400 F200
G1 X26.780 Y16.454 Z-1.400 F200
G1 X26.930 Y16.573 Z-1.400 F200
G1 X27.089 Y16.679 Z-1.400 F200
G1 X27.255 Y16.772 Z-1.400 F200
G1 X27.429 Y16.852 Z-1.400 F200
G1 X27.608 Y16.918 Z-1.400 F200
G1 X27.792 Y16.970 Z-1.400 F200
G1 X27.980 Y17.008 Z-1.400 F200
G1 X28.170 Y17.030 Z-1.400 F200
G1 X28.361 Y17.038 Z-1.400 F200
G1 X35.133 Y17.038 Z-1.400 F200
G1 X35.324 Y17.030 Z-1.400 F200
G1 X35.514 Y17.008 Z-1.400 F200
G1 X35.701 Y16.970 Z-1.400 F200
G1 X35.885 Y16.918 Z-1.400 F200
G1 X36.065 Y16.852 Z-1.400 F200
G1 X36.238 Y16.772 Z-1.400 F200
G1 X36.405 Y16.679 Z-1.400 F200
G1 X36.564 Y16.573 Z-1.400 F200
G1 X36.714 Y16.454 Z-1.400 F200
G1 X36.854 Y16.325 Z-1.400 F200
G1 X36.984 Y16.184 Z-1.400 F200
G1 X37.102 Y16.034 Z-1.400 F200
G1 X37.209 Y15.875 Z-1.400 F200
G1 X37.302 Y15.709 Z-1.400 F200
G1 X37.382 Y15.535 Z-1.400 F200
G1 X37.448 Y15.356 Z-1.400 F200
G1 X37.500 Y15.172 Z-1.400 F200
G1 X37.537 Y14.984 Z-1.400 F200
G1 X37.560 Y14.794 Z-1.400 F200
G1 X37.567 Y14.603 Z-1.400 F200
G1 X37.567 Y1.905 Z-1.400 F200
G1 X37.560 Y1.714 Z-1.400 F200
G1 X37.537 Y1.524 Z-1.400 F200
G1 X37.500 Y1.337 Z-1.400 F200
G1 X37.448 Y1.153 Z-1.400 F200
G1 X37.382 Y0.973 Z-1.400 F200
G1 X37.302 Y0.800 Z-1.400 F200
G1 X37.209 Y0.633 Z-1.400 F200
G1 X37.102 Y0.474 Z-1.400 F200
G1 X36.984 Y0.324 Z-1.400 F200
G1 X36.854 Y0.184 Z-1.400 F200
G1 X36.714 Y0.054 Z-1.400 F200
G1 X36.564 Y-0.064 Z-1.400 F200
G1 X36.405 Y-0.171 Z-1.400 F200
G1 X36.238 Y-0.264 Z-1.400 F200
G1 X36.065 Y-0.344 Z-1.400 F200
G1 X35.885 Y-0.410 Z-1.400 F200
G1 X35.701 Y-0.462 Z-1.400 F200
G1 X35.514 Y-0.499 Z-1.400 F200
G1 X35.324 Y-0.522 Z-1.400 F200
G1 X35.133 Y-0.529 Z-1.400 F200
G1 X1.905 Y-0.529 Z-1.400 F200
G1 X1.714 Y-0.522 Z-1.400 F200
G1 X1.524 Y-0.499 Z-1.400 F200
G1 X1.337 Y-0.462 Z-1.400 F200
G1 X1.153 Y-0.410 Z-1.400 F200
G1 X0.973 Y-0.344 Z-1.400 F200
G1 X0.800 Y-0.264 Z-1.400 F200
G1 X0.633 Y-0.171 Z-1.400 F200
G1 X0.474 Y-0.064 Z-1.400 F200
G1 X0.324 Y0.054 Z-1.400 F200
G1 X0.184 Y0.184 Z-1.400 F200
G1 X0.054 Y0.324 Z-1.400 F200
G1 X-0.064 Y0.474 Z-1.400 F200
G1 X-0.171 Y0.633 Z-1.400 F200
G1 X-0.264 Y0.800 Z-1.400 F200
G1 X-0.344 Y0.973 Z-1.400 F200
G1 X-0.410 Y1.153 Z-1.400 F200
G1 X-0.462 Y1.337 Z-1.400 F200
G1 X-0.499 Y1.524 Z-1.400 F200
G1 X-0.522 Y1.714 Z-1.400 F200
G1 X-0.529 Y1.905 Z-1.400 F200
G1 X-0.529 Y4.445 Z-1.400 F200
G1 X-0.522 Y4.636 Z-1.400 F200
G1 X-0.499 Y4.825 Z-1.400 F200
G1 X-0.462 Y5.013 Z-1.400 F200
G1 X-0.410 Y5.197 Z-1.400 F200
G1 X-0.344 Y5.376 Z-1.400 F200
G1 X-0.264 Y5.550 Z-1.400 F200
G1 X-0.171 Y5.716 Z-1.400 F200
G1 X-0.064 Y5.875 Z-1.400 F200
G1 X0.054 Y6.025 Z-1.400 F200
G1 X0.184 Y6.166 Z-1.400 F200
G1 X0.324 Y6.295 Z-1.400 F200
G1 X0.474 Y6.414 Z-1.400 F200
G1 X0.633 Y6.520 Z-1.400 F200
G1 X0.800 Y6.613 Z-1.400 F200
G1 X0.973 Y6.693 Z-1.400 F200
G1 X1.153 Y6.760 Z-1.400 F200
G1 X1.337 Y6.811 Z-1.400 F200
G1 X1.524 Y6.849 Z-1.400 F200
G1 X1.714 Y6.871 Z-1.400 F200
G1 X1.905 Y6.879 Z-1.400 F200
G1 X27.019 Y6.879 Z-1.400 F200
G1 X27.089 Y6.887 Z-1.400 F1500
G1 X27.156 Y6.910 Z-1.400 F1500
G1 X27.217 Y6.948 Z-1.400 F1500
G1 X27.267 Y6.998 Z-1.400 F1500
G1 X27.305 Y7.058 Z-1.400 F1500
G1 X27.328 Y7.125 Z-1.400 F1500
G1 X27.336 Y7.196 Z-1.400 F1500
G1 X27.336 Y7.514 Z-1.400 F1500
G1 X27.336 Y7.584 Z-1.392 F1500
G1 X27.336 Y7.651 Z-1.369 F1500
G1 X27.336 Y7.712 Z-1.331 F1500
G1 X27.336 Y7.762 Z-1.280 F1500
G1 X27.336 Y7.800 Z-1.220 F1500
G1 X27.336 Y7.823 Z-1.153 F1500
G1 X27.336 Y7.831 Z-1.083 F1500
G1 X27.336 Y7.831 Z2.000 F200
G1 X26.701 Y7.831 Z2.000 F200
G1 X26.701 Y7.831 Z1.000 F200
G1 X26.701 Y7.831 Z-0.765 F200
G1 X26.701 Y7.831 Z-1.183 F200
G1 X26.701 Y7.823 Z-1.253 F200
G1 X26.701 Y7.800 Z-1.320 F200
G1 X26.701 Y7.762 Z-1.380 F200
G1 X26.701 Y7.712 Z-1.431 F200
G1 X26.701 Y7.651 Z-1.469 F200
G1 X26.701 Y7.584 Z-1.492 F200
G1 X26.701 Y7.514 Z-1.500 F200
G1 X26.701 Y7.196 Z-1.500 F200
G1 X26.709 Y7.125 Z-1.500 F200
G1 X26.733 Y7.058 Z-1.500 F200
G1 X26.770 Y6.998 Z-1.500 F200
G1 X26.821 Y6.948 Z-1.500 F200
G1 X26.881 Y6.910 Z-1.500 F200
G1 X26.948 Y6.887 Z-1.500 F200
G1 X27.019 Y6.879 Z-1.500 F200
G1 X29.419 Y6.879 Z-1.500 F200
G1 X29.524 Y6.886 Z-1.500 F200
G1 X29.627 Y6.909 Z-1.500 F200
G1 X29.726 Y6.946 Z-1.500 F200
G1 X29.819 Y6.996 Z-1.500 F200
G1 X29.904 Y7.060 Z-1.500 F200
G1 X29.978 Y7.134 Z-1.500 F200
G1 X30.042 Y7.219 Z-1.500 F200
G1 X30.092 Y7.312 Z-1.500 F200
G1 X30.129 Y7.411 Z-1.500 F200
G1 X30.152 Y7.514 Z-1.500 F200
G1 X30.159 Y7.619 Z-1.500 F200
G1 X30.159 Y8.889 Z-1.500 F200
G1 X30.152 Y8.995 Z-1.500 F200
G1 X30.129 Y9.098 Z-1.500 F200
G1 X30.092 Y9.197 Z-1.500 F200
G1 X30.042 Y9.290 Z-1.500 F200
G1 X29.978 Y9.374 Z-1.500 F200
G1 X29.904 Y9.449 Z-1.500 F200
G1 X29.819 Y9.512 Z-1.500 F200
G1 X29.726 Y9.563 Z-1.500 F200
G1 X29.627 Y9.600 Z-1.500 F200
G1 X29.524 Y9.622 Z-1.500 F200
G1 X29.419 Y9.630 Z-1.500 F200
G1 X27.019 Y9.630 Z-1.500 F200
G1 X26.851 Y9.638 Z-1.500 F200
G1 X26.686 Y9.661 Z-1.500 F200
G1 X26.523 Y9.700 Z-1.500 F200
G1 X26.364 Y9.753 Z-1.500 F200
G1 X26.211 Y9.821 Z-1.500 F200
G1 X26.065 Y9.903 Z-1.500 F200
G1 X25.927 Y9.999 Z-1.500 F200
G1 X25.799 Y10.107 Z-1.500 F200
G1 X25.681 Y10.226 Z-1.500 F200
G1 X25.575 Y10.355 Z-1.500 F200
G1 X25.481 Y10.494 Z-1.500 F200
G1 X25.401 Y10.641 Z-1.500 F200
G1 X25.335 Y10.795 Z-1.500 F200
G1 X25.283 Y10.955 Z-1.500 F200
G1 X25.247 Y11.118 Z-1.500 F200
G1 X25.225 Y11.284 Z-1.500 F200
G1 X25.220 Y11.452 Z-1.500 F200
G1 X25.230 Y11.619 Z-1.500 F200
G1 X25.255 Y11.785 Z-1.500 F200
G1 X25.296 Y11.947 Z-1.500 F200
G1 X25.352 Y12.105 Z-1.500 F200
G1 X25.422 Y12.257 Z-1.500 F200
G1 X25.506 Y12.402 Z-1.500 F200
G1 X25.602 Y12.565 Z-1.500 F200
G1 X25.687 Y12.734 Z-1.500 F200
G1 X25.759 Y12.908 Z-1.500 F200
G1 X25.819 Y13.088 Z-1.500 F200
G1 X25.866 Y13.271 Z-1.500 F200
G1 X25.899 Y13.457 Z-1.500 F200
G1 X25.920 Y13.645 Z-1.500 F200
G1 X25.926 Y13.834 Z-1.500 F200
G1 X25.926 Y14.604 Z-1.500 F200
G1 X25.934 Y14.794 Z-1.500 F200
G1 X25.956 Y14.984 Z-1.500 F200
G1 X25.994 Y15.172 Z-1.500 F200
G1 X26.046 Y15.356 Z-1.500 F200
G1 X26.112 Y15.535 Z-1.500 F200
G1 X26.192 Y15.709 Z-1.500 F200
G1 X26.285 Y15.875 Z-1.500 F200
G1 X26.391 Y16.034 Z-1.500 F200
G1 X26.510 Y16.184 Z-1.500 F200
G1 X26.639 Y16.325 Z-1.500 F200
G1 X26.780 Y16.454 Z-1.500 F200
G1 X26.930 Y16.573 Z-1.500 F200
G1 X27.089 Y16.679 Z-1.500 F200
G1 X27.255 Y16.772 Z-1.500 F200
G1 X27.429 Y16.852 Z-1.500 F200
G1 X27.608 Y16.918 Z-1.500 F200
G1 X27.792 Y16.970 Z-1.500 F200
G1 X27.980 Y17.008 Z-1.500 F200
G1 X28.170 Y17.030 Z-1.500 F200
G1 X28.361 Y17.038 Z-1.500 F200
G1 X35.133 Y17.038 Z-1.500 F200
G1 X35.324 Y17.030 Z-1.500 F200
G1 X35.514 Y17.008 Z-1.500 F200
G1 X35.701 Y16.970 Z-1.500 F200
G1 X35.885 Y16.918 Z-1.500 F200
G1 X36.065 Y16.852 Z-1.500 F200
G1 X36.238 Y16.772 Z-1.500 F200
G1 X36.405 Y16.679 Z-1.500 F200
G1 X36.564 Y16.573 Z-1.500 F200
G1 X36.714 Y16.454 Z-1.500 F200
G1 X36.854 Y16.325 Z-1.500 F200
G1 X36.984 Y16.184 Z-1.500 F200
G1 X37.102 Y16.034 Z-1.500 F200
G1 X37.209 Y15.875 Z-1.500 F200
G1 X37.302 Y15.709 Z-1.500 F200
G1 X37.382 Y15.535 Z-1.500 F200
G1 X37.448 Y15.356 Z-1.500 F200
G1 X37.500 Y15.172 Z-1.500 F200
G1 X37.537 Y14.984 Z-1.500 F200
G1 X37.560 Y14.794 Z-1.500 F200
G1 X37.567 Y14.603 Z-1.500 F200
G1 X37.567 Y1.905 Z-1.500 F200
G1 X37.560 Y1.714 Z-1.500 F200
G1 X37.537 Y1.524 Z-1.500 F200
G1 X37.500 Y1.337 Z-1.500 F200
G1 X37.448 Y1.153 Z-1.500 F200
G1 X37.382 Y0.973 Z-1.500 F200
G1 X37.302 Y0.800 Z-1.500 F200
G1 X37.209 Y0.633 Z-1.500 F200
G1 X37.102 Y0.474 Z-1.500 F200
G1 X36.984 Y0.324 Z-1.500 F200
G1 X36.854 Y0.184 Z-1.500 F200
G1 X36.714 Y0.054 Z-1.500 F200
G1 X36.564 Y-0.064 Z-1.500 F200
G1 X36.405 Y-0.171 Z-1.500 F200
G1 X36.238 Y-0.264 Z-1.500 F200
G1 X36.065 Y-0.344 Z-1.500 F200
G1 X35.885 Y-0.410 Z-1.500 F200
G1 X35.701 Y-0.462 Z-1.500 F200
G1 X35.514 Y-0.499 Z-1.500 F200
G1 X35.324 Y-0.522 Z-1.500 F200
G1 X35.133 Y-0.529 Z-1.500 F200
G1 X1.905 Y-0.529 Z-1.500 F200
G1 X1.714 Y-0.522 Z-1.500 F200
G1 X1.524 Y-0.499 Z-1.500 F200
G1 X1.337 Y-0.462 Z-1.500 F200
G1 X1.153 Y-0.410 Z-1.500 F200
G1 X0.973 Y-0.344 Z-1.500 F200
G1 X0.800 Y-0.264 Z-1.500 F200
G1 X0.633 Y-0.171 Z-1.500 F200
G1 X0.474 Y-0.064 Z-1.500 F200
G1 X0.324 Y0.054 Z-1.500 F200
G1 X0.184 Y0.184 Z-1.500 F200
G1 X0.054 Y0.324 Z-1.500 F200
G1 X-0.064 Y0.474 Z-1.500 F200
G1 X-0.171 Y0.633 Z-1.500 F200
G1 X-0.264 Y0.800 Z-1.500 F200
G1 X-0.344 Y0.973 Z-1.500 F200
G1 X-0.410 Y1.153 Z-1.500 F200
G1 X-0.462 Y1.337 Z-1.500 F200
G1 X-0.499 Y1.524 Z-1.500 F200
G1 X-0.522 Y1.714 Z-1.500 F200
G1 X-0.529 Y1.905 Z-1.500 F200
G1 X-0.529 Y4.445 Z-1.500 F200
G1 X-0.522 Y4.636 Z-1.500 F200
G1 X-0.499 Y4.825 Z-1.500 F200
G1 X-0.462 Y5.013 Z-1.500 F200
G1 X-0.410 Y5.197 Z-1.500 F200
G1 X-0.344 Y5.376 Z-1.500 F200
G1 X-0.264 Y5.550 Z-1.500 F200
G1 X-0.171 Y5.716 Z-1.500 F200
G1 X-0.064 Y5.875 Z-1.500 F200
G1 X0.054 Y6.025 Z-1.500 F200
G1 X0.184 Y6.166 Z-1.500 F200
G1 X0.324 Y6.295 Z-1.500 F200
G1 X0.474 Y6.414 Z-1.500 F200
G1 X0.633 Y6.520 Z-1.500 F200
G1 X0.800 Y6.613 Z-1.500 F200
G1 X0.973 Y6.693 Z-1.500 F200
G1 X1.153 Y6.760 Z-1.500 F200
G1 X1.337 Y6.811 Z-1.500 F200
G1 X1.524 Y6.849 Z-1.500 F200
G1 X1.714 Y6.871 Z-1.500 F200
G1 X1.905 Y6.879 Z-1.500 F200
G1 X27.019 Y6.879 Z-1.500 F200
G1 X27.089 Y6.887 Z-1.500 F1500
G1 X27.156 Y6.910 Z-1.500 F1500
G1 X27.217 Y6.948 Z-1.500 F1500
G1 X27.267 Y6.998 Z-1.500 F1500
G1 X27.305 Y7.058 Z-1.500 F1500
G1 X27.328 Y7.125 Z-1.500 F1500
G1 X27.336 Y7.196 Z-1.500 F1500
G1 X27.336 Y7.514 Z-1.500 F1500
G1 X27.336 Y7.584 Z-1.492 F1500
G1 X27.336 Y7.651 Z-1.469 F1500
G1 X27.336 Y7.712 Z-1.431 F1500
G1 X27.336 Y7.762 Z-1.380 F1500
G1 X27.336 Y7.800 Z-1.320 F1500
G1 X27.336 Y7.823 Z-1.253 F1500
G1 X27.336 Y7.831 Z-1.183 F1500
G1 X27.336 Y7.831 Z2.000 F200
G1 X26.701 Y7.831 Z2.000 F200
G1 X26.701 Y7.831 Z1.000 F200
G1 X26.701 Y7.831 Z-0.865 F200
G1 X26.701 Y7.831 Z-1.283 F200
G1 X26.701 Y7.823 Z-1.353 F200
G1 X26.701 Y7.800 Z-1.420 F200
G1 X26.701 Y7.762 Z-1.480 F200
G1 X26.701 Y7.712 Z-1.531 F200
G1 X26.701 Y7.651 Z-1.569 F200
G1 X26.701 Y7.584 Z-1.592 F200
G1 X26.701 Y7.514 Z-1.600 F200
G1 X26.701 Y7.196 Z-1.600 F200
G1 X26.709 Y7.125 Z-1.600 F200
G1 X26.733 Y7.058 Z-1.600 F200
G1 X26.770 Y6.998 Z-1.600 F200
G1 X26.821 Y6.948 Z-1.600 F200
G1 X26.881 Y6.910 Z-1.600 F200
G1 X26.948 Y6.887 Z-1.600 F200
G1 X27.019 Y6.879 Z-1.600 F200
G1 X29.419 Y6.879 Z-1.600 F200
G1 X29.524 Y6.886 Z-1.600 F200
G1 X29.627 Y6.909 Z-1.600 F200
G1 X29.726 Y6.946 Z-1.600 F200
G1 X29.819 Y6.996 Z-1.600 F200
G1 X29.904 Y7.060 Z-1.600 F200
G1 X29.978 Y7.134 Z-1.600 F200
G1 X30.042 Y7.219 Z-1.600 F200
G1 X30.092 Y7.312 Z-1.600 F200
G1 X30.129 Y7.411 Z-1.600 F200
G1 X30.152 Y7.514 Z-1.600 F200
G1 X30.159 Y7.619 Z-1.600 F200
G1 X30.159 Y8.889 Z-1.600 F200
G1 X30.152 Y8.995 Z-1.600 F200
G1 X30.129 Y9.098 Z-1.600 F200
G1 X30.092 Y9.197 Z-1.600 F200
G1 X30.042 Y9.290 Z-1.600 F200
G1 X29.978 Y9.374 Z-1.600 F200
G1 X29.904 Y9.449 Z-1.600 F200
G1 X29.819 Y9.512 Z-1.600 F200
G1 X29.726 Y9.563 Z-1.600 F200
G1 X29.627 Y9.600 Z-1.600 F200
G1 X29.524 Y9.622 Z-1.600 F200
G1 X29.419 Y9.630 Z-1.600 F200
G1 X27.019 Y9.630 Z-1.600 F200
G1 X26.851 Y9.638 Z-1.600 F200
G1 X26.686 Y9.661 Z-1.600 F200
G1 X26.523 Y9.700 Z-1.600 F200
G1 X26.364 Y9.753 Z-1.600 F200
G1 X26.211 Y9.821 Z-1.600 F200
G1 X26.065 Y9.903 Z-1.600 F200
G1 X25.927 Y9.999 Z-1.600 F200
G1 X25.799 Y10.107 Z-1.600 F200
G1 X25.681 Y10.226 Z-1.600 F200
G1 X25.575 Y10.355 Z-1.600 F200
G1 X25.481 Y10.494 Z-1.600 F200
G1 X25.401 Y10.641 Z-1.600 F200
G1 X25.335 Y10.795 Z-1.600 F200
G1 X25.283 Y10.955 Z-1.600 F200
G1 X25.247 Y11.118 Z-1.600 F200
G1 X25.225 Y11.284 Z-1.600 F200
G1 X25.220 Y11.452 Z-1.600 F200
G1 X25.230 Y11.619 Z-1.600 F200
G1 X25.255 Y11.785 Z-1.600 F200
G1 X25.296 Y11.947 Z-1.600 F200
G1 X25.352 Y12.105 Z-1.600 F200
G1 X25.422 Y12.257 Z-1.600 F200
G1 X25.506 Y12.402 Z-1.600 F200
G1 X25.602 Y12.565 Z-1.600 F200
G1 X25.687 Y12.734 Z-1.600 F200
G1 X25.759 Y12.908 Z-1.600 F200
G1 X25.819 Y13.088 Z-1.600 F200
G1 X25.866 Y13.271 Z-1.600 F200
G1 X25.899 Y13.457 Z-1.600 F200
G1 X25.920 Y13.645 Z-1.600 F200
G1 X25.926 Y13.834 Z-1.600 F200
G1 X25.926 Y14.604 Z-1.600 F200
G1 X25.934 Y14.794 Z-1.600 F200
G1 X25.956 Y14.984 Z-1.600 F200
G1 X25.994 Y15.172 Z-1.600 F200
G1 X26.046 Y15.356 Z-1.600 F200
G1 X26.112 Y15.535 Z-1.600 F200
G1 X26.192 Y15.709 Z-1.600 F200
G1 X26.285 Y15.875 Z-1.600 F200
G1 X26.391 Y16.034 Z-1.600 F200
G1 X26.510 Y16.184 Z-1.600 F200
G1 X26.639 Y16.325 Z-1.600 F200
G1 X26.780 Y16.454 Z-1.600 F200
G1 X26.930 Y16.573 Z-1.600 F200
G1 X27.089 Y16.679 Z-1.600 F200
G1 X27.255 Y16.772 Z-1.600 F200
G1 X27.429 Y16.852 Z-1.600 F200
G1 X27.608 Y16.918 Z-1.600 F200
G1 X27.792 Y16.970 Z-1.600 F200
G1 X27.980 Y17.008 Z-1.600 F200
G1 X28.170 Y17.030 Z-1.600 F200
G1 X28.361 Y17.038 Z-1.600 F200
G1 X35.133 Y17.038 Z-1.600 F200
G1 X35.324 Y17.030 Z-1.600 F200
G1 X35.514 Y17.008 Z-1.600 F200
G1 X35.701 Y16.970 Z-1.600 F200
G1 X35.885 Y16.918 Z-1.600 F200
G1 X36.065 Y16.852 Z-1.600 F200
G1 X36.238 Y16.772 Z-1.600 F200
G1 X36.405 Y16.679 Z-1.600 F200
G1 X36.564 Y16.573 Z-1.600 F200
G1 X36.714 Y16.454 Z-1.600 F200
G1 X36.854 Y16.325 Z-1.600 F200
G1 X36.984 Y16.184 Z-1.600 F200
G1 X37.102 Y16.034 Z-1.600 F200
G1 X37.209 Y15.875 Z-1.600 F200
G1 X37.302 Y15.709 Z-1.600 F200
G1 X37.382 Y15.535 Z-1.600 F200
G1 X37.448 Y15.356 Z-1.600 F200
G1 X37.500 Y15.172 Z-1.600 F200
G1 X37.537 Y14.984 Z-1.600 F200
G1 X37.560 Y14.794 Z-1.600 F200
G1 X37.567 Y14.603 Z-1.600 F200
G1 X37.567 Y1.905 Z-1.600 F200
G1 X37.560 Y1.714 Z-1.600 F200
G1 X37.537 Y1.524 Z-1.600 F200
G1 X37.500 Y1.337 Z-1.600 F200
